AgX-main-3/config.ocio
# OpenColorIO configuration file for Blender
#
# ACEScg and ACES2065-1 spaces using OpenColorIO's BuiltinTransform
#
# Filmic Dynamic Range LUT configuration crafted by Troy James Sobotka with
# special thanks and feedback from Guillermo, Claudio Rocha, Bassam Kurdali,
# Eugenio Pignataro, Henri Hebeisen, Jason Clarke, Haarm-Peter Duiker, Thomas
# Mansencal, and Timothy Lottes.
#
# Based on original AgX by Troy Sobotka: https://github.com/sobotka/AgX https://github.com/sobotka/SB2383-Configuration-Generation
# Further Developed by Zijun Eary Zhou法纤净, Mark Faderbauer, and Sakari Kapanen
# Repository for this version: https://github.com/EaryChow/AgX
#
# See ocio-license.txt for details.

ocio_profile_version: 2.4

search_path: "luts:filmic"
strictparsing: true
luma: [0.2126, 0.7152, 0.0722]

description: RRT version ut33

roles:
  reference: Linear CIE-XYZ E

  # Internal scene linear space
  scene_linear: Linear Rec.2020
  rendering: Linear Rec.2020

  # Default color space for byte image
  default_byte: sRGB - Texture

  # Default color space for float images
  default_float: Linear Rec.2020

  # Default color space sequencer is working in
  default_sequencer: sRGB - Texture

  # Distribution of colors in color picker
  color_picking: sRGB - Texture

  # Non-color data
  data: Raw

  # For interop between configs, and to determine XYZ for rendering
  aces_interchange: ACES2065-1
  cie_xyz_d65_interchange: CIE-XYZ-D65

  # Specified by OCIO, not used in Blender
  color_timing: AgX Log
  compositing_log: AgX Log
  default: Linear Rec.2020
  matte_paint: Linear Rec.2020
  texture_paint: sRGB - Texture

file_rules:
  - !<Rule> {name: srgb_tx, colorspace: sRGB - Texture, pattern: "*srgb_tx*", extension: "*"}
  - !<Rule> {name: srgb_texture, colorspace: sRGB - Texture, pattern: "*srgb_texture*", extension: "*"}
  - !<Rule> {name: ACEScg, colorspace: ACEScg, pattern: "*ACEScg*", extension: "*"}
  - !<Rule> {name: lin_rec709, colorspace: Linear Rec.709 (sRGB), pattern: "*lin_rec709*", extension: "*"}
  - !<Rule> {name: lin_srgb, colorspace: Linear Rec.709 (sRGB), pattern: "*lin_srgb*", extension: "*"}
  - !<Rule> {name: lin_rec2020, colorspace: Linear Rec.2020, pattern: "*lin_rec2020*", extension: "*"}
  - !<Rule> {name: lin_bt2020, colorspace: Linear Rec.2020, pattern: "*lin_bt2020*", extension: "*"}
  - !<Rule> {name: jpg, colorspace: sRGB - Texture, pattern: "*", extension: jpg}
  - !<Rule> {name: jpeg, colorspace: sRGB - Texture, pattern: "*", extension: jpeg}
  - !<Rule> {name: tga, colorspace: sRGB - Texture, pattern: "*", extension: tga}
  - !<Rule> {name: png, colorspace: sRGB - Texture, pattern: "*", extension: png}
  - !<Rule> {name: tif, colorspace: sRGB - Texture, pattern: "*", extension: tif}
  - !<Rule> {name: tiff, colorspace: sRGB - Texture, pattern: "*", extension: tiff}
  - !<Rule> {name: exr, colorspace: Linear Rec.2020, pattern: "*", extension: exr}
  - !<Rule> {name: __usdz_jpg, colorspace: sRGB - Texture, regex: ".[uu][ss][dd][zz]\\[.*[jj][pp][gg]\\]"}
  - !<Rule> {name: __usdz_jpeg, colorspace: sRGB - Texture, regex: ".[uu][ss][dd][zz]\\[.*[jj][pp][ee][gg]\\]"}
  - !<Rule> {name: __usdz_tga, colorspace: sRGB - Texture, regex: ".[uu][ss][dd][zz]\\[.*[tt][gg][aa]\\]"}
  - !<Rule> {name: __usdz_png, colorspace: sRGB - Texture, regex: ".[uu][ss][dd][zz]\\[.*[pp][nn][gg]\\]"}
  - !<Rule> {name: __usdz_tif, colorspace: sRGB - Texture, regex: ".[uu][ss][dd][zz]\\[.*[tt][ii][ff]\\]"}
  - !<Rule> {name: __usdz_tiff, colorspace: sRGB - Texture, regex: ".[uu][ss][dd][zz]\\[.*[tt][ii][ff][ff]\\]"}
  - !<Rule> {name: __usdz_exr, colorspace: Linear Rec.2020, regex: ".[uu][ss][dd][zz]\\[.*[ee][xx][rr]\\]"}
  - !<Rule> {name: Default, colorspace: Linear Rec.2020}

displays:
  sRGB - Display:
    - !<View> {name: AgX, view_transform: AgX Base Rec.1886, display_colorspace: sRGB - Display}
    - !<View> {name: AgX - Editorial Soft, view_transform: AgX Base Rec.1886, display_colorspace: sRGB - Display, looks: Editorial Soft}
    - !<View> {name: AgX - Editorial Split, view_transform: AgX Base Rec.1886, display_colorspace: sRGB - Display, looks: Editorial Split}
    - !<View> {name: AgX - Hard Contrast, view_transform: AgX Base Rec.1886, display_colorspace: sRGB - Display, looks: Hard Contrast}
    - !<View> {name: AgX - Film Dense, view_transform: AgX Base Rec.1886, display_colorspace: sRGB - Display, looks: Film Dense}
    - !<View> {name: AgX - Photochemical, view_transform: AgX Base Rec.1886, display_colorspace: sRGB - Display, looks: Photochemical}
    - !<View> {name: AgX - Chemical Drift, view_transform: AgX Base Rec.1886, display_colorspace: sRGB - Display, looks: Chemical Drift}
    - !<View> {name: AgX - Tarnished Print, view_transform: AgX Base Rec.1886, display_colorspace: sRGB - Display, looks: Tarnished Print}
    - !<View> {name: AgX - Negative Dust, view_transform: AgX Base Rec.1886, display_colorspace: sRGB - Display, looks: Negative Dust}
    - !<View> {name: AgX - Funeral Bronze, view_transform: AgX Base Rec.1886, display_colorspace: sRGB - Display, looks: Funeral Bronze}
    - !<View> {name: AgX - Verdigris Shadow, view_transform: AgX Base Rec.1886, display_colorspace: sRGB - Display, looks: Verdigris Shadow}
    - !<View> {name: AgX - Phoenix Drift, view_transform: AgX Base Rec.1886, display_colorspace: sRGB - Display, looks: Phoenix Drift}
    - !<View> {name: AgX - Archival Warm-Gray, view_transform: AgX Base Rec.1886, display_colorspace: sRGB - Display, looks: Archival Warm-Gray}
    - !<View> {name: AgX - Archival Extreme Matte, view_transform: AgX Base Rec.1886, display_colorspace: sRGB - Display, looks: Archival Extreme Matte}
    - !<View> {name: AgX - Graphite Matte, view_transform: AgX Base Rec.1886, display_colorspace: sRGB - Display, looks: Graphite Matte}
    - !<View> {name: AgX - Soot, view_transform: AgX Base Rec.1886, display_colorspace: sRGB - Display, looks: Soot}
    - !<View> {name: AgX - Carbon Plate, view_transform: AgX Base Rec.1886, display_colorspace: sRGB - Display, looks: Carbon Plate}
    - !<View> {name: AgX - Carbon Black, view_transform: AgX Base Rec.1886, display_colorspace: sRGB - Display, looks: Carbon Black}
    - !<View> {name: AgX - Blue Carbon Print, view_transform: AgX Base Rec.1886, display_colorspace: sRGB - Display, looks: Blue Carbon Print}
    - !<View> {name: Standard, view_transform: Standard, display_colorspace: sRGB - Display}
    - !<View> {name: Raw, colorspace: Raw}
  Display P3 - Display:
    - !<View> {name: AgX, view_transform: AgX Base Display P3, display_colorspace: Display P3 - Display}
    - !<View> {name: AgX - Editorial Soft, view_transform: AgX Base Display P3, display_colorspace: Display P3 - Display, looks: Editorial Soft}
    - !<View> {name: AgX - Editorial Split, view_transform: AgX Base Display P3, display_colorspace: Display P3 - Display, looks: Editorial Split}
    - !<View> {name: AgX - Hard Contrast, view_transform: AgX Base Display P3, display_colorspace: Display P3 - Display, looks: Hard Contrast}
    - !<View> {name: AgX - Film Dense, view_transform: AgX Base Display P3, display_colorspace: Display P3 - Display, looks: Film Dense}
    - !<View> {name: AgX - Photochemical, view_transform: AgX Base Display P3, display_colorspace: Display P3 - Display, looks: Photochemical}
    - !<View> {name: AgX - Chemical Drift, view_transform: AgX Base Display P3, display_colorspace: Display P3 - Display, looks: Chemical Drift}
    - !<View> {name: AgX - Tarnished Print, view_transform: AgX Base Display P3, display_colorspace: Display P3 - Display, looks: Tarnished Print}
    - !<View> {name: AgX - Negative Dust, view_transform: AgX Base Display P3, display_colorspace: Display P3 - Display, looks: Negative Dust}
    - !<View> {name: AgX - Funeral Bronze, view_transform: AgX Base Display P3, display_colorspace: Display P3 - Display, looks: Funeral Bronze}
    - !<View> {name: AgX - Verdigris Shadow, view_transform: AgX Base Display P3, display_colorspace: Display P3 - Display, looks: Verdigris Shadow}
    - !<View> {name: AgX - Phoenix Drift, view_transform: AgX Base Display P3, display_colorspace: Display P3 - Display, looks: Phoenix Drift}
    - !<View> {name: AgX - Archival Warm-Gray, view_transform: AgX Base Display P3, display_colorspace: Display P3 - Display, looks: Archival Warm-Gray}
    - !<View> {name: AgX - Archival Extreme Matte, view_transform: AgX Base Display P3, display_colorspace: Display P3 - Display, looks: Archival Extreme Matte}
    - !<View> {name: AgX - Graphite Matte, view_transform: AgX Base Display P3, display_colorspace: Display P3 - Display, looks: Graphite Matte}
    - !<View> {name: AgX - Soot, view_transform: AgX Base Display P3, display_colorspace: Display P3 - Display, looks: Soot}
    - !<View> {name: AgX - Carbon Plate, view_transform: AgX Base Display P3, display_colorspace: Display P3 - Display, looks: Carbon Plate}
    - !<View> {name: AgX - Carbon Black, view_transform: AgX Base Display P3, display_colorspace: Display P3 - Display, looks: Carbon Black}
    - !<View> {name: AgX - Blue Carbon Print, view_transform: AgX Base Display P3, display_colorspace: Display P3 - Display, looks: Blue Carbon Print}
    - !<View> {name: Standard, view_transform: Standard, display_colorspace: Display P3 - Display}
    - !<View> {name: Raw, colorspace: Raw}
  Rec.1886 - Display:
    - !<View> {name: AgX, view_transform: AgX Base Rec.1886, display_colorspace: Rec.1886 - Display}
    - !<View> {name: AgX - Editorial Soft, view_transform: AgX Base Rec.1886, display_colorspace: Rec.1886 - Display, looks: Editorial Soft}
    - !<View> {name: AgX - Editorial Split, view_transform: AgX Base Rec.1886, display_colorspace: Rec.1886 - Display, looks: Editorial Split}
    - !<View> {name: AgX - Hard Contrast, view_transform: AgX Base Rec.1886, display_colorspace: Rec.1886 - Display, looks: Hard Contrast}
    - !<View> {name: AgX - Film Dense, view_transform: AgX Base Rec.1886, display_colorspace: Rec.1886 - Display, looks: Film Dense}
    - !<View> {name: AgX - Photochemical, view_transform: AgX Base Rec.1886, display_colorspace: Rec.1886 - Display, looks: Photochemical}
    - !<View> {name: AgX - Chemical Drift, view_transform: AgX Base Rec.1886, display_colorspace: Rec.1886 - Display, looks: Chemical Drift}
    - !<View> {name: AgX - Tarnished Print, view_transform: AgX Base Rec.1886, display_colorspace: Rec.1886 - Display, looks: Tarnished Print}
    - !<View> {name: AgX - Negative Dust, view_transform: AgX Base Rec.1886, display_colorspace: Rec.1886 - Display, looks: Negative Dust}
    - !<View> {name: AgX - Funeral Bronze, view_transform: AgX Base Rec.1886, display_colorspace: Rec.1886 - Display, looks: Funeral Bronze}
    - !<View> {name: AgX - Verdigris Shadow, view_transform: AgX Base Rec.1886, display_colorspace: Rec.1886 - Display, looks: Verdigris Shadow}
    - !<View> {name: AgX - Phoenix Drift, view_transform: AgX Base Rec.1886, display_colorspace: Rec.1886 - Display, looks: Phoenix Drift}
    - !<View> {name: AgX - Archival Warm-Gray, view_transform: AgX Base Rec.1886, display_colorspace: Rec.1886 - Display, looks: Archival Warm-Gray}
    - !<View> {name: AgX - Archival Extreme Matte, view_transform: AgX Base Rec.1886, display_colorspace: Rec.1886 - Display, looks: Archival Extreme Matte}
    - !<View> {name: AgX - Graphite Matte, view_transform: AgX Base Rec.1886, display_colorspace: Rec.1886 - Display, looks: Graphite Matte}
    - !<View> {name: AgX - Soot, view_transform: AgX Base Rec.1886, display_colorspace: Rec.1886 - Display, looks: Soot}
    - !<View> {name: AgX - Carbon Plate, view_transform: AgX Base Rec.1886, display_colorspace: Rec.1886 - Display, looks: Carbon Plate}
    - !<View> {name: AgX - Carbon Black, view_transform: AgX Base Rec.1886, display_colorspace: Rec.1886 - Display, looks: Carbon Black}
    - !<View> {name: AgX - Blue Carbon Print, view_transform: AgX Base Rec.1886, display_colorspace: Rec.1886 - Display, looks: Blue Carbon Print}
    - !<View> {name: Standard, view_transform: Standard, display_colorspace: Rec.1886 - Display}
    - !<View> {name: Raw, colorspace: Raw}
  Rec.2100-PQ - Display:
    - !<View> {name: AgX - HDR 1000 nits, view_transform: AgX Rec.2100-HLG - HDR 1000 nits (P3 D65), display_colorspace: Rec.2100-PQ - Display}
    - !<View> {name: AgX - SDR, view_transform: AgX Base Display P3, display_colorspace: Rec.2100-PQ - Display}
    - !<View> {name: Standard, view_transform: Standard, display_colorspace: Rec.2100-PQ - Display}
    - !<View> {name: Raw, colorspace: Raw}
  Rec.2100-HLG - Display:
    - !<View> {name: AgX - HDR 1000 nits, view_transform: AgX Rec.2100-HLG - HDR 1000 nits (P3 D65), display_colorspace: Rec.2100-HLG - Display}
    - !<View> {name: AgX - SDR, view_transform: AgX Base Display P3, display_colorspace: Rec.2100-HLG - Display}
    - !<View> {name: Standard, view_transform: Standard, display_colorspace: Rec.2100-HLG - Display}
    - !<View> {name: Raw, colorspace: Raw}
active_displays: [sRGB - Display, Display P3 - Display, Rec.1886 - Display]
active_views:
  - AgX
  - AgX - Editorial Soft
  - AgX - Editorial Split
  - AgX - Hard Contrast
  - AgX - Film Dense
  - AgX - Photochemical
  - AgX - Chemical Drift
  - AgX - Tarnished Print
  - AgX - Negative Dust
  - AgX - Funeral Bronze
  - AgX - Verdigris Shadow
  - AgX - Phoenix Drift
  - AgX - Archival Warm-Gray
  - AgX - Archival Extreme Matte
  - AgX - Graphite Matte
  - AgX - Soot
  - AgX - Carbon Plate
  - AgX - Carbon Black
  - AgX - Blue Carbon Print
  - Standard
  - Raw
inactive_colorspaces: [Filmic sRGB, AgX Base sRGB, ACES 1.3 sRGB, ACES 2.0 sRGB, Khronos PBR Neutral sRGB, Filmic Log, Luminance Compensation Rec.2020]

display_colorspaces:
  - !<ColorSpace>
    name: CIE-XYZ-D65
    aliases: [Linear CIE-XYZ D65, lin_ciexyzd65_scene, cie_xyz_d65, cie_xyz_d65_scene, CIE XYZ-D65 - Scene-referred, XYZ, Linear CIE-XYZ I-D65]
    family: ""
    equalitygroup:
    bitdepth: 32f
    description: |
      1931 CIE XYZ with adapted illuminant D65 white point
    isdata: false
    categories: [file-io]
    encoding: display-linear

  - !<ColorSpace>
    name: sRGB - Display
    aliases: [sRGB, srgb_rec709_display, sRGB 2.2, sRGB I-D65, srgb_display, srgb, srgb8, g22_rec709, g22_encoded_rec709, Gamma 2.2 Encoded Rec.709, "sRGB Display: 2.2 Gamma - Rec.709"]
    family: Display
    equalitygroup:
    bitdepth: 32f
    description: |
      sRGB IEC 61966-2-1 compound (piece-wise) encoding
    isdata: false
    categories: [file-io]
    encoding: sdr-video
    from_display_reference: !<GroupTransform>
      children:
        - !<ColorSpaceTransform> {src: cie_xyz_d65_interchange, dst: Linear Rec.709 (sRGB)}
        - !<ExponentWithLinearTransform> {gamma: 2.4, offset: 0.055, direction: inverse}

  - !<ColorSpace>
    name: Display P3 - Display
    aliases: [Display P3, srgb_p3d65_display, srgb_p3d65_scene, Display P3 2.2, Display P3 I-D65, P3-D65 - Display, displayp3_display, p3_d65_display, p3d65_display, AppleP3 sRGB OETF]
    family: Display
    equalitygroup:
    bitdepth: 32f
    description: |
      Apple's Display P3 with sRGB compound (piece-wise) encoding transfer function, common on Mac devices
    isdata: false
    categories: [file-io]
    encoding: sdr-video
    from_display_reference: !<GroupTransform>
      children:
        - !<ColorSpaceTransform> {src: cie_xyz_d65_interchange, dst: Linear DCI-P3 D65}
        - !<ExponentWithLinearTransform> {gamma: 2.4, offset: 0.055, direction: inverse}

  - !<ColorSpace>
    name: Rec.1886 - Display
    aliases: [Display Rec.1886, Rec.1886, Rec.1886 Rec.709 - Display, g24_rec709_display, BT.1886, BT.1886 2.4, BT.1886 EOTF, BT.1886 I-D65, Rec.1886 / Rec.709 Video - Display, rec1886_rec709_display, rec1886_rec709_video_display, "Rec1886: 2.4 Gamma - Rec.709"]
    family: Display
    equalitygroup:
    bitdepth: 32f
    description: |
      BT.1886 2.4 Exponent EOTF Display, commonly used for TVs
    isdata: false
    categories: [file-io]
    encoding: sdr-video
    from_display_reference: !<GroupTransform>
      children:
        - !<ColorSpaceTransform> {src: cie_xyz_d65_interchange, dst: Linear Rec.709 (sRGB)}
        - !<ExponentTransform> {value: 2.4, direction: inverse}

  - !<ColorSpace>
    name: Rec.1886 Rec.2020 - Display
    aliases: [Rec.2020, g24_rec2020_display, BT.2020, BT.2020 2.4, BT.2020 I-D65, Rec.1886 / Rec.2020 Video - Display, rec1886_rec2020_display, rec1886_rec2020_video_display, "Rec1886: 2.4 Gamma - Rec.2020"]
    family: Display
    equalitygroup:
    bitdepth: 32f
    description: |
      BT.2020 2.4 Exponent EOTF Display
    isdata: false
    categories: [file-io]
    encoding: sdr-video
    from_display_reference: !<GroupTransform>
      children:
        - !<ColorSpaceTransform> {src: cie_xyz_d65_interchange, dst: Linear Rec.2020}
        - !<ExponentTransform> {value: 2.4, direction: inverse}

  - !<ColorSpace>
    name: Rec.2100-PQ - Display
    aliases: [Rec.2100-PQ, pq_rec2020_display, rec2100_pq_display]
    family: Display
    equalitygroup: ""
    bitdepth: 32f
    description: Rec.2100-PQ 10000 nits peak display with reference white at 100 nits
    isdata: false
    categories: [file-io]
    encoding: hdr-video
    allocation: uniform
    from_display_reference: !<GroupTransform>
      children:
        - !<BuiltinTransform> {style: DISPLAY - CIE-XYZ-D65_to_REC.2100-PQ}

  - !<ColorSpace>
    name: Rec.2100-HLG - Display
    aliases: [Rec.2100-HLG, hlg_rec2020_display, rec2100_hlg_display]
    family: Display
    equalitygroup: ""
    bitdepth: 32f
    description: Rec.2100-HLG 1000 nits peak display with reference white at 100 nits
    isdata: false
    categories: [file-io]
    encoding: hdr-video
    allocation: uniform
    from_display_reference: !<GroupTransform>
      children:
        - !<BuiltinTransform> {style: DISPLAY - CIE-XYZ-D65_to_REC.2100-HLG-1000nit}

  - !<ColorSpace>
    name: Filmic sRGB
    family: Legacy/Display
    description: |
      sRGB display space with Filmic view transform
    categories: [file-io]
    encoding: sdr-video
    from_display_reference: !<GroupTransform>
      children:
        - !<ColorSpaceTransform> {src: cie_xyz_d65_interchange, dst: Filmic Log}
        - !<FileTransform> {src: filmic_to_0-70_1-03.spi1d, interpolation: linear}

  - !<ColorSpace>
    name: AgX Base sRGB
    family: Legacy/Display
    description: |
      AgX Base Image Encoding for sRGB Display
    categories: [file-io]
    encoding: sdr-video
    from_display_reference: !<GroupTransform>
      children:
        - !<ColorSpaceTransform> {src: cie_xyz_d65_interchange, dst: Linear FilmLight E-Gamut}
        - !<AllocationTransform> {allocation: lg2, vars: [-12.47393, 12.5260688117]}
        - !<FileTransform> {src: AgX_Base_sRGB.cube, interpolation: tetrahedral}
        - !<ColorSpaceTransform> {src: Rec.1886 - Display, dst: sRGB - Display}

  - !<ColorSpace>
    name: ACES 1.3 sRGB
    family: Legacy/Display
    equalitygroup:
    bitdepth: 32f
    description: |
       ACES 1.0 Output Transform for SDR D65 video, limited to Rec.709 gamut
    categories: [file-io]
    encoding: sdr-video
    isdata: false
    from_display_reference: !<GroupTransform>
      children:
        - !<ColorSpaceTransform> {src: cie_xyz_d65_interchange, dst: ACES2065-1}
        - !<BuiltinTransform> {style: ACES-OUTPUT - ACES2065-1_to_CIE-XYZ-D65 - SDR-VIDEO_1.0}
        - !<BuiltinTransform> {style: DISPLAY - CIE-XYZ-D65_to_sRGB}

  - !<ColorSpace>
    name: ACES 2.0 sRGB
    family: Legacy/Display
    equalitygroup:
    bitdepth: 32f
    description: |
       ACES 2 Output Transform for 100 nit SDR Rec709
    categories: [file-io]
    encoding: sdr-video
    isdata: false
    from_display_reference: !<GroupTransform>
      children:
        - !<ColorSpaceTransform> {src: cie_xyz_d65_interchange, dst: ACES2065-1}
        - !<BuiltinTransform> {style: ACES-OUTPUT - ACES2065-1_to_CIE-XYZ-D65 - SDR-100nit-REC709_2.0}
        - !<BuiltinTransform> {style: DISPLAY - CIE-XYZ-D65_to_sRGB}

  - !<ColorSpace>
    name: Khronos PBR Neutral sRGB
    family: Legacy/Display
    equalitygroup:
    bitdepth: 32f
    description: |
      Khronos PBR Neutral Image Encoding for sRGB Display
    categories: [file-io]
    encoding: sdr-video
    isdata: false
    from_display_reference: !<GroupTransform>
      children:
        - !<ColorSpaceTransform> {src: cie_xyz_d65_interchange, dst: Linear Rec.709 (sRGB)}
        - !<AllocationTransform> {allocation: lg2, vars: [-9, 10]}
        - !<FileTransform> {src: pbrNeutral.cube, interpolation: tetrahedral}
        - !<ColorSpaceTransform> {src: Linear Rec.709 (sRGB), dst: sRGB - Display}

default_view_transform: Standard

view_transforms:
  - !<ViewTransform>
    name: Standard
    description: Apply only the display's standard transform without additional mappings
    from_scene_reference: !<FileTransform> {src: xyz_E_to_D65.spimtx, interpolation: linear}

  - !<ViewTransform>
    name: Filmic sRGB
    family: Filmic
    description: |
      sRGB display space with Filmic view transform
    from_scene_reference: !<GroupTransform>
      children:
        - !<ColorSpaceTransform> {src: Linear CIE-XYZ E, dst: Filmic Log}
        - !<FileTransform> {src: filmic_to_0-70_1-03.spi1d, interpolation: linear}
        - !<ColorSpaceTransform> {src: sRGB - Display, dst: cie_xyz_d65_interchange}

  - !<ViewTransform>
    name: AgX Base Rec.2020
    family: AgX
    description: |
      AgX Base Image Encoding for BT.2020 Display
    from_scene_reference: !<GroupTransform>
      children:
        - !<ColorSpaceTransform> {src: Linear CIE-XYZ E, dst: Linear FilmLight E-Gamut}
        - !<AllocationTransform> {allocation: lg2, vars: [-12.47393, 12.5260688117]}
        - !<FileTransform> {src: AgX_Base_Rec2020.cube, interpolation: tetrahedral}
        - !<ColorSpaceTransform> {src: Rec.1886 Rec.2020 - Display, dst: cie_xyz_d65_interchange}

  - !<ViewTransform>
    name: AgX Base Rec.1886
    family: AgX
    description: |
      AgX Base Image Encoding for sRGB and Rec.1886 Display
    from_scene_reference: !<GroupTransform>
      children:
        - !<ColorSpaceTransform> {src: Linear CIE-XYZ E, dst: Linear FilmLight E-Gamut}
        - !<AllocationTransform> {allocation: lg2, vars: [-12.47393, 12.5260688117]}
        - !<FileTransform> {src: AgX_Base_sRGB.cube, interpolation: tetrahedral}
        - !<ColorSpaceTransform> {src: Rec.1886 - Display, dst: cie_xyz_d65_interchange}

  - !<ViewTransform>
    name: AgX Base Display P3
    family: AgX
    description: |
      AgX Base Image Encoding for Display P3 Display
    from_scene_reference: !<GroupTransform>
      children:
        - !<ColorSpaceTransform> {src: Linear CIE-XYZ E, dst: Linear FilmLight E-Gamut}
        - !<AllocationTransform> {allocation: lg2, vars: [-12.47393, 12.5260688117]}
        - !<FileTransform> {src: AgX_Base_P3.cube, interpolation: tetrahedral}
        - !<ExponentTransform> {value: 2.4}
        - !<ColorSpaceTransform> {src: Linear DCI-P3 D65, dst: cie_xyz_d65_interchange}

  - !<ViewTransform>
    name: AgX Rec.2100-HLG - HDR 1000 nits (P3 D65)
    family: AgX
    description: |
      AgX 1000 nits peak Image Encoding for BT.2100-HLG P3 limited Display. Reference white is 100nits
    from_scene_reference: !<GroupTransform>
      children:
        - !<ColorSpaceTransform> {src: Linear CIE-XYZ E, dst: Linear FilmLight E-Gamut}
        - !<AllocationTransform> {allocation: lg2, vars: [-12.47393, 12.5260688117]}
        - !<FileTransform> {src: AgX_Rec2100-HLG_p3_lim.cube, interpolation: tetrahedral}
        - !<ColorSpaceTransform> {src: Rec.2100-HLG - Display, dst: cie_xyz_d65_interchange}

  - !<ViewTransform>
    name: AgX False Color Rec.709
    family: AgX
    description: |
      A heat-map-like image formed from AgX Base for sRGB and Rec.1886 displays
    from_scene_reference: !<GroupTransform>
      children:
