OpenDRT_v1.0-2.0_full-config_v2/transfer_functions/eocf_srgb_to_linear.spi1d
Version 1
From 0.0 1.2
Length 8192
Components 1
{
0.0
0.001892809
0.003785618
0.005678428
0.007571237
0.009464046
0.011356855
0.013249664
0.015142473
0.017035283
0.018928092
0.020820901
0.02271371
0.024606519
0.026499329
0.028392138
0.030284947
0.032177756
0.034070565
0.035963374
0.037856184
0.039748993
0.041611845
0.043417922
0.04517875
0.046897281
0.048576164
0.050217787
0.051824312
0.053397706
0.054939759
0.056452111
0.057936264
0.059393602
0.0608254
0.062232838
0.063617009
0.064978928
0.066319541
0.067639728
0.068940313
0.070222067
0.07148571
0.072731923
0.073961341
0.075174567
0.076372165
0.07755467
0.078722589
0.079876398
0.081016552
0.08214348
0.083257591
0.084359273
0.085448895
0.086526809
0.08759335
0.088648838
0.089693578
0.090727864
0.091751973
0.092766173
0.09377072
0.094765859
0.095751826
0.096728847
0.097697139
0.09865691
0.09960836
0.100551683
0.101487064
0.102414683
0.103334711
0.104247315
0.105152655
0.106050886
0.106942158
0.107826615
0.108704397
0.109575638
0.11044047
0.111299018
0.112151405
0.11299775
0.113838167
0.114672768
0.115501661
0.11632495
0.117142738
0.117955122
0.118762199
0.119564062
0.120360801
0.121152504
0.121939257
0.122721142
0.123498241
0.124270632
0.125038392
0.125801595
0.126560314
0.127314621
0.128064583
0.128810269
0.129551743
0.13028907
0.131022312
0.131751529
0.132476782
0.133198129
0.133915625
0.134629326
0.135339286
0.136045558
0.136748194
0.137447243
0.138142755
0.138834778
0.13952336
0.140208546
0.140890382
0.141568911
0.142244176
0.142916221
0.143585086
0.144250811
0.144913437
0.145573003
0.146229546
0.146883103
0.147533712
0.148181408
0.148826227
0.149468201
0.150107367
0.150743756
0.151377401
0.152008334
0.152636586
0.153262188
0.15388517
0.154505562
0.155123392
0.15573869
0.156351482
0.156961798
0.157569662
0.158175103
0.158778147
0.159378818
0.159977142
0.160573143
0.161166847
0.161758277
0.162347455
0.162934407
0.163519153
0.164101717
0.164682121
0.165260385
0.165836532
0.166410583
0.166982557
0.167552475
0.168120357
0.168686223
0.169250092
0.169811983
0.170371914
0.170929905
0.171485973
0.172040136
0.172592412
0.173142819
0.173691372
0.174238089
0.174782987
0.175326082
0.17586739
0.176406927
0.176944709
0.177480751
0.178015067
0.178547674
0.179078586
0.179607818
0.180135383
0.180661296
0.181185572
0.181708223
0.182229263
0.182748706
0.183266566
0.183782854
0.184297584
0.184810769
0.18532242
0.185832552
0.186341175
0.186848301
0.187353944
0.187858113
0.188360822
0.188862081
0.189361902
0.189860295
0.190357272
0.190852844
0.191347022
0.191839815
0.192331235
0.192821292
0.193309995
0.193797356
0.194283384
0.194768089
0.195251481
0.195733569
0.196214362
0.196693871
0.197172105
0.197649072
0.198124782
0.198599243
0.199072465
0.199544456
0.200015225
0.20048478
0.200953131
0.201420284
0.201886249
0.202351034
0.202814647
0.203277095
0.203738387
0.204198531
0.204657534
0.205115403
0.205572147
0.206027773
0.206482288
0.2069357
0.207388016
0.207839243
0.208289387
0.208738457
0.209186459
0.2096334
0.210079287
0.210524126
0.210967924
0.211410688
0.211852424
0.212293138
0.212732838
0.213171529
0.213609218
0.21404591
0.214481612
0.214916331
0.215350071
0.215782839
0.216214641
0.216645483
0.21707537
0.217504309
0.217932304
0.218359362
0.218785488
0.219210687
0.219634965
0.220058327
0.220480779
0.220902327
0.221322974
0.221742727
0.22216159
0.222579569
0.222996668
0.223412894
0.22382825
0.224242741
0.224656373
0.225069151
0.225481078
0.22589216
0.226302402
0.226711807
0.227120382
0.227528129
0.227935055
0.228341163
0.228746457
0.229150943
0.229554624
0.229957505
0.23035959
0.230760884
0.23116139
0.231561113
0.231960056
0.232358225
0.232755623
0.233152254
0.233548123
0.233943232
0.234337586
0.23473119
0.235124046
0.235516158
0.235907532
0.236298169
0.236688075
0.237077252
0.237465704
0.237853436
0.23824045
0.238626751
0.239012341
0.239397224
0.239781405
0.240164885
0.24054767
0.240929761
0.241311164
0.24169188
0.242071913
0.242451267
0.242829945
0.24320795
0.243585285
0.243961954
0.24433796
0.244713306
0.245087994
0.245462029
0.245835413
0.24620815
0.246580242
0.246951692
0.247322503
0.247692679
0.248062223
0.248431136
0.248799423
0.249167085
0.249534127
0.24990055
0.250266358
0.250631553
0.250996138
0.251360116
0.251723489
0.252086261
0.252448434
0.252810011
0.253170994
0.253531386
0.253891189
0.254250407
0.254609042
0.254967095
0.255324571
0.255681471
0.256037799
0.256393555
0.256748744
0.257103366
0.257457426
0.257810925
0.258163865
0.25851625
0.25886808
0.25921936
0.25957009
0.259920274
0.260269914
0.260619012
0.26096757
0.26131559
0.261663075
0.262010027
0.262356449
0.262702341
0.263047708
0.26339255
0.26373687
0.26408067
0.264423952
0.264766719
0.265108971
0.265450713
0.265791945
0.266132669
0.266472888
0.266812604
0.267151818
0.267490534
0.267828751
0.268166474
0.268503703
0.268840441
0.269176689
0.269512449
0.269847724
0.270182515
0.270516825
0.270850654
0.271184005
0.27151688
0.271849281
0.272181208
0.272512666
0.272843654
0.273174175
0.27350423
0.273833822
0.274162953
0.274491623
0.274819834
0.275147589
0.27547489
0.275801737
0.276128132
0.276454078
0.276779576
0.277104627
0.277429233
0.277753396
0.278077118
0.2784004
0.278723243
0.27904565
0.279367622
0.27968916
0.280010267
0.280330943
0.28065119
0.280971011
0.281290405
0.281609376
0.281927923
0.28224605
0.282563757
0.282881046
0.283197919
0.283514376
0.28383042
0.284146052
0.284461273
0.284776084
0.285090488
0.285404486
0.285718078
0.286031267
0.286344054
0.28665644
0.286968426
0.287280015
0.287591207
0.287902004
0.288212407
0.288522417
0.288832036
0.289141266
0.289450107
0.28975856
0.290066628
0.290374311
0.290681611
0.290988529
0.291295066
0.291601224
0.291907004
0.292212407
0.292517434
0.292822087
0.293126367
0.293430275
0.293733812
0.29403698
0.294339779
0.294642212
0.294944279
0.295245981
0.29554732
0.295848296
0.296148912
0.296449167
0.296749064
0.297048604
0.297347787
0.297646615
0.297945088
0.298243209
0.298540978
0.298838396
0.299135465
0.299432185
0.299728558
0.300024585
0.300320266
0.300615604
0.300910598
0.30120525
0.301499562
0.301793534
0.302087167
0.302380462
0.302673421
0.302966045
0.303258334
0.303550289
0.303841912
0.304133203
0.304424164
0.304714796
0.3050051
0.305295076
0.305584725
0.305874049
0.306163049
0.306451726
0.30674008
0.307028112
0.307315825
0.307603217
0.307890291
0.308177048
0.308463488
0.308749612
0.309035421
0.309320917
0.3096061
0.309890971
0.310175531
0.31045978
0.310743721
0.311027353
0.311310678
0.311593696
0.311876409
0.312158817
0.312440922
0.312722723
0.313004223
0.313285421
0.313566319
0.313846918
0.314127218
0.314407221
0.314686926
0.314966336
0.315245451
0.315524271
0.315802798
0.316081032
0.316358975
0.316636627
0.316913988
0.31719106
0.317467844
0.31774434
0.31802055
0.318296473
0.318572111
0.318847464
0.319122534
0.319397321
0.319671826
0.31994605
0.320219993
0.320493657
0.320767042
0.321040148
0.321312977
0.321585529
0.321857806
0.322129807
0.322401534
0.322672987
0.322944168
0.323215076
0.323485713
0.32375608
0.324026176
0.324296003
0.324565562
0.324834853
0.325103877
0.325372634
0.325641127
0.325909354
0.326177317
0.326445016
0.326712453
0.326979628
0.327246541
0.327513194
0.327779587
0.32804572
0.328311595
0.328577212
0.328842571
0.329107674
0.329372521
0.329637113
0.32990145
0.330165534
0.330429364
0.330692941
0.330956267
0.331219341
0.331482165
0.331744739
0.332007063
0.332269139
0.332530966
0.332792547
0.33305388
0.333314967
0.333575809
0.333836406
0.334096758
0.334356867
0.334616733
0.334876356
0.335135738
0.335394878
0.335653778
0.335912438
0.336170858
0.33642904
0.336686983
0.336944689
0.337202158
0.33745939
0.337716387
0.337973148
0.338229675
0.338485967
0.338742026
0.338997853
0.339253446
0.339508808
0.339763939
0.34001884
0.34027351
0.34052795
0.340782162
0.341036145
0.341289901
0.341543429
0.341796731
0.342049806
0.342302656
0.34255528
0.34280768
0.343059856
0.343311809
0.343563539
0.343815046
0.344066331
0.344317396
0.344568239
0.344818862
0.345069265
0.345319449
0.345569415
0.345819162
0.346068691
0.346318004
0.346567099
0.346815979
0.347064643
0.347313092
0.347561326
0.347809346
0.348057152
0.348304746
0.348552126
0.348799295
0.349046252
0.349292998
0.349539533
0.349785858
0.350031973
0.350277879
0.350523577
0.350769066
0.351014348
0.351259422
0.351504289
0.35174895
0.351993405
0.352237655
0.3524817
0.352725541
0.352969177
0.35321261
0.35345584
0.353698867
0.353941692
0.354184316
0.354426738
0.354668959
0.35491098
0.355152801
0.355394423
0.355635846
0.35587707
0.356118096
0.356358924
0.356599556
0.35683999
0.357080228
0.35732027
0.357560117
0.357799768
0.358039225
0.358278488
0.358517557
0.358756433
0.358995115
0.359233605
0.359471904
0.35971001
0.359947925
0.36018565
0.360423184
0.360660528
0.360897682
0.361134647
0.361371424
0.361608012
0.361844412
0.362080625
0.362316651
0.362552489
0.362788142
0.363023608
0.363258889
0.363493985
0.363728896
0.363963623
0.364198165
0.364432525
0.364666701
0.364900694
0.365134504
0.365368133
0.36560158
0.365834846
0.366067931
0.366300836
0.36653356
0.366766105
0.36699847
0.367230656
0.367462664
0.367694493
0.367926145
0.368157619
0.368388916
0.368620036
0.368850979
0.369081747
0.369312339
0.369542756
0.369772998
0.370003065
0.370232958
0.370462677
0.370692222
0.370921595
0.371150794
0.371379822
0.371608677
0.37183736
0.372065872
0.372294213
0.372522383
0.372750383
0.372978213
0.373205873
0.373433363
0.373660685
0.373887838
0.374114823
0.37434164
0.374568289
0.374794771
0.375021086
0.375247235
0.375473217
0.375699033
0.375924683
0.376150169
0.376375489
0.376600644
0.376825636
0.377050463
0.377275126
0.377499627
0.377723964
0.377948138
0.37817215
0.378396
0.378619689
0.378843216
0.379066581
0.379289786
0.379512831
0.379735715
0.379958439
0.380181004
0.38040341
0.380625656
0.380847745
0.381069674
0.381291446
0.38151306
0.381734517
0.381955816
0.382176959
0.382397945
0.382618775
0.382839449
0.383059968
0.383280331
0.383500539
0.383720592
0.383940492
0.384160236
0.384379828
0.384599265
0.38481855
0.385037681
0.38525666
0.385475486
0.38569416
0.385912683
0.386131054
0.386349273
0.386567342
0.38678526
0.387003028
0.387220645
0.387438113
0.387655431
0.3878726
0.38808962
0.388306491
0.388523214
0.388739789
0.388956216
0.389172495
0.389388627
0.389604612
0.389820449
0.390036141
0.390251686
0.390467085
0.390682339
0.390897447
0.39111241
0.391327228
0.391541901
0.39175643
0.391970815
0.392185056
0.392399153
0.392613107
0.392826918
0.393040586
0.393254112
0.393467495
0.393680736
0.393893835
0.394106793
0.39431961
0.394532285
0.39474482
0.394957214
0.395169468
0.395381582
0.395593557
0.395805391
0.396017087
0.396228643
0.396440061
0.39665134
0.396862481
0.397073484
0.397284349
0.397495076
0.397705666
0.397916119
0.398126436
0.398336615
0.398546659
0.398756566
0.398966338
0.399175973
0.399385474
0.399594839
0.39980407
0.400013165
0.400222127
0.400430954
0.400639647
0.400848206
0.401056632
0.401264925
0.401473084
0.401681111
0.401889005
0.402096767
0.402304397
0.402511894
0.402719261
0.402926495
0.403133599
0.403340571
0.403547413
0.403754124
0.403960705
0.404167156
0.404373477
0.404579668
0.40478573
0.404991663
0.405197466
0.405403141
0.405608687
0.405814105
0.406019395
0.406224557
0.406429591
0.406634498
0.406839278
0.40704393
0.407248456
0.407452855
0.407657128
0.407861274
0.408065295
0.408269189
0.408472959
0.408676602
0.408880121
0.409083515
0.409286784
0.409489928
0.409692949
0.409895845
0.410098617
0.410301266
0.410503791
0.410706192
0.410908471
0.411110627
0.41131266
0.411514571
0.411716359
0.411918025
0.41211957
0.412320993
0.412522294
0.412723474
0.412924533
0.413125471
0.413326289
0.413526986
0.413727562
0.413928019
0.414128355
0.414328572
0.41452867
0.414728648
0.414928507
0.415128247
0.415327869
0.415527371
0.415726756
0.415926022
0.41612517
0.416324201
0.416523114
0.416721909
0.416920588
0.417119149
0.417317594
0.417515921
0.417714133
0.417912228
0.418110207
0.41830807
0.418505817
0.418703449
0.418900965
0.419098366
0.419295652
0.419492824
0.41968988
0.419886823
0.420083651
0.420280364
0.420476964
0.420673451
0.420869823
0.421066083
0.421262229
0.421458262
0.421654182
0.421849989
0.422045684
0.422241267
0.422436738
0.422632096
0.422827343
0.423022478
0.423217502
0.423412414
0.423607215
0.423801906
0.423996485
0.424190954
0.424385313
0.424579561
0.424773699
0.424967728
0.425161646
0.425355455
0.425549155
0.425742745
0.425936226
0.426129598
0.426322862
0.426516017
0.426709063
0.426902002
0.427094832
0.427287554
0.427480169
0.427672676
0.427865075
0.428057368
0.428249553
0.428441631
0.428633602
0.428825467
0.429017226
0.429208878
0.429400424
0.429591863
0.429783198
0.429974426
0.430165549
0.430356567
0.430547479
0.430738286
0.430928989
0.431119587
0.43131008
0.431500469
0.431690753
0.431880934
0.43207101
0.432260983
0.432450852
0.432640617
0.43283028
0.433019839
0.433209295
0.433398648
0.433587899
0.433777046
0.433966092
0.434155035
0.434343876
0.434532615
0.434721253
0.434909788
0.435098222
0.435286555
0.435474787
0.435662917
0.435850946
0.436038875
0.436226703
0.436414431
0.436602058
0.436789585
0.436977012
0.437164339
0.437351566
0.437538694
0.437725722
0.437912651
0.438099481
0.438286211
0.438472843
0.438659376
0.43884581
0.439032146
0.439218384
0.439404523
0.439590564
0.439776507
0.439962353
0.440148101
0.440333751
0.440519304
0.44070476
0.440890119
0.44107538
0.441260545
0.441445614
0.441630585
0.441815461
0.44200024
0.442184923
0.44236951
0.442554001
0.442738396
0.442922696
0.4431069
0.443291009
0.443475023
0.443658942
0.443842766
0.444026495
0.444210129
0.444393669
0.444577115
0.444760466
0.444943723
0.445126886
0.445309955
0.445492931
0.445675813
0.445858601
0.446041296
0.446223898
0.446406407
0.446588823
0.446771146
0.446953376
0.447135514
0.447317559
0.447499512
0.447681373
0.447863142
0.448044819
0.448226403
0.448407897
0.448589298
0.448770609
0.448951828
0.449132956
0.449313992
0.449494938
0.449675793
0.449856557
0.450037231
0.450217814
0.450398307
0.45057871
0.450759023
0.450939245
0.451119378
0.451299422
0.451479375
0.451659239
0.451839014
0.4520187
0.452198296
0.452377804
0.452557222
0.452736552
0.452915793
0.453094946
0.45327401
0.453452986
0.453631874
0.453810674
0.453989386
0.45416801
0.454346546
0.454524995
0.454703357
0.454881631
0.455059818
0.455237917
0.45541593
0.455593856
0.455771695
0.455949447
0.456127113
0.456304693
0.456482186
0.456659593
0.456836914
0.457014149
0.457191298
0.457368362
0.457545339
0.457722232
0.457899039
0.45807576
0.458252397
0.458428948
0.458605414
0.458781796
0.458958093
0.459134305
0.459310433
0.459486476
0.459662435
0.45983831
0.4600141
0.460189807
0.46036543
0.460540969
0.460716425
0.460891797
0.461067085
0.461242291
0.461417413
0.461592452
0.461767408
0.461942281
0.462117071
0.462291779
0.462466404
0.462640946
0.462815407
0.462989785
0.46316408
0.463338294
0.463512426
0.463686476
0.463860444
0.464034331
0.464208136
0.46438186
0.464555502
0.464729064
0.464902544
0.465075943
0.465249261
0.465422499
0.465595655
0.465768731
0.465941727
0.466114642
0.466287477
0.466460232
0.466632907
0.466805501
0.466978016
0.467150451
0.467322806
0.467495082
0.467667278
0.467839395
0.468011433
0.468183391
0.468355271
0.468527071
0.468698792
0.468870435
0.469041999
0.469213484
0.469384891
0.469556219
0.46972747
0.469898642
0.470069735
0.470240751
0.470411689
0.470582549
0.470753331
0.470924036
0.471094663
0.471265213
0.471435685
0.47160608
0.471776398
0.471946639
0.472116803
0.47228689
0.4724569
0.472626834
0.472796691
0.472966472
0.473136176
0.473305804
0.473475355
0.473644831
0.47381423
0.473983554
0.474152801
0.474321973
0.474491069
0.47466009
0.474829035
0.474997905
0.4751667
0.475335419
0.475504063
0.475672632
0.475841127
0.476009546
0.476177891
0.476346161
0.476514356
0.476682477
0.476850524
0.477018496
0.477186394
0.477354218
0.477521968
0.477689644
0.477857246
0.478024774
0.478192229
0.47835961
0.478526917
0.478694151
0.478861312
0.4790284
0.479195414
0.479362355
0.479529224
0.479696019
0.479862742
0.480029391
0.480195969
0.480362473
0.480528906
0.480695265
0.480861553
0.481027768
0.481193911
0.481359983
0.481525982
0.481691909
0.481857765
0.482023548
0.482189261
0.482354901
0.482520471
0.482685968
0.482851395
0.48301675
0.483182035
0.483347248
0.48351239
0.483677461
0.483842462
0.484007392
0.484172251
0.48433704
0.484501758
0.484666406
0.484830984
0.484995491
0.485159928
0.485324296
0.485488593
0.48565282
0.485816978
0.485981066
0.486145084
0.486309032
0.486472911
0.486636721
0.486800461
0.486964133
0.487127735
0.487291267
0.487454731
0.487618126
0.487781452
0.487944709
0.488107898
0.488271018
0.488434069
0.488597052
0.488759967
0.488922813
0.489085591
0.489248301
0.489410943
0.489573517
0.489736023
0.489898461
0.490060831
0.490223134
0.490385369
0.490547536
0.490709636
0.490871669
0.491033634
0.491195532
0.491357363
0.491519127
0.491680824
0.491842454
0.492004017
0.492165513
0.492326943
0.492488305
0.492649602
0.492810832
0.492971995
0.493133092
0.493294123
0.493455088
0.493615987
0.493776819
0.493937586
0.494098287
0.494258922
0.494419491
0.494579994
0.494740432
0.494900804
0.495061111
0.495221353
0.495381529
0.49554164
0.495701686
0.495861667
0.496021582
0.496181433
0.496341219
0.49650094
0.496660597
0.496820188
0.496979715
0.497139178
0.497298576
0.49745791
0.497617179
0.497776384
0.497935526
0.498094602
0.498253615
0.498412564
0.498571449
0.498730271
0.498889028
0.499047722
0.499206352
0.499364919
0.499523422
0.499681862
0.499840238
0.499998552
0.500156802
0.500314988
0.500473112
0.500631173
0.500789171
0.500947106
0.501104978
0.501262788
0.501420535
0.501578219
0.501735841
0.5018934
0.502050897
0.502208332
0.502365704
0.502523014
0.502680262
0.502837448
0.502994572
0.503151634
0.503308635
0.503465573
0.50362245
0.503779265
0.503936018
0.50409271
0.504249341
0.50440591
0.504562418
0.504718865
0.50487525
0.505031574
0.505187837
0.50534404
0.505500181
0.505656261
0.505812281
0.505968239
0.506124138
0.506279975
0.506435752
0.506591469
0.506747125
0.50690272
0.507058256
0.507213731
0.507369146
0.507524501
0.507679796
0.507835031
0.507990205
0.508145321
0.508300376
0.508455371
0.508610307
0.508765184
0.50892
0.509074758
0.509229455
0.509384094
0.509538673
0.509693193
0.509847654
0.510002056
0.510156398
0.510310682
0.510464907
0.510619072
0.510773179
0.510927228
0.511081217
0.511235148
0.511389021
0.511542835
0.51169659
0.511850287
0.512003926
0.512157507
0.512311029
0.512464493
0.512617899
0.512771247
0.512924537
0.51307777
0.513230944
0.513384061
0.51353712
0.513690121
0.513843064
0.51399595
0.514148779
0.51430155
0.514454264
0.51460692
0.514759519
0.514912061
0.515064546
0.515216974
0.515369345
0.515521658
0.515673915
0.515826115
0.515978258
0.516130345
0.516282375
0.516434348
0.516586265
0.516738125
0.516889928
0.517041676
0.517193367
0.517345001
0.51749658
0.517648102
0.517799568
0.517950978
0.518102332
0.51825363
0.518404873
0.518556059
0.51870719
0.518858265
0.519009284
0.519160248
0.519311156
0.519462009
0.519612806
0.519763548
0.519914234
0.520064866
0.520215442
0.520365962
0.520516428
0.520666839
0.520817195
0.520967495
0.521117741
0.521267932
0.521418068
0.52156815
0.521718177
0.521868149
0.522018067
0.52216793
0.522317739
0.522467493
0.522617193
0.522766838
0.52291643
0.523065967
0.52321545
0.523364879
0.523514254
0.523663575
0.523812842
0.523962055
0.524111215
0.52426032
0.524409372
0.52455837
0.524707315
0.524856206
0.525005044
0.525153828
0.525302558
0.525451236
0.52559986
0.525748431
0.525896948
0.526045413
0.526193824
0.526342182
0.526490488
0.52663874
0.52678694
0.526935086
0.52708318
0.527231222
0.52737921
0.527527146
0.527675029
0.52782286
0.527970638
0.528118364
0.528266038
0.528413659
0.528561228
0.528708745
0.528856209
0.529003621
0.529150982
0.52929829
0.529445546
0.529592751
0.529739903
0.529887004
0.530034053
0.53018105
0.530327995
0.530474889
0.530621732
0.530768522
0.530915262
0.53106195
0.531208586
0.531355171
0.531501705
0.531648188
0.531794619
0.531940999
0.532087328
0.532233607
0.532379834
0.53252601
0.532672135
0.53281821
0.532964233
0.533110206
0.533256129
0.533402
0.533547821
0.533693591
0.533839311
0.533984981
0.5341306
0.534276168
0.534421686
0.534567154
0.534712572
0.53485794
0.535003257
0.535148524
0.535293742
0.535438909
0.535584026
0.535729094
0.535874111
0.536019079
0.536163997
0.536308865
0.536453684
0.536598453
0.536743172
0.536887842
0.537032463
0.537177034
0.537321555
0.537466027
0.53761045
0.537754824
0.537899148
0.538043424
0.53818765
0.538331827
0.538475955
0.538620034
0.538764064
0.538908045
0.539051977
0.539195861
0.539339696
0.539483482
0.539627219
0.539770908
0.539914548
0.54005814
0.540201683
0.540345178
0.540488624
0.540632022
0.540775372
0.540918673
0.541061926
0.541205131
0.541348288
0.541491397
0.541634457
0.54177747
0.541920435
0.542063351
0.54220622
0.542349041
0.542491815
0.54263454
0.542777218
0.542919848
0.543062431
0.543204965
0.543347453
0.543489893
0.543632285
0.54377463
0.543916928
0.544059179
0.544201382
0.544343538
0.544485646
0.544627708
0.544769722
0.54491169
0.54505361
0.545195484
0.54533731
0.54547909
0.545620822
0.545762508
0.545904148
0.54604574
0.546187286
0.546328785
0.546470237
0.546611643
0.546753003
0.546894316
0.547035582
0.547176802
0.547317976
0.547459104
0.547600185
0.54774122
0.547882209
0.548023151
0.548164048
0.548304898
0.548445703
0.548586461
0.548727174
0.548867841
0.549008461
0.549149036
0.549289566
0.549430049
0.549570487
0.549710879
0.549851225
0.549991526
0.550131782
0.550271992
0.550412156
0.550552275
0.550692349
0.550832377
0.55097236
0.551112298
0.55125219
0.551392037
0.55153184
0.551671597
0.551811309
0.551950976
0.552090598
0.552230175
0.552369707
0.552509194
0.552648637
0.552788035
0.552927388
0.553066696
0.55320596
0.553345179
0.553484353
0.553623483
0.553762568
0.553901609
0.554040605
0.554179557
0.554318465
0.554457328
0.554596148
0.554734922
0.554873653
0.555012339
0.555150982
0.55528958
0.555428134
0.555566644
0.555705111
0.555843533
0.555981911
0.556120246
0.556258536
0.556396783
0.556534986
0.556673146
0.556811261
0.556949334
0.557087362
0.557225347
0.557363288
0.557501186
0.557639041
0.557776852
0.557914619
0.558052344
0.558190025
0.558327663
0.558465257
0.558602809
0.558740317
0.558877782
0.559015204
0.559152583
0.559289919
0.559427212
0.559564462
0.559701669
0.559838833
0.559975955
0.560113033
0.560250069
0.560387062
0.560524013
0.560660921
0.560797786
0.560934609
0.561071389
0.561208126
0.561344821
0.561481474
0.561618085
0.561754653
0.561891178
0.562027662
0.562164103
0.562300502
0.562436858
0.562573173
0.562709445
0.562845676
0.562981864
0.56311801
0.563254115
0.563390177
0.563526198
0.563662176
0.563798113
0.563934008
0.564069862
0.564205673
0.564341443
0.564477171
0.564612858
0.564748503
0.564884106
0.565019668
0.565155189
0.565290668
0.565426105
0.565561502
0.565696857
0.56583217
0.565967442
0.566102673
0.566237863
0.566373012
0.566508119
0.566643186
0.566778211
0.566913196
0.567048139
0.567183041
0.567317903
0.567452723
0.567587503
0.567722242
0.567856939
0.567991597
0.568126213
0.568260789
0.568395324
0.568529819
0.568664272
0.568798686
0.568933058
0.569067391
0.569201683
0.569335934
0.569470145
0.569604315
0.569738446
0.569872536
0.570006585
0.570140595
0.570274564
0.570408493
0.570542382
0.570676231
0.570810039
0.570943808
0.571077537
0.571211226
0.571344874
0.571478483
0.571612052
0.571745581
0.571879071
0.57201252
0.57214593
0.5722793
0.57241263
0.572545921
0.572679172
0.572812383
0.572945555
0.573078688
0.573211781
0.573344834
0.573477848
0.573610823
0.573743758
0.573876654
0.57400951
0.574142328
0.574275106
0.574407845
0.574540544
0.574673205
0.574805826
0.574938409
0.575070952
0.575203456
0.575335921
0.575468348
0.575600735
0.575733084
0.575865393
0.575997664
0.576129896
0.576262089
0.576394243
0.576526359
0.576658436
0.576790475
0.576922474
0.577054436
0.577186358
0.577318242
0.577450088
0.577581895
0.577713664
0.577845394
0.577977086
0.578108739
0.578240355
0.578371932
0.57850347
0.578634971
0.578766433
0.578897857
0.579029243
0.579160591
0.579291901
0.579423172
0.579554406
