OpenDRT_v1.0-2.0_full-config_v2/transfer_functions/eotf_srgb_to_linear.spi1d
Version 1
From 0.0 1.2
Length 8192
Components 1
{
0.0
4e-09
1.7e-08
4.1e-08
7.8e-08
1.27e-07
1.89e-07
2.66e-07
3.56e-07
4.62e-07
5.82e-07
7.18e-07
8.69e-07
1.036e-06
1.22e-06
1.42e-06
1.637e-06
1.87e-06
2.121e-06
2.388e-06
2.674e-06
2.977e-06
3.298e-06
3.636e-06
3.993e-06
4.368e-06
4.762e-06
5.174e-06
5.605e-06
6.055e-06
6.524e-06
7.012e-06
7.519e-06
8.046e-06
8.592e-06
9.158e-06
9.744e-06
1.0349e-05
1.0974e-05
1.162e-05
1.2285e-05
1.2971e-05
1.3677e-05
1.4404e-05
1.5151e-05
1.5919e-05
1.6708e-05
1.7518e-05
1.8348e-05
1.9199e-05
2.0072e-05
2.0966e-05
2.1881e-05
2.2817e-05
2.3775e-05
2.4755e-05
2.5756e-05
2.6778e-05
2.7823e-05
2.8889e-05
2.9977e-05
3.1087e-05
3.222e-05
3.3374e-05
3.455e-05
3.5749e-05
3.697e-05
3.8214e-05
3.948e-05
4.0769e-05
4.208e-05
4.3414e-05
4.477e-05
4.615e-05
4.7552e-05
4.8977e-05
5.0425e-05
5.1896e-05
5.3391e-05
5.4908e-05
5.6449e-05
5.8013e-05
5.96e-05
6.1211e-05
6.2845e-05
6.4503e-05
6.6184e-05
6.7889e-05
6.9618e-05
7.137e-05
7.3146e-05
7.4946e-05
7.677e-05
7.8618e-05
8.0489e-05
8.2385e-05
8.4305e-05
8.6249e-05
8.8218e-05
9.021e-05
9.2227e-05
9.4268e-05
9.6334e-05
9.8424e-05
0.000100538
0.000102677
0.000104841
0.000107029
0.000109242
0.00011148
0.000113742
0.000116029
0.000118342
0.000120679
0.000123041
0.000125427
0.00012784
0.000130277
0.000132739
0.000135226
0.000137739
0.000140277
0.00014284
0.000145428
0.000148042
0.000150681
0.000153346
0.000156036
0.000158752
0.000161493
0.00016426
0.000167053
0.000169871
0.000172715
0.000175585
0.000178481
0.000181402
0.00018435
0.000187323
0.000190322
0.000193348
0.000196399
0.000199477
0.00020258
0.00020571
0.000208866
0.000212048
0.000215256
0.000218491
0.000221752
0.000225039
0.000228353
0.000231693
0.00023506
0.000238453
0.000241873
0.000245319
0.000248792
0.000252292
0.000255818
0.000259371
0.000262951
0.000266557
0.000270191
0.000273851
0.000277538
0.000281252
0.000284993
0.000288761
0.000292555
0.000296377
0.000300226
0.000304103
0.000308006
0.000311936
0.000315894
0.000319879
0.000323891
0.00032793
0.000331997
0.000336091
0.000340213
0.000344361
0.000348538
0.000352742
0.000356973
0.000361232
0.000365518
0.000369832
0.000374174
0.000378543
0.00038294
0.000387365
0.000391817
0.000396297
0.000400805
0.000405341
0.000409905
0.000414497
0.000419116
0.000423763
0.000428439
0.000433142
0.000437874
0.000442633
0.000447421
0.000452236
0.00045708
0.000461952
0.000466852
0.00047178
0.000476737
0.000481722
0.000486735
0.000491777
0.000496846
0.000501945
0.000507071
0.000512226
0.00051741
0.000522622
0.000527862
0.000533131
0.000538429
0.000543755
0.00054911
0.000554493
0.000559905
0.000565346
0.000570815
0.000576313
0.00058184
0.000587396
0.000592981
0.000598594
0.000604236
0.000609907
0.000615607
0.000621336
0.000627094
0.000632881
0.000638697
0.000644542
0.000650416
0.000656319
0.000662251
0.000668213
0.000674203
0.000680223
0.000686272
0.00069235
0.000698457
0.000704594
0.000710759
0.000716955
0.000723179
0.000729433
0.000735716
0.000742029
0.000748371
0.000754743
0.000761144
0.000767574
0.000774034
0.000780524
0.000787043
0.000793592
0.00080017
0.000806778
0.000813416
0.000820083
0.00082678
0.000833507
0.000840263
0.000847049
0.000853865
0.000860711
0.000867587
0.000874492
0.000881428
0.000888393
0.000895388
0.000902413
0.000909469
0.000916554
0.000923669
0.000930814
0.000937989
0.000945194
0.000952429
0.000959695
0.00096699
0.000974316
0.000981672
0.000989058
0.000996474
0.00100392
0.001011397
0.001018904
0.001026441
0.001034009
0.001041607
0.001049235
0.001056894
0.001064583
0.001072302
0.001080052
0.001087832
0.001095643
0.001103484
0.001111356
0.001119258
0.001127191
0.001135155
0.001143149
0.001151173
0.001159229
0.001167315
0.001175431
0.001183578
0.001191756
0.001199965
0.001208204
0.001216475
0.001224776
0.001233107
0.00124147
0.001249863
0.001258288
0.001266743
0.001275229
0.001283746
0.001292294
0.001300873
0.001309483
0.001318123
0.001326795
0.001335498
0.001344232
0.001352997
0.001361793
0.00137062
0.001379479
0.001388368
0.001397288
0.00140624
0.001415223
0.001424237
0.001433283
0.001442359
0.001451467
0.001460606
0.001469777
0.001478978
0.001488212
0.001497476
0.001506772
0.001516099
0.001525458
0.001534848
0.001544269
0.001553722
0.001563207
0.001572722
0.00158227
0.001591849
0.001601459
0.001611101
0.001620775
0.00163048
0.001640217
0.001649985
0.001659786
0.001669617
0.001679481
0.001689376
0.001699303
0.001709261
0.001719252
0.001729274
0.001739328
0.001749413
0.001759531
0.00176968
0.001779861
0.001790075
0.001800319
0.001810596
0.001820905
0.001831246
0.001841618
0.001852023
0.00186246
0.001872928
0.001883429
0.001893961
0.001904526
0.001915123
0.001925752
0.001936412
0.001947106
0.001957831
0.001968588
0.001979377
0.001990199
0.002001053
0.002011939
0.002022857
0.002033808
0.00204479
0.002055805
0.002066853
0.002077932
0.002089044
0.002100188
0.002111365
0.002122574
0.002133815
0.002145089
0.002156395
0.002167734
0.002179105
0.002190508
0.002201944
0.002213413
0.002224914
0.002236447
0.002248013
0.002259612
0.002271243
0.002282906
0.002294603
0.002306332
0.002318093
0.002329887
0.002341714
0.002353574
0.002365466
0.002377391
0.002389348
0.002401339
0.002413362
0.002425417
0.002437506
0.002449627
0.002461782
0.002473969
0.002486189
0.002498441
0.002510727
0.002523045
0.002535397
0.002547781
0.002560198
0.002572648
0.002585131
0.002597647
0.002610196
0.002622778
0.002635393
0.002648041
0.002660722
0.002673436
0.002686184
0.002698964
0.002711777
0.002724624
0.002737503
0.002750416
0.002763362
0.002776341
0.002789353
0.002802399
0.002815477
0.002828589
0.002841734
0.002854912
0.002868124
0.002881369
0.002894647
0.002907959
0.002921303
0.002934682
0.002948093
0.002961538
0.002975016
0.002988528
0.003002073
0.003015651
0.003029263
0.003042908
0.003056587
0.003070299
0.003084045
0.003097824
0.003111637
0.003125483
0.003139363
0.003153277
0.003167223
0.003181204
0.003195218
0.003209266
0.003223347
0.003237462
0.003251611
0.003265793
0.003280009
0.003294258
0.003308542
0.003322859
0.00333721
0.003351594
0.003366012
0.003380464
0.00339495
0.00340947
0.003424023
0.00343861
0.003453231
0.003467886
0.003482575
0.003497298
0.003512054
0.003526845
0.003541669
0.003556527
0.003571419
0.003586346
0.003601306
0.0036163
0.003631328
0.00364639
0.003661486
0.003676616
0.00369178
0.003706978
0.003722211
0.003737477
0.003752777
0.003768112
0.00378348
0.003798883
0.00381432
0.003829791
0.003845296
0.003860836
0.003876409
0.003892017
0.003907659
0.003923335
0.003939046
0.00395479
0.003970569
0.003986383
0.00400223
0.004018112
0.004034028
0.004049979
0.004065964
0.004081983
0.004098036
0.004114124
0.004130247
0.004146403
0.004162594
0.00417882
0.00419508
0.004211374
0.004227703
0.004244067
0.004260464
0.004276897
0.004293364
0.004309865
0.004326401
0.004342971
0.004359576
0.004376216
0.00439289
0.004409599
0.004426342
0.00444312
0.004459933
0.00447678
0.004493662
0.004510579
0.00452753
0.004544516
0.004561536
0.004578592
0.004595682
0.004612807
0.004629966
0.004647161
0.00466439
0.004681654
0.004698952
0.004716286
0.004733654
0.004751057
0.004768495
0.004785968
0.004803476
0.004821018
0.004838596
0.004856208
0.004873855
0.004891537
0.004909255
0.004927007
0.004944794
0.004962616
0.004980473
0.004998364
0.005016291
0.005034253
0.00505225
0.005070282
0.005088349
0.005106452
0.005124589
0.005142761
0.005160968
0.005179211
0.005197489
0.005215801
0.005234149
0.005252532
0.00527095
0.005289404
0.005307892
0.005326416
0.005344975
0.005363569
0.005382198
0.005400863
0.005419563
0.005438298
0.005457068
0.005475874
0.005494715
0.005513591
0.005532503
0.00555145
0.005570432
0.00558945
0.005608503
0.005627591
0.005646715
0.005665874
0.005685068
0.005704298
0.005723563
0.005742864
0.0057622
0.005781572
0.005800979
0.005820422
0.0058399
0.005859414
0.005878963
0.005898547
0.005918168
0.005937823
0.005957515
0.005977242
0.005997004
0.006016802
0.006036636
0.006056505
0.00607641
0.00609635
0.006116326
0.006136338
0.006156385
0.006176469
0.006196587
0.006216742
0.006236932
0.006257158
0.006277419
0.006297717
0.00631805
0.006338419
0.006358823
0.006379264
0.00639974
0.006420252
0.0064408
0.006461383
0.006482003
0.006502658
0.006523349
0.006544076
0.006564839
0.006585638
0.006606472
0.006627343
0.006648249
0.006669192
0.00669017
0.006711184
0.006732234
0.00675332
0.006774443
0.006795601
0.006816795
0.006838025
0.006859291
0.006880593
0.006901931
0.006923305
0.006944716
0.006966162
0.006987644
0.007009163
0.007030717
0.007052308
0.007073935
0.007095598
0.007117297
0.007139032
0.007160804
0.007182611
0.007204455
0.007226335
0.007248251
0.007270203
0.007292192
0.007314216
0.007336277
0.007358374
0.007380508
0.007402678
0.007424884
0.007447126
0.007469404
0.007491719
0.007514071
0.007536458
0.007558882
0.007581342
0.007603839
0.007626372
0.007648941
0.007671547
0.007694189
0.007716867
0.007739582
0.007762333
0.007785121
0.007807945
0.007830806
0.007853703
0.007876636
0.007899606
0.007922613
0.007945656
0.007968735
0.007991852
0.008015004
0.008038193
0.008061419
0.008084681
0.00810798
0.008131315
0.008154687
0.008178096
0.008201541
0.008225023
0.008248541
0.008272096
0.008295688
0.008319316
0.008342981
0.008366683
0.008390421
0.008414196
0.008438008
0.008461856
0.008485741
0.008509663
0.008533622
0.008557617
0.008581649
0.008605718
0.008629824
0.008653966
0.008678145
0.008702361
0.008726614
0.008750904
0.00877523
0.008799593
0.008823994
0.008848431
0.008872905
0.008897415
0.008921963
0.008946548
0.008971169
0.008995827
0.009020523
0.009045255
0.009070024
0.00909483
0.009119673
0.009144553
0.00916947
0.009194424
0.009219415
0.009244443
0.009269508
0.009294611
0.00931975
0.009344926
0.009370139
0.009395389
0.009420676
0.009446001
0.009471362
0.009496761
0.009522197
0.009547669
0.009573179
0.009598726
0.00962431
0.009649932
0.00967559
0.009701286
0.009727019
0.009752789
0.009778596
0.009804441
0.009830322
0.009856241
0.009882197
0.00990819
0.009934221
0.009960289
0.009986394
0.010012536
0.010038716
0.010064933
0.010091187
0.010117479
0.010143808
0.010170174
0.010196577
0.010223018
0.010249497
0.010276012
0.010302565
0.010329156
0.010355783
0.010382449
0.010409151
0.010435891
0.010462668
0.010489483
0.010516336
0.010543225
0.010570153
0.010597117
0.010624119
0.010651159
0.010678236
0.010705351
0.010732503
0.010759693
0.01078692
0.010814184
0.010841487
0.010868826
0.010896204
0.010923619
0.010951071
0.010978562
0.011006089
0.011033655
0.011061258
0.011088898
0.011116576
0.011144292
0.011172046
0.011199837
0.011227666
0.011255532
0.011283436
0.011311378
0.011339358
0.011367375
0.01139543
0.011423523
0.011451653
0.011479821
0.011508027
0.011536271
0.011564552
0.011592872
0.011621229
0.011649623
0.011678056
0.011706526
0.011735035
0.011763581
0.011792165
0.011820786
0.011849446
0.011878143
0.011906879
0.011935652
0.011964463
0.011993312
0.012022199
0.012051124
0.012080086
0.012109087
0.012138126
0.012167202
0.012196317
0.012225469
0.012254659
0.012283888
0.012313154
0.012342458
0.012371801
0.012401181
0.0124306
0.012460056
0.01248955
0.012519083
0.012548653
0.012578262
0.012607908
0.012637593
0.012667316
0.012697077
0.012726876
0.012756713
0.012786588
0.012816501
0.012846453
0.012876442
0.01290647
0.012936536
0.01296664
0.012996782
0.013026963
0.013057181
0.013087438
0.013117733
0.013148066
0.013178438
0.013208847
0.013239295
0.013269781
0.013300306
0.013330868
0.013361469
0.013392108
0.013422786
0.013453502
0.013484256
0.013515048
0.013545879
0.013576748
0.013607655
0.013638601
0.013669585
0.013700607
0.013731668
0.013762767
0.013793904
0.01382508
0.013856294
0.013887547
0.013918838
0.013950168
0.013981536
0.014012942
0.014044387
0.01407587
0.014107392
0.014138952
0.01417055
0.014202187
0.014233863
0.014265577
0.01429733
0.014329121
0.01436095
0.014392819
0.014424725
0.01445667
0.014488654
0.014520677
0.014552737
0.014584837
0.014616975
0.014649152
0.014681367
0.014713621
0.014745913
0.014778244
0.014810614
0.014843022
0.014875469
0.014907955
0.014940479
0.014973042
0.015005644
0.015038284
0.015070963
0.015103681
0.015136437
0.015169232
0.015202066
0.015234939
0.01526785
0.0153008
0.015333789
0.015366816
0.015399883
0.015432988
0.015466131
0.015499314
0.015532536
0.015565796
0.015599095
0.015632433
0.015665809
0.015699225
0.015732679
0.015766172
0.015799705
0.015833275
0.015866885
0.015900534
0.015934222
0.015967948
0.016001713
0.016035518
0.016069361
0.016103243
0.016137164
0.016171124
0.016205123
0.016239161
0.016273237
0.016307353
0.016341508
0.016375702
0.016409935
0.016444206
0.016478517
0.016512867
0.016547256
0.016581683
0.01661615
0.016650656
0.016685201
0.016719785
0.016754408
0.01678907
0.016823771
0.016858512
0.016893291
0.016928109
0.016962967
0.016997864
0.017032799
0.017067774
0.017102788
0.017137842
0.017172934
0.017208066
0.017243236
0.017278446
0.017313695
0.017348983
0.017384311
0.017419677
0.017455083
0.017490528
0.017526013
0.017561536
0.017597099
0.017632701
0.017668342
0.017704023
0.017739742
0.017775501
0.0178113
0.017847137
0.017883014
0.01791893
0.017954886
0.017990881
0.018026915
0.018062989
0.018099101
0.018135254
0.018171445
0.018207676
0.018243946
0.018280256
0.018316605
0.018352993
0.018389421
0.018425888
0.018462395
0.018498941
0.018535526
0.018572151
0.018608816
0.018645519
0.018682263
0.018719045
0.018755867
0.018792729
0.01882963
0.018866571
0.018903551
0.01894057
0.018977629
0.019014728
0.019051866
0.019089044
0.019126261
0.019163518
0.019200814
0.01923815
0.019275525
0.01931294
0.019350395
0.019387889
0.019425423
0.019462996
0.019500609
0.019538262
0.019575954
0.019613686
0.019651457
0.019689268
0.019727119
0.019765009
0.019802939
0.019840909
0.019878918
0.019916968
0.019955056
0.019993185
0.020031353
0.020069561
0.020107808
0.020146096
0.020184423
0.02022279
0.020261196
0.020299642
0.020338128
0.020376654
0.02041522
0.020453825
0.02049247
0.020531155
0.02056988
0.020608645
0.020647449
0.020686293
0.020725177
0.020764101
0.020803065
0.020842068
0.020881111
0.020920195
0.020959318
0.020998481
0.021037684
0.021076926
0.021116209
0.021155532
0.021194894
0.021234296
0.021273739
0.021313221
0.021352743
0.021392305
0.021431907
0.021471549
0.021511231
0.021550953
0.021590715
0.021630517
0.021670359
0.021710241
0.021750162
0.021790124
0.021830126
0.021870168
0.02191025
0.021950372
0.021990534
0.022030736
0.022070978
0.02211126
0.022151583
0.022191945
0.022232347
0.02227279
0.022313272
0.022353795
0.022394358
0.022434961
0.022475604
0.022516287
0.02255701
0.022597774
0.022638577
0.022679421
0.022720305
0.022761229
0.022802193
0.022843198
0.022884242
0.022925327
0.022966452
0.023007617
0.023048823
0.023090068
0.023131354
0.02317268
0.023214047
0.023255453
0.0232969
0.023338387
0.023379915
0.023421482
0.02346309
0.023504738
0.023546427
0.023588156
0.023629925
0.023671734
0.023713584
0.023755474
0.023797404
0.023839375
0.023881386
0.023923438
0.023965529
0.024007662
0.024049834
0.024092047
0.0241343
0.024176594
0.024218928
0.024261302
0.024303717
0.024346172
0.024388668
0.024431204
0.024473781
0.024516398
0.024559055
0.024601753
0.024644492
0.02468727
0.02473009
0.024772949
0.02481585
0.02485879
0.024901772
0.024944793
0.024987856
0.025030958
0.025074102
0.025117286
0.02516051
0.025203775
0.02524708
0.025290426
0.025333813
0.02537724
0.025420708
0.025464216
0.025507765
0.025551354
0.025594984
0.025638655
0.025682366
0.025726118
0.025769911
0.025813744
0.025857618
0.025901532
0.025945487
0.025989483
0.026033519
0.026077596
0.026121714
0.026165872
0.026210071
0.026254311
0.026298592
0.026342913
0.026387275
0.026431677
0.026476121
0.026520605
0.02656513
0.026609695
0.026654302
0.026698949
0.026743636
0.026788365
0.026833134
0.026877945
0.026922796
0.026967687
0.02701262
0.027057593
0.027102607
0.027147662
0.027192758
0.027237895
0.027283072
0.02732829
0.027373549
0.027418849
0.02746419
0.027509572
0.027554995
0.027600458
0.027645962
0.027691508
0.027737094
0.027782721
0.027828389
0.027874098
0.027919847
0.027965638
0.02801147
0.028057342
0.028103256
0.02814921
0.028195206
0.028241242
0.028287319
0.028333438
0.028379597
0.028425797
0.028472039
0.028518321
0.028564644
0.028611009
0.028657414
0.02870386
0.028750348
0.028796876
0.028843446
0.028890056
0.028936708
0.0289834
0.029030134
0.029076909
0.029123725
0.029170582
0.02921748
0.029264419
0.029311399
0.02935842
0.029405483
0.029452587
0.029499731
0.029546917
0.029594144
0.029641412
0.029688721
0.029736072
0.029783463
0.029830896
0.02987837
0.029925885
0.029973442
0.030021039
0.030068678
0.030116358
0.030164079
0.030211841
0.030259645
0.030307489
0.030355375
0.030403303
0.030451271
0.030499281
0.030547332
0.030595424
0.030643558
0.030691732
0.030739948
0.030788206
0.030836504
0.030884844
0.030933226
0.030981648
0.031030112
0.031078617
0.031127164
0.031175752
0.031224381
0.031273052
0.031321763
0.031370517
0.031419311
0.031468147
0.031517025
0.031565943
0.031614904
0.031663905
0.031712948
0.031762032
0.031811158
0.031860325
0.031909534
0.031958784
0.032008075
0.032057408
0.032106783
0.032156198
0.032205656
0.032255154
0.032304694
0.032354276
0.032403899
0.032453564
0.03250327
0.032553017
0.032602807
0.032652637
0.032702509
0.032752423
0.032802378
0.032852375
0.032902413
0.032952493
0.033002614
0.033052777
0.033102981
0.033153227
0.033203515
0.033253844
0.033304215
0.033354627
0.033405081
0.033455577
0.033506114
0.033556692
0.033607313
0.033657975
0.033708678
0.033759424
0.03381021
0.033861039
0.033911909
0.033962821
0.034013774
0.03406477
0.034115806
0.034166885
0.034218005
0.034269167
0.034320371
0.034371616
0.034422903
0.034474232
0.034525602
0.034577014
0.034628468
0.034679964
0.034731501
0.03478308
0.034834701
0.034886364
0.034938068
0.034989814
0.035041602
0.035093432
0.035145303
0.035197217
0.035249172
0.035301169
0.035353207
0.035405288
0.03545741
0.035509574
0.03556178
0.035614028
0.035666318
0.035718649
0.035771023
0.035823438
0.035875895
0.035928394
0.035980935
0.036033518
0.036086142
0.036138809
0.036191517
0.036244267
0.03629706
0.036349894
0.03640277
0.036455688
0.036508648
0.03656165
0.036614693
0.036667779
0.036720907
0.036774076
0.036827288
0.036880542
0.036933837
0.036987175
0.037040554
0.037093976
0.037147439
0.037200945
0.037254493
0.037308082
0.037361714
0.037415387
0.037469103
0.037522861
0.03757666
0.037630502
0.037684386
0.037738312
0.03779228
0.03784629
0.037900342
0.037954436
0.038008572
0.038062751
0.038116971
0.038171234
0.038225538
0.038279885
0.038334274
0.038388705
0.038443178
0.038497693
0.038552251
0.03860685
0.038661492
0.038716176
0.038770902
0.03882567
0.03888048
0.038935333
0.038990228
0.039045164
0.039100144
0.039155165
0.039210228
0.039265334
0.039320482
0.039375672
0.039430905
0.039486179
0.039541496
0.039596855
0.039652256
0.0397077
0.039763186
0.039818714
0.039874284
0.039929897
0.039985552
0.040041249
0.040096989
0.040152771
0.040208595
0.040264461
0.04032037
0.040376321
0.040432314
0.04048835
0.040544428
0.040600548
0.040656711
0.040712916
0.040769164
0.040825453
0.040881786
0.04093816
0.040994577
0.041051036
0.041107538
0.041164082
0.041220668
0.041277297
0.041333969
0.041390682
0.041447438
0.041504237
0.041561078
0.041617961
0.041674887
0.041731855
0.041788866
0.041845919
0.041903015
0.041960153
0.042017334
0.042074557
0.042131822
0.04218913
0.042246481
0.042303874
0.042361309
0.042418787
0.042476308
0.042533871
0.042591476
0.042649125
0.042706815
0.042764548
0.042822324
0.042880142
0.042938003
0.042995907
0.043053853
0.043111841
0.043169872
0.043227946
0.043286062
0.043344221
0.043402422
0.043460667
0.043518953
0.043577282
0.043635654
0.043694069
0.043752526
0.043811026
0.043869568
0.043928153
0.043986781
0.044045451
0.044104164
0.04416292
0.044221719
0.04428056
0.044339443
0.04439837
0.044457339
0.044516351
0.044575405
0.044634502
0.044693642
0.044752825
0.04481205
0.044871318
0.044930629
0.044989982
0.045049379
0.045108818
0.0451683
0.045227824
0.045287391
0.045347001
0.045406654
0.04546635
0.045526088
0.045585869
0.045645693
0.04570556
0.04576547
0.045825422
0.045885417
0.045945455
0.046005536
0.04606566
0.046125826
0.046186036
0.046246288
0.046306583
0.046366921
0.046427301
0.046487725
0.046548191
0.046608701
0.046669253
0.046729848
0.046790486
0.046851167
0.046911891
0.046972657
0.047033467
0.04709432
0.047155215
0.047216153
0.047277135
0.047338159
0.047399226
0.047460336
0.047521489
0.047582685
0.047643924
0.047705206
0.047766531
0.047827899
0.04788931
0.047950764
0.04801226
0.0480738
0.048135383
0.048197009
0.048258678
0.04832039
0.048382145
0.048443942
0.048505783
0.048567667
0.048629594
0.048691564
0.048753578
0.048815634
0.048877733
0.048939875
0.049002061
0.049064289
0.04912656
0.049188875
0.049251233
0.049313633
0.049376077
0.049438564
0.049501094
0.049563668
0.049626284
0.049688943
0.049751646
0.049814392
0.04987718
0.049940012
0.050002888
0.050065806
0.050128767
0.050191772
0.05025482
0.050317911
0.050381045
0.050444222
0.050507443
0.050570706
0.050634013
0.050697363
0.050760757
0.050824193
0.050887673
0.050951196
0.051014762
0.051078372
0.051142024
0.05120572
0.051269459
0.051333242
0.051397067
0.051460936
0.051524848
0.051588804
0.051652803
0.051716845
0.05178093
0.051845058
0.05190923
0.051973446
0.052037704
0.052102006
0.052166351
0.052230739
0.052295171
0.052359646
0.052424165
0.052488727
0.052553332
0.05261798
0.052682672
0.052747407
0.052812186
0.052877008
0.052941873
0.053006782
0.053071734
0.053136729
0.053201768
0.05326685
0.053331976
0.053397145
0.053462357
0.053527613
0.053592912
0.053658255
0.053723641
0.053789071
0.053854544
0.05392006
0.05398562
0.054051224
0.05411687
0.054182561
0.054248294
0.054314072
0.054379892
0.054445757
0.054511664
0.054577616
0.05464361
0.054709648
0.05477573
0.054841855
0.054908024
0.054974236
0.055040492
0.055106791
0.055173134
0.055239521
0.055305951
0.055372424
0.055438941
0.055505502
0.055572106
0.055638754
0.055705445
0.05577218
0.055838958
0.05590578
0.055972646
0.056039555
0.056106508
0.056173505
0.056240545
0.056307629
0.056374756
0.056441927
0.056509141
0.0565764
0.056643702
0.056711047
0.056778436
0.056845869
0.056913345
0.056980866
0.057048429
0.057116037
0.057183688
0.057251383
0.057319121
0.057386904
0.05745473
0.057522599
0.057590513
0.05765847
0.05772647
0.057794515
0.057862603
0.057930735
0.057998911
0.05806713
0.058135393
0.0582037
0.058272051
0.058340445
0.058408883
0.058477365
0.058545891
0.058614461
0.058683074
0.058751731
0.058820432
0.058889176
0.058957965
0.059026797
0.059095673
0.059164593
0.059233557
0.059302564
0.059371616
0.059440711
0.05950985
0.059579033
0.059648259
0.05971753
0.059786844
0.059856203
0.059925605
0.059995051
0.060064541
0.060134075
0.060203652
0.060273274
0.060342939
0.060412649
0.060482402
0.060552199
0.06062204
0.060691925
0.060761854
0.060831827
0.060901843
0.060971904
0.061042009
0.061112157
0.06118235
0.061252586
0.061322867
0.061393191
0.061463559
0.061533972
0.061604428
0.061674928
0.061745473
0.061816061
0.061886693
0.061957369
0.06202809
0.062098854
0.062169662
0.062240514
0.062311411
0.062382351
0.062453335
0.062524364
0.062595436
0.062666553
0.062737713
0.062808918
0.062880166
0.062951459
0.063022796
0.063094177
0.063165602
0.063237071
0.063308584
0.063380141
0.063451742
0.063523387
0.063595077
0.06366681
0.063738588
0.06381041
0.063882276
0.063954186
0.06402614
0.064098138
0.064170181
0.064242267
0.064314398
0.064386573
0.064458792
0.064531055
0.064603363
0.064675714
0.06474811
0.06482055
0.064893034
0.064965562
0.065038135
0.065110751
0.065183412
0.065256117
0.065328867
0.06540166
0.065474498
0.06554738
0.065620306
0.065693276
0.065766291
0.06583935
0.065912453
0.065985601
0.066058792
0.066132028
0.066205308
0.066278633
0.066352001
0.066425414
0.066498872
0.066572373
0.066645919
0.066719509
0.066793144
0.066866822
0.066940545
0.067014313
0.067088125
0.067161981
0.067235881
0.067309826
0.067383815
0.067457848
0.067531926
0.067606048
0.067680214
0.067754425
0.06782868
0.067902979
0.067977323
0.068051712
0.068126144
0.068200621
0.068275143
0.068349708
0.068424318
0.068498973
0.068573672
0.068648415
0.068723203
0.068798035
0.068872912
0.068947833
0.069022799
0.069097809
