OpenDRT_v1.0-2.0_full-config_v2/transfer_functions/eotf_rec1886_to_linear.spi1d
Version 1
From 0.0 1.2
Length 8192
Components 1
{
0.0
1e-09
3e-09
9e-09
1.7e-08
3e-08
4.6e-08
6.7e-08
9.2e-08
1.23e-07
1.58e-07
1.98e-07
2.44e-07
2.96e-07
3.54e-07
4.17e-07
4.87e-07
5.64e-07
6.47e-07
7.36e-07
8.33e-07
9.36e-07
1.047e-06
1.165e-06
1.29e-06
1.423e-06
1.563e-06
1.711e-06
1.867e-06
2.031e-06
2.204e-06
2.384e-06
2.573e-06
2.77e-06
2.976e-06
3.19e-06
3.413e-06
3.645e-06
3.886e-06
4.136e-06
4.395e-06
4.663e-06
4.941e-06
5.228e-06
5.525e-06
5.831e-06
6.147e-06
6.472e-06
6.808e-06
7.153e-06
7.509e-06
7.874e-06
8.25e-06
8.636e-06
9.032e-06
9.438e-06
9.855e-06
1.0283e-05
1.0721e-05
1.117e-05
1.163e-05
1.2101e-05
1.2582e-05
1.3075e-05
1.3579e-05
1.4093e-05
1.4619e-05
1.5157e-05
1.5705e-05
1.6265e-05
1.6837e-05
1.742e-05
1.8015e-05
1.8621e-05
1.9239e-05
1.9869e-05
2.0511e-05
2.1164e-05
2.183e-05
2.2508e-05
2.3198e-05
2.39e-05
2.4614e-05
2.534e-05
2.6079e-05
2.6831e-05
2.7595e-05
2.8371e-05
2.916e-05
2.9961e-05
3.0776e-05
3.1603e-05
3.2443e-05
3.3295e-05
3.4161e-05
3.504e-05
3.5932e-05
3.6837e-05
3.7755e-05
3.8686e-05
3.963e-05
4.0588e-05
4.1559e-05
4.2544e-05
4.3542e-05
4.4553e-05
4.5579e-05
4.6617e-05
4.767e-05
4.8736e-05
4.9816e-05
5.091e-05
5.2018e-05
5.3139e-05
5.4275e-05
5.5424e-05
5.6588e-05
5.7766e-05
5.8958e-05
6.0164e-05
6.1385e-05
6.262e-05
6.3869e-05
6.5133e-05
6.6411e-05
6.7703e-05
6.9011e-05
7.0332e-05
7.1669e-05
7.302e-05
7.4386e-05
7.5767e-05
7.7162e-05
7.8572e-05
7.9998e-05
8.1438e-05
8.2893e-05
8.4364e-05
8.5849e-05
8.735e-05
8.8866e-05
9.0397e-05
9.1943e-05
9.3505e-05
9.5082e-05
9.6674e-05
9.8282e-05
9.9905e-05
0.000101544
0.000103199
0.000104869
0.000106554
0.000108256
0.000109973
0.000111706
0.000113455
0.000115219
0.000117
0.000118796
0.000120609
0.000122437
0.000124282
0.000126143
0.00012802
0.000129913
0.000131822
0.000133748
0.000135689
0.000137648
0.000139622
0.000141613
0.000143621
0.000145645
0.000147685
0.000149742
0.000151816
0.000153906
0.000156014
0.000158137
0.000160278
0.000162435
0.00016461
0.000166801
0.000169009
0.000171234
0.000173476
0.000175735
0.000178011
0.000180304
0.000182614
0.000184942
0.000187286
0.000189648
0.000192028
0.000194424
0.000196838
0.00019927
0.000201718
0.000204185
0.000206668
0.000209169
0.000211688
0.000214225
0.000216779
0.000219351
0.00022194
0.000224547
0.000227172
0.000229815
0.000232476
0.000235154
0.000237851
0.000240565
0.000243297
0.000246048
0.000248816
0.000251603
0.000254407
0.00025723
0.000260071
0.00026293
0.000265808
0.000268704
0.000271618
0.00027455
0.000277501
0.00028047
0.000283458
0.000286464
0.000289489
0.000292532
0.000295594
0.000298674
0.000301773
0.000304891
0.000308027
0.000311183
0.000314356
0.000317549
0.000320761
0.000323991
0.000327241
0.000330509
0.000333796
0.000337102
0.000340428
0.000343772
0.000347136
0.000350518
0.00035392
0.000357341
0.000360781
0.00036424
0.000367719
0.000371217
0.000374734
0.00037827
0.000381826
0.000385402
0.000388997
0.000392611
0.000396245
0.000399898
0.000403571
0.000407264
0.000410976
0.000414708
0.000418459
0.000422231
0.000426022
0.000429833
0.000433663
0.000437514
0.000441384
0.000445274
0.000449185
0.000453115
0.000457065
0.000461035
0.000465025
0.000469035
0.000473066
0.000477116
0.000481187
0.000485278
0.000489389
0.00049352
0.000497672
0.000501844
0.000506036
0.000510248
0.000514481
0.000518735
0.000523008
0.000527303
0.000531617
0.000535953
0.000540309
0.000544685
0.000549082
0.0005535
0.000557938
0.000562397
0.000566877
0.000571377
0.000575899
0.000580441
0.000585004
0.000589587
0.000594192
0.000598817
0.000603464
0.000608131
0.00061282
0.000617529
0.00062226
0.000627011
0.000631784
0.000636578
0.000641393
0.000646229
0.000651086
0.000655965
0.000660864
0.000665786
0.000670728
0.000675692
0.000680677
0.000685683
0.000690711
0.000695761
0.000700831
0.000705924
0.000711038
0.000716173
0.00072133
0.000726508
0.000731709
0.00073693
0.000742174
0.000747439
0.000752726
0.000758035
0.000763365
0.000768717
0.000774091
0.000779487
0.000784905
0.000790345
0.000795806
0.00080129
0.000806795
0.000812323
0.000817873
0.000823444
0.000829038
0.000834654
0.000840292
0.000845952
0.000851634
0.000857339
0.000863065
0.000868814
0.000874585
0.000880379
0.000886195
0.000892033
0.000897894
0.000903777
0.000909682
0.00091561
0.00092156
0.000927533
0.000933528
0.000939546
0.000945587
0.00095165
0.000957736
0.000963844
0.000969975
0.000976129
0.000982305
0.000988504
0.000994726
0.001000971
0.001007238
0.001013528
0.001019842
0.001026178
0.001032536
0.001038918
0.001045323
0.001051751
0.001058202
0.001064676
0.001071172
0.001077692
0.001084235
0.001090802
0.001097391
0.001104003
0.001110639
0.001117298
0.00112398
0.001130685
0.001137414
0.001144166
0.001150941
0.001157739
0.001164561
0.001171406
0.001178275
0.001185167
0.001192083
0.001199022
0.001205985
0.001212971
0.001219981
0.001227014
0.001234071
0.001241151
0.001248255
0.001255383
0.001262534
0.00126971
0.001276909
0.001284131
0.001291378
0.001298648
0.001305942
0.00131326
0.001320602
0.001327967
0.001335357
0.00134277
0.001350208
0.001357669
0.001365155
0.001372664
0.001380197
0.001387755
0.001395337
0.001402942
0.001410572
0.001418226
0.001425904
0.001433607
0.001441333
0.001449084
0.001456859
0.001464659
0.001472482
0.00148033
0.001488203
0.001496099
0.00150402
0.001511966
0.001519936
0.00152793
0.001535949
0.001543992
0.00155206
0.001560153
0.00156827
0.001576411
0.001584577
0.001592768
0.001600984
0.001609224
0.001617488
0.001625778
0.001634092
0.001642431
0.001650795
0.001659183
0.001667597
0.001676035
0.001684498
0.001692986
0.001701499
0.001710036
0.001718599
0.001727187
0.001735799
0.001744437
0.001753099
0.001761787
0.0017705
0.001779238
0.001788
0.001796789
0.001805602
0.00181444
0.001823304
0.001832192
0.001841106
0.001850045
0.00185901
0.001868
0.001877015
0.001886055
0.001895121
0.001904212
0.001913328
0.00192247
0.001931638
0.001940831
0.001950049
0.001959293
0.001968562
0.001977857
0.001987177
0.001996523
0.002005894
0.002015291
0.002024714
0.002034163
0.002043637
0.002053136
0.002062662
0.002072213
0.00208179
0.002091393
0.002101021
0.002110675
0.002120356
0.002130062
0.002139793
0.002149551
0.002159335
0.002169144
0.00217898
0.002188841
0.002198729
0.002208642
0.002218582
0.002228547
0.002238539
0.002248557
0.0022586
0.00226867
0.002278766
0.002288889
0.002299037
0.002309212
0.002319412
0.002329639
0.002339893
0.002350172
0.002360478
0.00237081
0.002381169
0.002391554
0.002401965
0.002412403
0.002422867
0.002433357
0.002443874
0.002454418
0.002464987
0.002475584
0.002486207
0.002496856
0.002507532
0.002518235
0.002528964
0.00253972
0.002550502
0.002561311
0.002572147
0.00258301
0.002593899
0.002604815
0.002615757
0.002626727
0.002637723
0.002648746
0.002659796
0.002670873
0.002681976
0.002693107
0.002704264
0.002715448
0.002726659
0.002737898
0.002749163
0.002760455
0.002771774
0.00278312
0.002794493
0.002805894
0.002817321
0.002828775
0.002840257
0.002851766
0.002863302
0.002874865
0.002886455
0.002898072
0.002909717
0.002921389
0.002933088
0.002944815
0.002956568
0.002968349
0.002980158
0.002991994
0.003003857
0.003015747
0.003027665
0.003039611
0.003051584
0.003063584
0.003075612
0.003087667
0.00309975
0.00311186
0.003123998
0.003136164
0.003148357
0.003160577
0.003172826
0.003185102
0.003197405
0.003209737
0.003222096
0.003234482
0.003246897
0.003259339
0.003271809
0.003284307
0.003296832
0.003309385
0.003321967
0.003334576
0.003347213
0.003359878
0.00337257
0.003385291
0.00339804
0.003410816
0.003423621
0.003436453
0.003449314
0.003462202
0.003475119
0.003488064
0.003501037
0.003514037
0.003527066
0.003540124
0.003553209
0.003566322
0.003579464
0.003592634
0.003605832
0.003619058
0.003632313
0.003645596
0.003658907
0.003672246
0.003685614
0.00369901
0.003712435
0.003725888
0.003739369
0.003752879
0.003766417
0.003779983
0.003793578
0.003807202
0.003820854
0.003834534
0.003848243
0.003861981
0.003875747
0.003889542
0.003903365
0.003917217
0.003931098
0.003945007
0.003958945
0.003972911
0.003986907
0.004000931
0.004014983
0.004029065
0.004043175
0.004057314
0.004071482
0.004085678
0.004099904
0.004114158
0.004128441
0.004142754
0.004157095
0.004171464
0.004185863
0.004200291
0.004214748
0.004229234
0.004243748
0.004258292
0.004272865
0.004287467
0.004302098
0.004316757
0.004331447
0.004346165
0.004360912
0.004375689
0.004390494
0.004405329
0.004420193
0.004435086
0.004450009
0.004464961
0.004479941
0.004494952
0.004509991
0.00452506
0.004540158
0.004555286
0.004570443
0.004585629
0.004600845
0.00461609
0.004631364
0.004646668
0.004662002
0.004677365
0.004692757
0.004708179
0.00472363
0.004739111
0.004754622
0.004770162
0.004785732
0.004801331
0.00481696
0.004832618
0.004848307
0.004864024
0.004879772
0.004895549
0.004911356
0.004927193
0.004943059
0.004958955
0.004974881
0.004990837
0.005006823
0.005022838
0.005038883
0.005054959
0.005071064
0.005087198
0.005103363
0.005119558
0.005135783
0.005152037
0.005168322
0.005184636
0.005200981
0.005217355
0.00523376
0.005250195
0.00526666
0.005283154
0.005299679
0.005316234
0.005332819
0.005349435
0.00536608
0.005382756
0.005399462
0.005416198
0.005432964
0.00544976
0.005466587
0.005483444
0.005500331
0.005517249
0.005534197
0.005551175
0.005568184
0.005585222
0.005602292
0.005619392
0.005636522
0.005653682
0.005670873
0.005688095
0.005705346
0.005722629
0.005739942
0.005757285
0.005774659
0.005792063
0.005809498
0.005826964
0.00584446
0.005861987
0.005879544
0.005897132
0.005914751
0.005932401
0.005950081
0.005967791
0.005985533
0.006003305
0.006021108
0.006038942
0.006056806
0.006074701
0.006092628
0.006110584
0.006128572
0.006146591
0.00616464
0.006182721
0.006200832
0.006218974
0.006237147
0.006255351
0.006273586
0.006291852
0.006310149
0.006328477
0.006346835
0.006365225
0.006383646
0.006402098
0.006420582
0.006439096
0.006457641
0.006476218
0.006494825
0.006513464
0.006532134
0.006550835
0.006569567
0.006588331
0.006607125
0.006625951
0.006644809
0.006663697
0.006682617
0.006701568
0.00672055
0.006739564
0.006758609
0.006777685
0.006796793
0.006815932
0.006835103
0.006854305
0.006873538
0.006892803
0.006912099
0.006931427
0.006950786
0.006970177
0.006989599
0.007009053
0.007028538
0.007048055
0.007067604
0.007087184
0.007106796
0.007126439
0.007146114
0.007165821
0.007185559
0.007205329
0.00722513
0.007244964
0.007264829
0.007284726
0.007304654
0.007324615
0.007344607
0.007364631
0.007384686
0.007404774
0.007424893
0.007445045
0.007465228
0.007485443
0.00750569
0.007525968
0.007546279
0.007566622
0.007586996
0.007607403
0.007627841
0.007648312
0.007668814
0.007689349
0.007709916
0.007730514
0.007751145
0.007771808
0.007792503
0.00781323
0.007833989
0.00785478
0.007875604
0.007896459
0.007917347
0.007938267
0.007959219
0.007980204
0.00800122
0.008022269
0.00804335
0.008064464
0.00808561
0.008106788
0.008127998
0.008149241
0.008170516
0.008191823
0.008213163
0.008234535
0.00825594
0.008277377
0.008298846
0.008320348
0.008341883
0.00836345
0.008385049
0.008406681
0.008428345
0.008450042
0.008471772
0.008493534
0.008515328
0.008537155
0.008559015
0.008580907
0.008602832
0.00862479
0.00864678
0.008668803
0.008690859
0.008712947
0.008735069
0.008757222
0.008779409
0.008801628
0.00882388
0.008846165
0.008868483
0.008890833
0.008913217
0.008935633
0.008958082
0.008980564
0.009003078
0.009025626
0.009048206
0.00907082
0.009093466
0.009116146
0.009138858
0.009161603
0.009184381
0.009207193
0.009230037
0.009252914
0.009275824
0.009298768
0.009321744
0.009344754
0.009367796
0.009390872
0.009413981
0.009437123
0.009460298
0.009483507
0.009506748
0.009530023
0.009553331
0.009576672
0.009600046
0.009623454
0.009646895
0.009670369
0.009693876
0.009717417
0.009740991
0.009764598
0.009788239
0.009811913
0.00983562
0.009859361
0.009883135
0.009906943
0.009930784
0.009954659
0.009978566
0.010002508
0.010026483
0.010050491
0.010074533
0.010098608
0.010122717
0.010146859
0.010171035
0.010195245
0.010219488
0.010243765
0.010268075
0.010292419
0.010316797
0.010341208
0.010365653
0.010390131
0.010414644
0.010439189
0.010463769
0.010488383
0.01051303
0.010537711
0.010562425
0.010587174
0.010611956
0.010636772
0.010661622
0.010686505
0.010711423
0.010736374
0.01076136
0.010786379
0.010811432
0.010836519
0.010861639
0.010886794
0.010911983
0.010937206
0.010962462
0.010987753
0.011013078
0.011038437
0.011063829
0.011089256
0.011114717
0.011140212
0.011165741
0.011191304
0.011216901
0.011242532
0.011268198
0.011293897
0.011319631
0.011345399
0.011371201
0.011397037
0.011422908
0.011448813
0.011474752
0.011500725
0.011526732
0.011552774
0.01157885
0.01160496
0.011631105
0.011657284
0.011683497
0.011709745
0.011736027
0.011762343
0.011788694
0.011815079
0.011841499
0.011867953
0.011894442
0.011920964
0.011947522
0.011974114
0.01200074
0.012027401
0.012054097
0.012080826
0.012107591
0.01213439
0.012161224
0.012188092
0.012214995
0.012241932
0.012268904
0.012295911
0.012322952
0.012350028
0.012377139
0.012404284
0.012431464
0.012458679
0.012485928
0.012513212
0.012540531
0.012567885
0.012595273
0.012622697
0.012650155
0.012677648
0.012705175
0.012732738
0.012760335
0.012787967
0.012815634
0.012843336
0.012871073
0.012898845
0.012926652
0.012954493
0.01298237
0.013010282
0.013038228
0.01306621
0.013094226
0.013122278
0.013150364
0.013178486
0.013206643
0.013234834
0.013263061
0.013291323
0.01331962
0.013347952
0.013376319
0.013404721
0.013433159
0.013461632
0.013490139
0.013518682
0.013547261
0.013575874
0.013604523
0.013633206
0.013661926
0.01369068
0.01371947
0.013748295
0.013777155
0.01380605
0.013834981
0.013863947
0.013892949
0.013921986
0.013951058
0.013980166
0.014009309
0.014038487
0.014067701
0.01409695
0.014126235
0.014155555
0.014184911
0.014214302
0.014243729
0.014273191
0.014302689
0.014332222
0.014361791
0.014391395
0.014421035
0.01445071
0.014480421
0.014510168
0.01453995
0.014569768
0.014599622
0.014629511
0.014659436
0.014689396
0.014719392
0.014749424
0.014779492
0.014809595
0.014839734
0.014869909
0.01490012
0.014930366
0.014960648
0.014990966
0.01502132
0.015051709
0.015082135
0.015112596
0.015143093
0.015173626
0.015204195
0.0152348
0.015265441
0.015296117
0.01532683
0.015357578
0.015388362
0.015419183
0.015450039
0.015480932
0.01551186
0.015542824
0.015573825
0.015604861
0.015635934
0.015667042
0.015698187
0.015729367
0.015760584
0.015791837
0.015823126
0.015854451
0.015885813
0.01591721
0.015948644
0.015980114
0.01601162
0.016043162
0.01607474
0.016106355
0.016138006
0.016169693
0.016201416
0.016233176
0.016264972
0.016296804
0.016328673
0.016360578
0.016392519
0.016424497
0.016456511
0.016488561
0.016520648
0.016552771
0.01658493
0.016617126
0.016649358
0.016681627
0.016713932
0.016746274
0.016778652
0.016811067
0.016843518
0.016876006
0.01690853
0.016941091
0.016973688
0.017006322
0.017038992
0.017071699
0.017104443
0.017137223
0.01717004
0.017202894
0.017235784
0.01726871
0.017301674
0.017334674
0.017367711
0.017400784
0.017433894
0.017467041
0.017500225
0.017533445
0.017566702
0.017599996
0.017633327
0.017666694
0.017700099
0.01773354
0.017767018
0.017800533
0.017834084
0.017867673
0.017901298
0.01793496
0.017968659
0.018002395
0.018036168
0.018069978
0.018103825
0.018137709
0.01817163
0.018205587
0.018239582
0.018273614
0.018307682
0.018341788
0.018375931
0.018410111
0.018444328
0.018478582
0.018512873
0.018547201
0.018581566
0.018615968
0.018650408
0.018684884
0.018719398
0.018753949
0.018788537
0.018823162
0.018857825
0.018892524
0.018927261
0.018962035
0.018996847
0.019031695
0.019066581
0.019101504
0.019136465
0.019171463
0.019206498
0.01924157
0.01927668
0.019311827
0.019347011
0.019382233
0.019417492
0.019452788
0.019488122
0.019523494
0.019558902
0.019594348
0.019629832
0.019665353
0.019700912
0.019736508
0.019772141
0.019807812
0.019843521
0.019879267
0.01991505
0.019950871
0.01998673
0.020022626
0.02005856
0.020094531
0.02013054
0.020166587
0.020202671
0.020238793
0.020274953
0.02031115
0.020347385
0.020383657
0.020419968
0.020456315
0.020492701
0.020529124
0.020565586
0.020602084
0.020638621
0.020675195
0.020711808
0.020748458
0.020785145
0.020821871
0.020858634
0.020895435
0.020932275
0.020969151
0.021006066
0.021043019
0.02108001
0.021117038
0.021154104
0.021191209
0.021228351
0.021265531
0.021302749
0.021340005
0.0213773
0.021414632
0.021452002
0.02148941
0.021526856
0.02156434
0.021601862
0.021639423
0.021677021
0.021714658
0.021752332
0.021790045
0.021827795
0.021865584
0.021903411
0.021941276
0.02197918
0.022017121
0.022055101
0.022093119
0.022131175
0.022169269
0.022207401
0.022245572
0.022283781
0.022322028
0.022360314
0.022398637
0.022437
0.0224754
0.022513839
0.022552315
0.022590831
0.022629384
0.022667976
0.022706607
0.022745275
0.022783983
0.022822728
0.022861512
0.022900334
0.022939195
0.022978094
0.023017032
0.023056008
0.023095023
0.023134076
0.023173167
0.023212298
0.023251466
0.023290673
0.023329919
0.023369203
0.023408526
0.023447887
0.023487287
0.023526726
0.023566203
0.023605719
0.023645273
0.023684866
0.023724498
0.023764168
0.023803877
0.023843624
0.023883411
0.023923236
0.0239631
0.024003002
0.024042943
0.024082923
0.024122942
0.024162999
0.024203096
0.024243231
0.024283404
0.024323617
0.024363869
0.024404159
0.024444488
0.024484856
0.024525263
0.024565708
0.024606193
0.024646716
0.024687279
0.02472788
0.02476852
0.024809199
0.024849918
0.024890675
0.024931471
0.024972306
0.02501318
0.025054093
0.025095045
0.025136036
0.025177066
0.025218135
0.025259243
0.02530039
0.025341576
0.025382802
0.025424066
0.02546537
0.025506712
0.025548094
0.025589515
0.025630975
0.025672474
0.025714013
0.02575559
0.025797207
0.025838863
0.025880558
0.025922293
0.025964066
0.026005879
0.026047732
0.026089623
0.026131554
0.026173524
0.026215533
0.026257581
0.026299669
0.026341796
0.026383963
0.026426169
0.026468414
0.026510699
0.026553023
0.026595386
0.026637789
0.026680231
0.026722713
0.026765234
0.026807794
0.026850394
0.026893034
0.026935713
0.026978431
0.027021189
0.027063986
0.027106823
0.027149699
0.027192615
0.027235571
0.027278566
0.0273216
0.027364675
0.027407788
0.027450942
0.027494135
0.027537367
0.02758064
0.027623951
0.027667303
0.027710694
0.027754125
0.027797596
0.027841106
0.027884656
0.027928245
0.027971875
0.028015544
0.028059253
0.028103001
0.028146789
0.028190618
0.028234486
0.028278393
0.028322341
0.028366328
0.028410355
0.028454422
0.028498529
0.028542676
0.028586862
0.028631089
0.028675355
0.028719661
0.028764007
0.028808393
0.028852819
0.028897285
0.028941791
0.028986337
0.029030923
0.029075548
0.029120214
0.02916492
0.029209666
0.029254451
0.029299277
0.029344143
0.029389049
0.029433995
0.029478981
0.029524007
0.029569073
0.02961418
0.029659326
0.029704513
0.029749739
0.029795006
0.029840313
0.02988566
0.029931048
0.029976475
0.030021943
0.030067451
0.030112999
0.030158587
0.030204216
0.030249885
0.030295594
0.030341343
0.030387133
0.030432962
0.030478833
0.030524743
0.030570694
0.030616685
0.030662717
0.030708788
0.030754901
0.030801053
0.030847246
0.030893479
0.030939753
0.030986067
0.031032422
0.031078817
0.031125252
0.031171728
0.031218244
0.031264801
0.031311398
0.031358036
0.031404714
0.031451433
0.031498192
0.031544992
0.031591832
0.031638713
0.031685634
0.031732596
0.031779599
0.031826642
0.031873725
0.03192085
0.031968015
0.03201522
0.032062467
0.032109753
0.032157081
0.032204449
0.032251858
0.032299308
0.032346798
0.032394329
0.0324419
0.032489513
0.032537166
0.03258486
0.032632594
0.03268037
0.032728186
0.032776043
0.032823941
0.032871879
0.032919859
0.032967879
0.03301594
0.033064042
0.033112185
0.033160368
0.033208593
0.033256858
0.033305164
0.033353512
0.0334019
0.033450329
0.033498799
0.033547309
0.033595861
0.033644454
0.033693088
0.033741763
0.033790478
0.033839235
0.033888033
0.033936872
0.033985752
0.034034673
0.034083634
0.034132637
0.034181682
0.034230767
0.034279893
0.03432906
0.034378269
0.034427518
0.034476809
0.034526141
0.034575514
0.034624928
0.034674383
0.03472388
0.034773418
0.034822997
0.034872617
0.034922278
0.034971981
0.035021724
0.03507151
0.035121336
0.035171203
0.035221112
0.035271063
0.035321054
0.035371087
0.035421161
0.035471276
0.035521433
0.035571631
0.035621871
0.035672151
0.035722474
0.035772837
0.035823242
0.035873688
0.035924176
0.035974706
0.036025276
0.036075888
0.036126542
0.036177237
0.036227973
0.036278751
0.036329571
0.036380432
0.036431334
0.036482278
0.036533264
0.036584291
0.036635359
0.03668647
0.036737621
0.036788815
0.03684005
0.036891326
0.036942644
0.036994004
0.037045405
0.037096848
0.037148333
0.037199859
0.037251427
0.037303037
0.037354688
0.037406381
0.037458116
0.037509893
0.037561711
0.037613571
0.037665472
0.037717416
0.037769401
0.037821428
0.037873497
0.037925607
0.03797776
0.038029954
0.03808219
0.038134467
0.038186787
0.038239148
0.038291552
0.038343997
0.038396484
0.038449013
0.038501584
0.038554197
0.038606851
0.038659548
0.038712286
0.038765067
0.038817889
0.038870754
0.03892366
0.038976608
0.039029599
0.039082631
0.039135705
0.039188822
0.03924198
0.039295181
0.039348423
0.039401708
0.039455034
0.039508403
0.039561814
0.039615267
0.039668762
0.039722299
0.039775878
0.039829499
0.039883163
0.039936869
0.039990616
0.040044406
0.040098238
0.040152113
0.040206029
0.040259988
0.040313989
0.040368032
0.040422118
0.040476245
0.040530415
0.040584628
0.040638882
0.040693179
0.040747518
0.040801899
0.040856323
0.040910789
0.040965297
0.041019848
0.041074441
0.041129077
0.041183754
0.041238474
0.041293237
0.041348042
0.041402889
0.041457779
0.041512711
0.041567686
0.041622703
0.041677762
0.041732864
0.041788009
0.041843196
0.041898425
0.041953697
0.042009012
0.042064368
0.042119768
0.04217521
0.042230695
0.042286222
0.042341791
0.042397404
0.042453058
0.042508756
0.042564496
0.042620279
0.042676104
0.042731972
0.042787882
0.042843836
0.042899831
0.04295587
0.043011951
0.043068075
0.043124242
0.043180451
0.043236703
0.043292998
0.043349335
0.043405715
0.043462138
0.043518604
0.043575112
0.043631664
0.043688258
0.043744895
0.043801574
0.043858297
0.043915062
0.04397187
0.044028721
0.044085615
0.044142552
0.044199531
0.044256554
0.044313619
0.044370727
0.044427878
0.044485073
0.04454231
0.044599589
0.044656912
0.044714278
0.044771687
0.044829139
0.044886633
0.044944171
0.045001752
0.045059376
0.045117042
0.045174752
0.045232505
0.045290301
0.04534814
0.045406022
0.045463947
0.045521915
0.045579926
0.045637981
0.045696078
0.045754219
0.045812402
0.045870629
0.045928899
0.045987212
0.046045569
0.046103968
0.046162411
0.046220897
0.046279426
0.046337998
0.046396614
0.046455272
0.046513974
0.04657272
0.046631508
0.04669034
0.046749215
0.046808133
0.046867095
0.0469261
0.046985148
0.047044239
0.047103374
0.047162552
0.047221774
0.047281039
0.047340347
0.047399699
0.047459094
0.047518532
0.047578014
0.047637539
0.047697108
0.04775672
0.047816375
0.047876074
0.047935817
0.047995602
0.048055432
0.048115305
0.048175221
0.048235181
0.048295184
0.048355231
0.048415321
0.048475455
0.048535633
0.048595854
0.048656118
0.048716426
0.048776778
0.048837173
0.048897612
0.048958095
0.049018621
0.049079191
0.049139804
0.049200461
0.049261162
0.049321906
0.049382694
0.049443526
0.049504402
0.049565321
0.049626283
0.04968729
0.04974834
0.049809434
0.049870572
0.049931754
0.049992979
0.050054248
0.050115561
0.050176917
0.050238318
0.050299762
0.05036125
0.050422782
0.050484357
0.050545977
0.05060764
0.050669347
0.050731099
0.050792893
0.050854732
0.050916615
0.050978542
0.051040512
0.051102527
0.051164585
0.051226688
0.051288834
0.051351024
0.051413258
0.051475537
0.051537859
0.051600225
0.051662635
0.051725089
0.051787588
0.05185013
0.051912716
0.051975346
0.052038021
0.052100739
0.052163502
0.052226308
0.052289159
0.052352054
0.052414993
0.052477976
0.052541003
0.052604074
0.05266719
0.052730349
0.052793553
0.052856801
0.052920093
0.052983429
0.05304681
0.053110234
0.053173703
0.053237216
0.053300774
0.053364375
0.053428021
0.053491711
0.053555445
0.053619224
0.053683047
0.053746914
0.053810826
0.053874781
0.053938781
0.054002826
0.054066915
0.054131048
0.054195225
0.054259447
0.054323713
0.054388024
0.054452379
0.054516778
0.054581222
