OpenDRT_v1.0-2.0_full-config_v2/transfer_functions/eotf_st2084_to_linear.spi1d
Version 1
From 0.0 1.2
Length 8192
Components 1
{
0.0
0.0
1e-09
1e-09
2e-09
2e-09
3e-09
4e-09
5e-09
7e-09
8e-09
9e-09
1.1e-08
1.3e-08
1.4e-08
1.6e-08
1.8e-08
2e-08
2.2e-08
2.4e-08
2.6e-08
2.8e-08
3.1e-08
3.3e-08
3.6e-08
3.9e-08
4.1e-08
4.4e-08
4.7e-08
5e-08
5.3e-08
5.6e-08
5.9e-08
6.3e-08
6.6e-08
6.9e-08
7.3e-08
7.7e-08
8e-08
8.4e-08
8.8e-08
9.2e-08
9.6e-08
1e-07
1.04e-07
1.08e-07
1.13e-07
1.17e-07
1.22e-07
1.26e-07
1.31e-07
1.36e-07
1.41e-07
1.45e-07
1.5e-07
1.56e-07
1.61e-07
1.66e-07
1.71e-07
1.77e-07
1.82e-07
1.88e-07
1.94e-07
1.99e-07
2.05e-07
2.11e-07
2.17e-07
2.23e-07
2.29e-07
2.36e-07
2.42e-07
2.48e-07
2.55e-07
2.62e-07
2.68e-07
2.75e-07
2.82e-07
2.89e-07
2.96e-07
3.03e-07
3.1e-07
3.18e-07
3.25e-07
3.32e-07
3.4e-07
3.48e-07
3.55e-07
3.63e-07
3.71e-07
3.79e-07
3.87e-07
3.95e-07
4.04e-07
4.12e-07
4.21e-07
4.29e-07
4.38e-07
4.47e-07
4.55e-07
4.64e-07
4.73e-07
4.82e-07
4.92e-07
5.01e-07
5.1e-07
5.2e-07
5.29e-07
5.39e-07
5.49e-07
5.59e-07
5.68e-07
5.78e-07
5.89e-07
5.99e-07
6.09e-07
6.2e-07
6.3e-07
6.41e-07
6.51e-07
6.62e-07
6.73e-07
6.84e-07
6.95e-07
7.06e-07
7.18e-07
7.29e-07
7.4e-07
7.52e-07
7.64e-07
7.75e-07
7.87e-07
7.99e-07
8.11e-07
8.24e-07
8.36e-07
8.48e-07
8.61e-07
8.73e-07
8.86e-07
8.99e-07
9.12e-07
9.25e-07
9.38e-07
9.51e-07
9.64e-07
9.78e-07
9.91e-07
1.005e-06
1.018e-06
1.032e-06
1.046e-06
1.06e-06
1.074e-06
1.088e-06
1.103e-06
1.117e-06
1.132e-06
1.146e-06
1.161e-06
1.176e-06
1.191e-06
1.206e-06
1.221e-06
1.237e-06
1.252e-06
1.268e-06
1.283e-06
1.299e-06
1.315e-06
1.331e-06
1.347e-06
1.363e-06
1.379e-06
1.396e-06
1.412e-06
1.429e-06
1.446e-06
1.462e-06
1.479e-06
1.496e-06
1.514e-06
1.531e-06
1.548e-06
1.566e-06
1.584e-06
1.601e-06
1.619e-06
1.637e-06
1.655e-06
1.673e-06
1.692e-06
1.71e-06
1.729e-06
1.748e-06
1.766e-06
1.785e-06
1.804e-06
1.823e-06
1.843e-06
1.862e-06
1.882e-06
1.901e-06
1.921e-06
1.941e-06
1.961e-06
1.981e-06
2.001e-06
2.022e-06
2.042e-06
2.063e-06
2.084e-06
2.104e-06
2.125e-06
2.146e-06
2.168e-06
2.189e-06
2.211e-06
2.232e-06
2.254e-06
2.276e-06
2.298e-06
2.32e-06
2.342e-06
2.364e-06
2.387e-06
2.409e-06
2.432e-06
2.455e-06
2.478e-06
2.501e-06
2.524e-06
2.548e-06
2.571e-06
2.595e-06
2.619e-06
2.643e-06
2.667e-06
2.691e-06
2.715e-06
2.74e-06
2.764e-06
2.789e-06
2.814e-06
2.839e-06
2.864e-06
2.889e-06
2.914e-06
2.94e-06
2.966e-06
2.991e-06
3.017e-06
3.043e-06
3.069e-06
3.096e-06
3.122e-06
3.149e-06
3.175e-06
3.202e-06
3.229e-06
3.257e-06
3.284e-06
3.311e-06
3.339e-06
3.366e-06
3.394e-06
3.422e-06
3.45e-06
3.479e-06
3.507e-06
3.536e-06
3.564e-06
3.593e-06
3.622e-06
3.651e-06
3.681e-06
3.71e-06
3.74e-06
3.769e-06
3.799e-06
3.829e-06
3.859e-06
3.889e-06
3.92e-06
3.95e-06
3.981e-06
4.012e-06
4.043e-06
4.074e-06
4.106e-06
4.137e-06
4.169e-06
4.2e-06
4.232e-06
4.264e-06
4.297e-06
4.329e-06
4.362e-06
4.394e-06
4.427e-06
4.46e-06
4.493e-06
4.526e-06
4.56e-06
4.594e-06
4.627e-06
4.661e-06
4.695e-06
4.729e-06
4.764e-06
4.798e-06
4.833e-06
4.868e-06
4.903e-06
4.938e-06
4.973e-06
5.009e-06
5.045e-06
5.08e-06
5.116e-06
5.152e-06
5.189e-06
5.225e-06
5.262e-06
5.299e-06
5.335e-06
5.373e-06
5.41e-06
5.447e-06
5.485e-06
5.523e-06
5.561e-06
5.599e-06
5.637e-06
5.675e-06
5.714e-06
5.753e-06
5.791e-06
5.831e-06
5.87e-06
5.909e-06
5.949e-06
5.989e-06
6.028e-06
6.069e-06
6.109e-06
6.149e-06
6.19e-06
6.231e-06
6.272e-06
6.313e-06
6.354e-06
6.395e-06
6.437e-06
6.479e-06
6.521e-06
6.563e-06
6.605e-06
6.648e-06
6.691e-06
6.733e-06
6.776e-06
6.82e-06
6.863e-06
6.907e-06
6.95e-06
6.994e-06
7.038e-06
7.083e-06
7.127e-06
7.172e-06
7.217e-06
7.262e-06
7.307e-06
7.352e-06
7.398e-06
7.443e-06
7.489e-06
7.535e-06
7.582e-06
7.628e-06
7.675e-06
7.722e-06
7.769e-06
7.816e-06
7.863e-06
7.911e-06
7.959e-06
8.007e-06
8.055e-06
8.103e-06
8.152e-06
8.2e-06
8.249e-06
8.298e-06
8.348e-06
8.397e-06
8.447e-06
8.497e-06
8.547e-06
8.597e-06
8.647e-06
8.698e-06
8.749e-06
8.8e-06
8.851e-06
8.902e-06
8.954e-06
9.006e-06
9.058e-06
9.11e-06
9.162e-06
9.215e-06
9.268e-06
9.321e-06
9.374e-06
9.427e-06
9.481e-06
9.535e-06
9.589e-06
9.643e-06
9.697e-06
9.752e-06
9.807e-06
9.862e-06
9.917e-06
9.972e-06
1.0028e-05
1.0084e-05
1.014e-05
1.0196e-05
1.0252e-05
1.0309e-05
1.0366e-05
1.0423e-05
1.048e-05
1.0538e-05
1.0595e-05
1.0653e-05
1.0711e-05
1.0769e-05
1.0828e-05
1.0887e-05
1.0946e-05
1.1005e-05
1.1064e-05
1.1124e-05
1.1184e-05
1.1244e-05
1.1304e-05
1.1364e-05
1.1425e-05
1.1486e-05
1.1547e-05
1.1608e-05
1.167e-05
1.1731e-05
1.1793e-05
1.1856e-05
1.1918e-05
1.1981e-05
1.2043e-05
1.2106e-05
1.217e-05
1.2233e-05
1.2297e-05
1.2361e-05
1.2425e-05
1.2489e-05
1.2554e-05
1.2619e-05
1.2684e-05
1.2749e-05
1.2815e-05
1.288e-05
1.2946e-05
1.3013e-05
1.3079e-05
1.3146e-05
1.3212e-05
1.328e-05
1.3347e-05
1.3414e-05
1.3482e-05
1.355e-05
1.3619e-05
1.3687e-05
1.3756e-05
1.3825e-05
1.3894e-05
1.3963e-05
1.4033e-05
1.4103e-05
1.4173e-05
1.4243e-05
1.4314e-05
1.4385e-05
1.4456e-05
1.4527e-05
1.4599e-05
1.467e-05
1.4743e-05
1.4815e-05
1.4887e-05
1.496e-05
1.5033e-05
1.5106e-05
1.518e-05
1.5253e-05
1.5327e-05
1.5402e-05
1.5476e-05
1.5551e-05
1.5626e-05
1.5701e-05
1.5776e-05
1.5852e-05
1.5928e-05
1.6004e-05
1.6081e-05
1.6157e-05
1.6234e-05
1.6311e-05
1.6389e-05
1.6466e-05
1.6544e-05
1.6622e-05
1.6701e-05
1.678e-05
1.6859e-05
1.6938e-05
1.7017e-05
1.7097e-05
1.7177e-05
1.7257e-05
1.7337e-05
1.7418e-05
1.7499e-05
1.758e-05
1.7662e-05
1.7744e-05
1.7826e-05
1.7908e-05
1.7991e-05
1.8073e-05
1.8156e-05
1.824e-05
1.8323e-05
1.8407e-05
1.8491e-05
1.8576e-05
1.866e-05
1.8745e-05
1.883e-05
1.8916e-05
1.9002e-05
1.9088e-05
1.9174e-05
1.926e-05
1.9347e-05
1.9434e-05
1.9522e-05
1.9609e-05
1.9697e-05
1.9785e-05
1.9874e-05
1.9962e-05
2.0051e-05
2.014e-05
2.023e-05
2.032e-05
2.041e-05
2.05e-05
2.0591e-05
2.0682e-05
2.0773e-05
2.0864e-05
2.0956e-05
2.1048e-05
2.114e-05
2.1233e-05
2.1326e-05
2.1419e-05
2.1512e-05
2.1606e-05
2.17e-05
2.1794e-05
2.1889e-05
2.1984e-05
2.2079e-05
2.2174e-05
2.227e-05
2.2366e-05
2.2462e-05
2.2559e-05
2.2656e-05
2.2753e-05
2.285e-05
2.2948e-05
2.3046e-05
2.3144e-05
2.3243e-05
2.3342e-05
2.3441e-05
2.3541e-05
2.3641e-05
2.3741e-05
2.3841e-05
2.3942e-05
2.4043e-05
2.4144e-05
2.4245e-05
2.4347e-05
2.445e-05
2.4552e-05
2.4655e-05
2.4758e-05
2.4861e-05
2.4965e-05
2.5069e-05
2.5173e-05
2.5278e-05
2.5383e-05
2.5488e-05
2.5593e-05
2.5699e-05
2.5805e-05
2.5912e-05
2.6019e-05
2.6126e-05
2.6233e-05
2.6341e-05
2.6449e-05
2.6557e-05
2.6666e-05
2.6775e-05
2.6884e-05
2.6993e-05
2.7103e-05
2.7213e-05
2.7324e-05
2.7435e-05
2.7546e-05
2.7657e-05
2.7769e-05
2.7881e-05
2.7994e-05
2.8106e-05
2.8219e-05
2.8333e-05
2.8447e-05
2.8561e-05
2.8675e-05
2.879e-05
2.8905e-05
2.902e-05
2.9136e-05
2.9252e-05
2.9368e-05
2.9484e-05
2.9601e-05
2.9719e-05
2.9836e-05
2.9954e-05
3.0073e-05
3.0191e-05
3.031e-05
3.0429e-05
3.0549e-05
3.0669e-05
3.0789e-05
3.091e-05
3.1031e-05
3.1152e-05
3.1274e-05
3.1396e-05
3.1518e-05
3.1641e-05
3.1764e-05
3.1887e-05
3.2011e-05
3.2135e-05
3.2259e-05
3.2384e-05
3.2509e-05
3.2634e-05
3.276e-05
3.2886e-05
3.3012e-05
3.3139e-05
3.3266e-05
3.3394e-05
3.3521e-05
3.365e-05
3.3778e-05
3.3907e-05
3.4036e-05
3.4166e-05
3.4296e-05
3.4426e-05
3.4557e-05
3.4688e-05
3.4819e-05
3.4951e-05
3.5083e-05
3.5215e-05
3.5348e-05
3.5481e-05
3.5615e-05
3.5748e-05
3.5883e-05
3.6017e-05
3.6152e-05
3.6287e-05
3.6423e-05
3.6559e-05
3.6696e-05
3.6832e-05
3.6969e-05
3.7107e-05
3.7245e-05
3.7383e-05
3.7522e-05
3.7661e-05
3.78e-05
3.794e-05
3.808e-05
3.822e-05
3.8361e-05
3.8502e-05
3.8644e-05
3.8786e-05
3.8928e-05
3.9071e-05
3.9214e-05
3.9358e-05
3.9501e-05
3.9646e-05
3.979e-05
3.9935e-05
4.0081e-05
4.0226e-05
4.0372e-05
4.0519e-05
4.0666e-05
4.0813e-05
4.0961e-05
4.1109e-05
4.1257e-05
4.1406e-05
4.1556e-05
4.1705e-05
4.1855e-05
4.2006e-05
4.2156e-05
4.2308e-05
4.2459e-05
4.2611e-05
4.2763e-05
4.2916e-05
4.3069e-05
4.3223e-05
4.3377e-05
4.3531e-05
4.3686e-05
4.3841e-05
4.3997e-05
4.4153e-05
4.4309e-05
4.4466e-05
4.4623e-05
4.4781e-05
4.4939e-05
4.5097e-05
4.5256e-05
4.5415e-05
4.5575e-05
4.5735e-05
4.5895e-05
4.6056e-05
4.6217e-05
4.6379e-05
4.6541e-05
4.6703e-05
4.6866e-05
4.703e-05
4.7193e-05
4.7357e-05
4.7522e-05
4.7687e-05
4.7852e-05
4.8018e-05
4.8184e-05
4.8351e-05
4.8518e-05
4.8686e-05
4.8854e-05
4.9022e-05
4.9191e-05
4.936e-05
4.953e-05
4.97e-05
4.987e-05
5.0041e-05
5.0212e-05
5.0384e-05
5.0556e-05
5.0729e-05
5.0902e-05
5.1076e-05
5.125e-05
5.1424e-05
5.1599e-05
5.1774e-05
5.195e-05
5.2126e-05
5.2302e-05
5.2479e-05
5.2657e-05
5.2835e-05
5.3013e-05
5.3192e-05
5.3371e-05
5.3551e-05
5.3731e-05
5.3911e-05
5.4092e-05
5.4274e-05
5.4456e-05
5.4638e-05
5.4821e-05
5.5004e-05
5.5188e-05
5.5372e-05
5.5556e-05
5.5741e-05
5.5927e-05
5.6113e-05
5.6299e-05
5.6486e-05
5.6673e-05
5.6861e-05
5.7049e-05
5.7238e-05
5.7427e-05
5.7617e-05
5.7807e-05
5.7998e-05
5.8189e-05
5.838e-05
5.8572e-05
5.8764e-05
5.8957e-05
5.9151e-05
5.9345e-05
5.9539e-05
5.9734e-05
5.9929e-05
6.0125e-05
6.0321e-05
6.0517e-05
6.0715e-05
6.0912e-05
6.111e-05
6.1309e-05
6.1508e-05
6.1707e-05
6.1907e-05
6.2108e-05
6.2309e-05
6.251e-05
6.2712e-05
6.2915e-05
6.3118e-05
6.3321e-05
6.3525e-05
6.3729e-05
6.3934e-05
6.4139e-05
6.4345e-05
6.4551e-05
6.4758e-05
6.4966e-05
6.5173e-05
6.5382e-05
6.5591e-05
6.58e-05
6.601e-05
6.622e-05
6.6431e-05
6.6642e-05
6.6854e-05
6.7066e-05
6.7279e-05
6.7492e-05
6.7706e-05
6.792e-05
6.8135e-05
6.835e-05
6.8566e-05
6.8783e-05
6.8999e-05
6.9217e-05
6.9435e-05
6.9653e-05
6.9872e-05
7.0091e-05
7.0311e-05
7.0532e-05
7.0753e-05
7.0974e-05
7.1196e-05
7.1419e-05
7.1642e-05
7.1865e-05
7.2089e-05
7.2314e-05
7.2539e-05
7.2765e-05
7.2991e-05
7.3218e-05
7.3445e-05
7.3673e-05
7.3901e-05
7.413e-05
7.4359e-05
7.4589e-05
7.4819e-05
7.505e-05
7.5282e-05
7.5514e-05
7.5746e-05
7.598e-05
7.6213e-05
7.6447e-05
7.6682e-05
7.6917e-05
7.7153e-05
7.739e-05
7.7626e-05
7.7864e-05
7.8102e-05
7.834e-05
7.8579e-05
7.8819e-05
7.9059e-05
7.93e-05
7.9541e-05
7.9783e-05
8.0026e-05
8.0268e-05
8.0512e-05
8.0756e-05
8.1001e-05
8.1246e-05
8.1492e-05
8.1738e-05
8.1985e-05
8.2232e-05
8.248e-05
8.2729e-05
8.2978e-05
8.3227e-05
8.3478e-05
8.3729e-05
8.398e-05
8.4232e-05
8.4484e-05
8.4738e-05
8.4991e-05
8.5245e-05
8.55e-05
8.5756e-05
8.6012e-05
8.6268e-05
8.6525e-05
8.6783e-05
8.7041e-05
8.73e-05
8.756e-05
8.782e-05
8.808e-05
8.8342e-05
8.8603e-05
8.8866e-05
8.9129e-05
8.9392e-05
8.9656e-05
8.9921e-05
9.0187e-05
9.0452e-05
9.0719e-05
9.0986e-05
9.1254e-05
9.1522e-05
9.1791e-05
9.2061e-05
9.2331e-05
9.2601e-05
9.2873e-05
9.3145e-05
9.3417e-05
9.369e-05
9.3964e-05
9.4239e-05
9.4514e-05
9.4789e-05
9.5065e-05
9.5342e-05
9.562e-05
9.5898e-05
9.6176e-05
9.6455e-05
9.6735e-05
9.7016e-05
9.7297e-05
9.7579e-05
9.7861e-05
9.8144e-05
9.8428e-05
9.8712e-05
9.8997e-05
9.9282e-05
9.9568e-05
9.9855e-05
0.000100142
0.00010043
0.000100719
0.000101008
0.000101298
0.000101589
0.00010188
0.000102172
0.000102464
0.000102757
0.000103051
0.000103345
0.00010364
0.000103936
0.000104232
0.000104529
0.000104827
0.000105125
0.000105424
0.000105724
0.000106024
0.000106325
0.000106626
0.000106928
0.000107231
0.000107535
0.000107839
0.000108144
0.000108449
0.000108755
0.000109062
0.000109369
0.000109677
0.000109986
0.000110296
0.000110606
0.000110917
0.000111228
0.00011154
0.000111853
0.000112166
0.00011248
0.000112795
0.000113111
0.000113427
0.000113744
0.000114061
0.00011438
0.000114698
0.000115018
0.000115338
0.000115659
0.000115981
0.000116303
0.000116626
0.00011695
0.000117274
0.000117599
0.000117925
0.000118252
0.000118579
0.000118907
0.000119235
0.000119564
0.000119894
0.000120225
0.000120556
0.000120888
0.000121221
0.000121555
0.000121889
0.000122224
0.000122559
0.000122896
0.000123233
0.000123571
0.000123909
0.000124248
0.000124588
0.000124929
0.00012527
0.000125612
0.000125955
0.000126298
0.000126643
0.000126987
0.000127333
0.00012768
0.000128027
0.000128375
0.000128723
0.000129072
0.000129423
0.000129773
0.000130125
0.000130477
0.00013083
0.000131184
0.000131538
0.000131894
0.00013225
0.000132606
0.000132964
0.000133322
0.000133681
0.000134041
0.000134401
0.000134762
0.000135124
0.000135487
0.00013585
0.000136215
0.00013658
0.000136945
0.000137312
0.000137679
0.000138047
0.000138416
0.000138786
0.000139156
0.000139527
0.000139899
0.000140271
0.000140645
0.000141019
0.000141394
0.00014177
0.000142146
0.000142523
0.000142902
0.00014328
0.00014366
0.00014404
0.000144422
0.000144804
0.000145186
0.00014557
0.000145954
0.000146339
0.000146725
0.000147112
0.000147499
0.000147888
0.000148277
0.000148667
0.000149058
0.000149449
0.000149841
0.000150234
0.000150628
0.000151023
0.000151419
0.000151815
0.000152212
0.00015261
0.000153009
0.000153408
0.000153809
0.00015421
0.000154612
0.000155015
0.000155419
0.000155823
0.000156228
0.000156634
0.000157041
0.000157449
0.000157858
0.000158267
0.000158678
0.000159089
0.000159501
0.000159913
0.000160327
0.000160741
0.000161157
0.000161573
0.00016199
0.000162408
0.000162826
0.000163246
0.000163666
0.000164087
0.00016451
0.000164932
0.000165356
0.000165781
0.000166206
0.000166633
0.00016706
0.000167488
0.000167917
0.000168346
0.000168777
0.000169209
0.000169641
0.000170074
0.000170508
0.000170943
0.000171379
0.000171816
0.000172253
0.000172692
0.000173131
0.000173571
0.000174013
0.000174455
0.000174897
0.000175341
0.000175786
0.000176231
0.000176678
0.000177125
0.000177573
0.000178022
0.000178472
0.000178923
0.000179375
0.000179828
0.000180281
0.000180736
0.000181191
0.000181647
0.000182104
0.000182563
0.000183022
0.000183481
0.000183942
0.000184404
0.000184867
0.00018533
0.000185795
0.00018626
0.000186726
0.000187194
0.000187662
0.000188131
0.000188601
0.000189072
0.000189544
0.000190017
0.00019049
0.000190965
0.000191441
0.000191917
0.000192395
0.000192873
0.000193352
0.000193833
0.000194314
0.000194796
0.000195279
0.000195763
0.000196248
0.000196734
0.000197221
0.000197709
0.000198198
0.000198688
0.000199179
0.00019967
0.000200163
0.000200657
0.000201151
0.000201647
0.000202143
0.000202641
0.000203139
0.000203639
0.000204139
0.000204641
0.000205143
0.000205646
0.000206151
0.000206656
0.000207162
0.00020767
0.000208178
0.000208687
0.000209197
0.000209709
0.000210221
0.000210734
0.000211248
0.000211764
0.00021228
0.000212797
0.000213315
0.000213834
0.000214355
0.000214876
0.000215398
0.000215921
0.000216446
0.000216971
0.000217497
0.000218024
0.000218553
0.000219082
0.000219612
0.000220144
0.000220676
0.00022121
0.000221744
0.00022228
0.000222816
0.000223354
0.000223892
0.000224432
0.000224973
0.000225514
0.000226057
0.000226601
0.000227146
0.000227691
0.000228238
0.000228786
0.000229335
0.000229885
0.000230436
0.000230989
0.000231542
0.000232096
0.000232651
0.000233208
0.000233765
0.000234324
0.000234883
0.000235444
0.000236006
0.000236569
0.000237132
0.000237697
0.000238263
0.00023883
0.000239399
0.000239968
0.000240538
0.00024111
0.000241682
0.000242256
0.00024283
0.000243406
0.000243983
0.000244561
0.00024514
0.00024572
0.000246302
0.000246884
0.000247467
0.000248052
0.000248638
0.000249224
0.000249812
0.000250401
0.000250991
0.000251583
0.000252175
0.000252768
0.000253363
0.000253959
0.000254555
0.000255153
0.000255752
0.000256353
0.000256954
0.000257556
0.00025816
0.000258765
0.000259371
0.000259978
0.000260586
0.000261195
0.000261806
0.000262417
0.00026303
0.000263644
0.000264259
0.000264875
0.000265492
0.000266111
0.00026673
0.000267351
0.000267973
0.000268596
0.000269221
0.000269846
0.000270473
0.000271101
0.00027173
0.00027236
0.000272991
0.000273624
0.000274257
0.000274892
0.000275528
0.000276165
0.000276804
0.000277443
0.000278084
0.000278726
0.000279369
0.000280014
0.000280659
0.000281306
0.000281954
0.000282603
0.000283254
0.000283905
0.000284558
0.000285212
0.000285867
0.000286524
0.000287182
0.00028784
0.000288501
0.000289162
0.000289824
0.000290488
0.000291153
0.000291819
0.000292487
0.000293156
0.000293826
0.000294497
0.000295169
0.000295843
0.000296518
0.000297194
0.000297871
0.00029855
0.00029923
0.000299911
0.000300593
0.000301277
0.000301962
0.000302648
0.000303335
0.000304024
0.000304714
0.000305405
0.000306098
0.000306791
0.000307486
0.000308183
0.00030888
0.000309579
0.000310279
0.000310981
0.000311683
0.000312387
0.000313093
0.000313799
0.000314507
0.000315216
0.000315927
0.000316639
0.000317352
0.000318066
0.000318782
0.000319499
0.000320217
0.000320936
0.000321657
0.00032238
0.000323103
0.000323828
0.000324554
0.000325282
0.00032601
0.000326741
0.000327472
0.000328205
0.000328939
0.000329674
0.000330411
0.000331149
0.000331889
0.00033263
0.000333372
0.000334115
0.00033486
0.000335606
0.000336354
0.000337103
0.000337853
0.000338605
0.000339358
0.000340112
0.000340868
0.000341625
0.000342383
0.000343143
0.000343904
0.000344667
0.000345431
0.000346196
0.000346963
0.000347731
0.0003485
0.000349271
0.000350044
0.000350817
0.000351592
0.000352369
0.000353147
0.000353926
0.000354706
0.000355488
0.000356272
0.000357057
0.000357843
0.000358631
0.00035942
0.00036021
0.000361002
0.000361795
0.00036259
0.000363386
0.000364184
0.000364983
0.000365784
0.000366585
0.000367389
0.000368194
0.000369
0.000369808
0.000370617
0.000371427
0.000372239
0.000373053
0.000373868
0.000374684
0.000375502
0.000376321
0.000377142
0.000377964
0.000378788
0.000379613
0.000380439
0.000381268
0.000382097
0.000382928
0.000383761
0.000384595
0.00038543
0.000386267
0.000387106
0.000387946
0.000388787
0.00038963
0.000390474
0.00039132
0.000392168
0.000393017
0.000393867
0.000394719
0.000395572
0.000396427
0.000397284
0.000398142
0.000399001
0.000399863
0.000400725
0.000401589
0.000402455
0.000403322
0.000404191
0.000405061
0.000405933
0.000406806
0.000407681
0.000408557
0.000409435
0.000410315
0.000411196
0.000412078
0.000412962
0.000413848
0.000414735
0.000415624
0.000416515
0.000417407
0.0004183
0.000419195
0.000420092
0.00042099
0.00042189
0.000422791
0.000423694
0.000424599
0.000425505
0.000426413
0.000427322
0.000428233
0.000429146
0.00043006
0.000430976
0.000431893
0.000432812
0.000433733
0.000434655
0.000435579
0.000436504
0.000437431
0.00043836
0.00043929
0.000440222
0.000441155
0.000442091
0.000443027
0.000443966
0.000444906
0.000445848
0.000446791
0.000447736
0.000448683
0.000449631
0.000450581
0.000451533
0.000452486
0.000453441
0.000454397
0.000455356
0.000456316
0.000457277
0.00045824
0.000459205
0.000460172
0.00046114
0.00046211
0.000463082
0.000464055
0.00046503
0.000466007
0.000466986
0.000467966
0.000468948
0.000469931
0.000470916
0.000471903
0.000472892
0.000473882
0.000474874
0.000475868
0.000476864
0.000477861
0.00047886
0.000479861
0.000480863
0.000481867
0.000482873
0.000483881
0.00048489
0.000485901
0.000486914
0.000487929
0.000488945
0.000489963
0.000490983
0.000492005
0.000493028
0.000494053
0.00049508
0.000496109
0.000497139
0.000498172
0.000499206
0.000500241
0.000501279
0.000502318
0.000503359
0.000504402
0.000505447
0.000506494
0.000507542
0.000508592
0.000509644
0.000510698
0.000511753
0.000512811
0.00051387
0.000514931
0.000515994
0.000517058
0.000518125
0.000519193
0.000520263
0.000521335
0.000522409
0.000523484
0.000524562
0.000525641
0.000526722
0.000527805
0.00052889
0.000529976
0.000531065
0.000532155
0.000533248
0.000534342
0.000535438
0.000536535
0.000537635
0.000538737
0.00053984
0.000540946
0.000542053
0.000543162
0.000544273
0.000545386
0.000546501
0.000547617
0.000548736
0.000549856
0.000550979
0.000552103
0.000553229
0.000554357
0.000555487
0.000556619
0.000557753
0.000558889
0.000560027
0.000561166
0.000562308
0.000563452
0.000564597
0.000565744
0.000566894
0.000568045
0.000569198
0.000570354
0.000571511
0.00057267
0.000573831
0.000574994
0.000576159
0.000577326
0.000578495
0.000579666
0.000580839
0.000582014
0.00058319
0.000584369
0.00058555
0.000586733
0.000587918
0.000589105
0.000590294
0.000591484
0.000592677
0.000593872
0.000595069
0.000596268
0.000597469
0.000598672
0.000599877
0.000601084
0.000602293
0.000603504
0.000604717
0.000605932
0.000607149
0.000608368
0.000609589
0.000610813
0.000612038
0.000613265
0.000614495
0.000615726
0.00061696
0.000618196
0.000619433
0.000620673
0.000621915
0.000623159
0.000624405
0.000625653
0.000626903
0.000628156
0.00062941
0.000630667
0.000631925
0.000633186
0.000634449
0.000635714
0.000636981
0.00063825
0.000639521
0.000640795
0.00064207
0.000643348
0.000644628
0.00064591
0.000647194
0.00064848
0.000649768
0.000651059
0.000652352
0.000653646
0.000654943
0.000656242
0.000657544
0.000658847
0.000660153
0.000661461
0.000662771
0.000664083
0.000665397
0.000666714
0.000668032
0.000669353
0.000670676
0.000672002
0.000673329
0.000674659
0.000675991
0.000677325
0.000678661
0.00068
0.00068134
0.000682683
0.000684029
0.000685376
0.000686726
0.000688078
0.000689432
0.000690788
0.000692147
0.000693508
0.000694871
0.000696236
0.000697604
0.000698974
0.000700346
0.00070172
0.000703097
0.000704476
0.000705857
0.000707241
0.000708627
0.000710015
0.000711405
0.000712798
0.000714193
0.00071559
0.00071699
0.000718392
0.000719796
0.000721202
0.000722611
0.000724022
0.000725436
0.000726852
0.00072827
0.00072969
0.000731113
0.000732538
0.000733966
0.000735396
0.000736828
0.000738262
0.000739699
0.000741139
0.00074258
0.000744024
0.000745471
0.000746919
0.00074837
0.000749824
0.00075128
0.000752738
0.000754199
0.000755662
0.000757127
0.000758595
0.000760065
0.000761538
0.000763013
0.000764491
0.000765971
0.000767453
0.000768938
0.000770425
0.000771914
0.000773407
0.000774901
0.000776398
0.000777897
0.000779399
0.000780903
0.00078241
0.000783919
0.000785431
0.000786945
0.000788462
0.000789981
0.000791502
0.000793026
0.000794553
0.000796082
0.000797613
0.000799147
0.000800684
0.000802223
0.000803764
0.000805308
0.000806855
0.000808404
0.000809955
0.00081151
0.000813066
0.000814625
0.000816187
0.000817751
0.000819318
0.000820887
0.000822459
0.000824033
0.00082561
0.00082719
0.000828772
0.000830356
0.000831944
0.000833533
0.000835126
0.000836721
0.000838318
0.000839918
0.000841521
0.000843126
0.000844734
0.000846345
0.000847958
0.000849574
0.000851192
0.000852813
0.000854436
0.000856063
0.000857691
0.000859323
0.000860957
0.000862594
0.000864233
0.000865875
0.00086752
0.000869167
0.000870817
0.00087247
0.000874125
0.000875783
0.000877444
0.000879107
0.000880773
0.000882442
0.000884113
0.000885787
0.000887464
0.000889144
0.000890826
0.000892511
0.000894198
0.000895889
0.000897582
0.000899277
0.000900976
0.000902677
0.000904381
0.000906088
0.000907797
0.000909509
0.000911224
0.000912942
0.000914662
0.000916386
0.000918112
0.00091984
0.000921572
0.000923306
0.000925043
0.000926783
0.000928526
0.000930271
0.00093202
0.000933771
0.000935524
0.000937281
0.000939041
0.000940803
0.000942568
0.000944336
0.000946107
0.00094788
0.000949657
0.000951436
0.000953218
0.000955003
0.000956791
0.000958582
0.000960375
0.000962171
0.000963971
0.000965773
0.000967578
0.000969386
0.000971197
0.00097301
0.000974827
0.000976646
0.000978469
0.000980294
0.000982122
0.000983953
0.000985787
0.000987624
0.000989464
0.000991307
0.000993153
0.000995001
0.000996853
0.000998707
0.001000565
0.001002425
0.001004289
0.001006155
0.001008024
0.001009897
0.001011772
0.00101365
0.001015532
0.001017416
0.001019303
0.001021193
0.001023087
0.001024983
0.001026882
0.001028784
0.00103069
0.001032598
0.001034509
0.001036424
0.001038341
0.001040261
0.001042185
0.001044111
0.001046041
0.001047974
0.001049909
0.001051848
0.00105379
0.001055735
0.001057683
0.001059634
0.001061588
0.001063545
0.001065505
0.001067469
0.001069435
0.001071405
0.001073378
0.001075353
0.001077332
0.001079314
0.0010813
0.001083288
0.00108528
0.001087274
0.001089272
0.001091273
0.001093277
0.001095284
0.001097295
0.001099308
0.001101325
0.001103345
0.001105368
0.001107394
0.001109424
0.001111456
0.001113492
0.001115531
0.001117574
0.001119619
0.001121668
0.00112372
0.001125775
0.001127833
0.001129895
0.00113196
0.001134028
0.001136099
0.001138174
0.001140252
0.001142333
0.001144418
0.001146505
0.001148596
0.00115069
0.001152788
0.001154889
0.001156993
0.0011591
0.001161211
0.001163325
0.001165442
0.001167563
0.001169687
0.001171814
0.001173945
0.001176079
0.001178216
0.001180357
0.001182501
0.001184648
0.001186799
0.001188953
0.00119111
0.001193271
0.001195435
0.001197603
0.001199774
0.001201948
0.001204126
0.001206307
0.001208492
0.00121068
0.001212871
0.001215066
0.001217264
