OpenDRT_v1.0-2.0_full-config_v2/transfer_functions/eotf_gamma26_to_linear.spi1d
Version 1
From 0.0 1.2
Length 8192
Components 1
{
0.0
0.0
1e-09
2e-09
4e-09
7e-09
1.1e-08
1.7e-08
2.4e-08
3.3e-08
4.3e-08
5.5e-08
6.9e-08
8.5e-08
1.03e-07
1.23e-07
1.45e-07
1.7e-07
1.97e-07
2.27e-07
2.59e-07
2.94e-07
3.32e-07
3.73e-07
4.17e-07
4.63e-07
5.13e-07
5.66e-07
6.22e-07
6.81e-07
7.44e-07
8.1e-07
8.8e-07
9.54e-07
1.03e-06
1.111e-06
1.196e-06
1.284e-06
1.376e-06
1.472e-06
1.572e-06
1.677e-06
1.785e-06
1.898e-06
2.015e-06
2.136e-06
2.261e-06
2.391e-06
2.526e-06
2.665e-06
2.809e-06
2.957e-06
3.11e-06
3.268e-06
3.431e-06
3.599e-06
3.771e-06
3.949e-06
4.132e-06
4.319e-06
4.512e-06
4.71e-06
4.914e-06
5.122e-06
5.337e-06
5.556e-06
5.781e-06
6.012e-06
6.248e-06
6.489e-06
6.737e-06
6.99e-06
7.249e-06
7.513e-06
7.784e-06
8.06e-06
8.343e-06
8.631e-06
8.926e-06
9.226e-06
9.533e-06
9.846e-06
1.0165e-05
1.0491e-05
1.0822e-05
1.1161e-05
1.1505e-05
1.1856e-05
1.2214e-05
1.2578e-05
1.2949e-05
1.3326e-05
1.371e-05
1.4101e-05
1.4499e-05
1.4903e-05
1.5314e-05
1.5733e-05
1.6158e-05
1.659e-05
1.7029e-05
1.7476e-05
1.7929e-05
1.839e-05
1.8857e-05
1.9332e-05
1.9815e-05
2.0305e-05
2.0802e-05
2.1306e-05
2.1818e-05
2.2338e-05
2.2865e-05
2.3399e-05
2.3941e-05
2.4491e-05
2.5049e-05
2.5614e-05
2.6187e-05
2.6768e-05
2.7357e-05
2.7954e-05
2.8558e-05
2.9171e-05
2.9791e-05
3.042e-05
3.1057e-05
3.1702e-05
3.2355e-05
3.3016e-05
3.3686e-05
3.4364e-05
3.505e-05
3.5745e-05
3.6447e-05
3.7159e-05
3.7879e-05
3.8607e-05
3.9344e-05
4.009e-05
4.0844e-05
4.1607e-05
4.2378e-05
4.3159e-05
4.3948e-05
4.4746e-05
4.5553e-05
4.6368e-05
4.7193e-05
4.8026e-05
4.8869e-05
4.972e-05
5.0581e-05
5.1451e-05
5.233e-05
5.3218e-05
5.4115e-05
5.5022e-05
5.5938e-05
5.6863e-05
5.7797e-05
5.8741e-05
5.9694e-05
6.0657e-05
6.163e-05
6.2611e-05
6.3603e-05
6.4604e-05
6.5614e-05
6.6635e-05
6.7665e-05
6.8704e-05
6.9754e-05
7.0813e-05
7.1883e-05
7.2962e-05
7.4051e-05
7.5149e-05
7.6258e-05
7.7377e-05
7.8506e-05
7.9645e-05
8.0794e-05
8.1954e-05
8.3123e-05
8.4303e-05
8.5493e-05
8.6693e-05
8.7903e-05
8.9124e-05
9.0356e-05
9.1597e-05
9.2849e-05
9.4112e-05
9.5385e-05
9.6669e-05
9.7963e-05
9.9268e-05
0.000100583
0.000101909
0.000103246
0.000104594
0.000105952
0.000107321
0.000108701
0.000110092
0.000111494
0.000112906
0.00011433
0.000115765
0.00011721
0.000118667
0.000120135
0.000121614
0.000123104
0.000124605
0.000126117
0.000127641
0.000129176
0.000130722
0.00013228
0.000133849
0.000135429
0.000137021
0.000138625
0.000140239
0.000141866
0.000143503
0.000145153
0.000146814
0.000148487
0.000150171
0.000151867
0.000153575
0.000155295
0.000157026
0.000158769
0.000160524
0.000162291
0.00016407
0.000165861
0.000167664
0.000169479
0.000171306
0.000173145
0.000174996
0.000176859
0.000178734
0.000180622
0.000182521
0.000184433
0.000186358
0.000188294
0.000190243
0.000192204
0.000194178
0.000196164
0.000198162
0.000200173
0.000202197
0.000204233
0.000206282
0.000208343
0.000210417
0.000212503
0.000214602
0.000216714
0.000218839
0.000220976
0.000223127
0.00022529
0.000227465
0.000229654
0.000231856
0.000234071
0.000236298
0.000238539
0.000240792
0.000243059
0.000245339
0.000247632
0.000249938
0.000252257
0.000254589
0.000256935
0.000259294
0.000261666
0.000264051
0.00026645
0.000268862
0.000271288
0.000273727
0.000276179
0.000278645
0.000281124
0.000283617
0.000286124
0.000288644
0.000291177
0.000293725
0.000296286
0.00029886
0.000301449
0.000304051
0.000306667
0.000309296
0.00031194
0.000314597
0.000317269
0.000319954
0.000322653
0.000325366
0.000328093
0.000330834
0.000333589
0.000336359
0.000339142
0.00034194
0.000344751
0.000347577
0.000350417
0.000353271
0.00035614
0.000359023
0.00036192
0.000364831
0.000367757
0.000370697
0.000373652
0.000376621
0.000379605
0.000382603
0.000385615
0.000388642
0.000391684
0.000394741
0.000397812
0.000400897
0.000403997
0.000407113
0.000410242
0.000413387
0.000416546
0.00041972
0.000422909
0.000426113
0.000429332
0.000432565
0.000435814
0.000439078
0.000442356
0.00044565
0.000448958
0.000452282
0.000455621
0.000458975
0.000462344
0.000465728
0.000469128
0.000472542
0.000475972
0.000479418
0.000482878
0.000486354
0.000489845
0.000493352
0.000496874
0.000500411
0.000503964
0.000507532
0.000511116
0.000514716
0.000518331
0.000521961
0.000525607
0.000529269
0.000532947
0.00053664
0.000540348
0.000544073
0.000547813
0.000551569
0.000555341
0.000559129
0.000562933
0.000566752
0.000570587
0.000574439
0.000578306
0.000582189
0.000586089
0.000590004
0.000593935
0.000597883
0.000601846
0.000605826
0.000609821
0.000613833
0.000617862
0.000621906
0.000625967
0.000630044
0.000634137
0.000638246
0.000642372
0.000646515
0.000650673
0.000654848
0.00065904
0.000663248
0.000667472
0.000671713
0.000675971
0.000680245
0.000684536
0.000688843
0.000693167
0.000697508
0.000701865
0.000706239
0.00071063
0.000715037
0.000719462
0.000723903
0.000728361
0.000732835
0.000737327
0.000741836
0.000746361
0.000750904
0.000755463
0.000760039
0.000764633
0.000769243
0.000773871
0.000778516
0.000783177
0.000787856
0.000792552
0.000797266
0.000801996
0.000806744
0.000811509
0.000816291
0.00082109
0.000825907
0.000830741
0.000835593
0.000840462
0.000845348
0.000850252
0.000855174
0.000860112
0.000865069
0.000870042
0.000875034
0.000880043
0.000885069
0.000890114
0.000895176
0.000900255
0.000905352
0.000910467
0.0009156
0.000920751
0.000925919
0.000931105
0.000936309
0.000941531
0.00094677
0.000952028
0.000957303
0.000962597
0.000967908
0.000973238
0.000978585
0.000983951
0.000989334
0.000994736
0.001000156
0.001005593
0.00101105
0.001016524
0.001022016
0.001027527
0.001033056
0.001038603
0.001044168
0.001049752
0.001055354
0.001060975
0.001066614
0.001072271
0.001077947
0.001083641
0.001089353
0.001095084
0.001100834
0.001106602
0.001112389
0.001118194
0.001124018
0.001129861
0.001135722
0.001141602
0.0011475
0.001153418
0.001159354
0.001165308
0.001171282
0.001177274
0.001183286
0.001189316
0.001195365
0.001201432
0.001207519
0.001213625
0.001219749
0.001225893
0.001232056
0.001238237
0.001244438
0.001250658
0.001256897
0.001263155
0.001269432
0.001275728
0.001282044
0.001288378
0.001294732
0.001301105
0.001307498
0.00131391
0.001320341
0.001326791
0.001333261
0.00133975
0.001346258
0.001352786
0.001359334
0.0013659
0.001372487
0.001379092
0.001385718
0.001392363
0.001399027
0.001405711
0.001412415
0.001419138
0.001425881
0.001432644
0.001439426
0.001446228
0.00145305
0.001459892
0.001466753
0.001473634
0.001480535
0.001487456
0.001494397
0.001501357
0.001508338
0.001515338
0.001522359
0.001529399
0.00153646
0.00154354
0.001550641
0.001557761
0.001564902
0.001572063
0.001579244
0.001586445
0.001593666
0.001600907
0.001608169
0.001615451
0.001622753
0.001630075
0.001637418
0.001644781
0.001652164
0.001659568
0.001666992
0.001674436
0.001681901
0.001689387
0.001696892
0.001704419
0.001711965
0.001719533
0.001727121
0.001734729
0.001742358
0.001750008
0.001757678
0.001765369
0.001773081
0.001780813
0.001788566
0.00179634
0.001804134
0.00181195
0.001819786
0.001827643
0.00183552
0.001843419
0.001851338
0.001859279
0.00186724
0.001875222
0.001883226
0.00189125
0.001899295
0.001907361
0.001915449
0.001923557
0.001931687
0.001939837
0.001948009
0.001956202
0.001964416
0.001972651
0.001980907
0.001989185
0.001997484
0.002005804
0.002014145
0.002022508
0.002030892
0.002039298
0.002047725
0.002056173
0.002064643
0.002073134
0.002081646
0.00209018
0.002098736
0.002107313
0.002115911
0.002124531
0.002133173
0.002141836
0.002150521
0.002159228
0.002167956
0.002176706
0.002185478
0.002194271
0.002203086
0.002211923
0.002220781
0.002229662
0.002238564
0.002247488
0.002256434
0.002265402
0.002274391
0.002283403
0.002292436
0.002301492
0.002310569
0.002319669
0.00232879
0.002337934
0.0023471
0.002356287
0.002365497
0.002374729
0.002383983
0.002393259
0.002402557
0.002411878
0.002421221
0.002430586
0.002439973
0.002449383
0.002458815
0.002468269
0.002477745
0.002487244
0.002496765
0.002506309
0.002515875
0.002525464
0.002535074
0.002544708
0.002554364
0.002564042
0.002573743
0.002583467
0.002593213
0.002602981
0.002612773
0.002622587
0.002632423
0.002642283
0.002652164
0.002662069
0.002671997
0.002681947
0.00269192
0.002701915
0.002711934
0.002721975
0.002732039
0.002742126
0.002752236
0.002762369
0.002772525
0.002782704
0.002792905
0.00280313
0.002813378
0.002823648
0.002833942
0.002844259
0.002854599
0.002864961
0.002875348
0.002885757
0.002896189
0.002906645
0.002917123
0.002927625
0.002938151
0.002948699
0.002959271
0.002969866
0.002980484
0.002991126
0.003001791
0.003012479
0.003023191
0.003033926
0.003044685
0.003055467
0.003066272
0.003077101
0.003087954
0.00309883
0.003109729
0.003120652
0.003131599
0.003142569
0.003153563
0.003164581
0.003175622
0.003186687
0.003197775
0.003208888
0.003220024
0.003231183
0.003242367
0.003253574
0.003264805
0.00327606
0.003287339
0.003298642
0.003309968
0.003321319
0.003332693
0.003344092
0.003355514
0.00336696
0.00337843
0.003389925
0.003401443
0.003412985
0.003424552
0.003436142
0.003447757
0.003459395
0.003471058
0.003482745
0.003494457
0.003506192
0.003517952
0.003529736
0.003541544
0.003553376
0.003565233
0.003577114
0.003589019
0.003600949
0.003612903
0.003624882
0.003636885
0.003648912
0.003660964
0.00367304
0.003685141
0.003697266
0.003709416
0.00372159
0.003733789
0.003746012
0.00375826
0.003770533
0.00378283
0.003795152
0.003807499
0.00381987
0.003832266
0.003844687
0.003857132
0.003869602
0.003882097
0.003894617
0.003907162
0.003919731
0.003932325
0.003944945
0.003957589
0.003970258
0.003982951
0.00399567
0.004008414
0.004021183
0.004033977
0.004046795
0.004059639
0.004072508
0.004085402
0.004098321
0.004111265
0.004124235
0.004137229
0.004150249
0.004163293
0.004176363
0.004189459
0.004202579
0.004215725
0.004228896
0.004242092
0.004255313
0.00426856
0.004281833
0.00429513
0.004308453
0.004321802
0.004335175
0.004348575
0.004361999
0.004375449
0.004388925
0.004402426
0.004415953
0.004429505
0.004443083
0.004456687
0.004470316
0.00448397
0.00449765
0.004511356
0.004525088
0.004538845
0.004552628
0.004566437
0.004580271
0.004594132
0.004608018
0.004621929
0.004635867
0.00464983
0.00466382
0.004677835
0.004691876
0.004705943
0.004720036
0.004734155
0.004748299
0.00476247
0.004776667
0.00479089
0.004805138
0.004819413
0.004833714
0.004848041
0.004862394
0.004876774
0.004891179
0.00490561
0.004920068
0.004934552
0.004949062
0.004963598
0.004978161
0.00499275
0.005007365
0.005022006
0.005036674
0.005051368
0.005066089
0.005080835
0.005095609
0.005110408
0.005125234
0.005140087
0.005154965
0.005169871
0.005184803
0.005199761
0.005214746
0.005229757
0.005244795
0.00525986
0.005274951
0.005290069
0.005305213
0.005320384
0.005335582
0.005350807
0.005366058
0.005381336
0.00539664
0.005411972
0.00542733
0.005442715
0.005458126
0.005473565
0.00548903
0.005504523
0.005520042
0.005535588
0.005551161
0.005566761
0.005582387
0.005598041
0.005613722
0.00562943
0.005645165
0.005660926
0.005676715
0.005692531
0.005708374
0.005724244
0.005740142
0.005756066
0.005772018
0.005787996
0.005804002
0.005820035
0.005836096
0.005852183
0.005868298
0.005884441
0.00590061
0.005916807
0.005933031
0.005949282
0.005965561
0.005981867
0.005998201
0.006014562
0.00603095
0.006047366
0.00606381
0.00608028
0.006096779
0.006113305
0.006129858
0.006146439
0.006163048
0.006179684
0.006196347
0.006213039
0.006229758
0.006246504
0.006263279
0.006280081
0.006296911
0.006313768
0.006330653
0.006347566
0.006364507
0.006381475
0.006398472
0.006415496
0.006432548
0.006449628
0.006466736
0.006483871
0.006501035
0.006518226
0.006535446
0.006552693
0.006569969
0.006587272
0.006604603
0.006621963
0.00663935
0.006656766
0.006674209
0.006691681
0.006709181
0.006726709
0.006744265
0.00676185
0.006779462
0.006797103
0.006814772
0.006832469
0.006850194
0.006867948
0.00688573
0.00690354
0.006921379
0.006939246
0.006957141
0.006975065
0.006993017
0.007010997
0.007029006
0.007047043
0.007065109
0.007083203
0.007101326
0.007119477
0.007137657
0.007155865
0.007174102
0.007192368
0.007210662
0.007228984
0.007247336
0.007265715
0.007284124
0.007302561
0.007321027
0.007339522
0.007358045
0.007376597
0.007395178
0.007413788
0.007432426
0.007451093
0.007469789
0.007488514
0.007507268
0.007526051
0.007544862
0.007563702
0.007582572
0.00760147
0.007620397
0.007639353
0.007658339
0.007677353
0.007696396
0.007715468
0.00773457
0.0077537
0.00777286
0.007792048
0.007811266
0.007830513
0.007849789
0.007869094
0.007888428
0.007907792
0.007927185
0.007946607
0.007966058
0.007985539
0.008005048
0.008024588
0.008044156
0.008063754
0.008083381
0.008103038
0.008122724
0.008142439
0.008162184
0.008181958
0.008201762
0.008221595
0.008241457
0.008261349
0.008281271
0.008301222
0.008321203
0.008341213
0.008361253
0.008381322
0.008401422
0.00842155
0.008441709
0.008461897
0.008482114
0.008502362
0.008522639
0.008542946
0.008563282
0.008583649
0.008604045
0.008624471
0.008644927
0.008665412
0.008685928
0.008706473
0.008727048
0.008747653
0.008768288
0.008788953
0.008809648
0.008830373
0.008851128
0.008871913
0.008892727
0.008913572
0.008934447
0.008955352
0.008976287
0.008997252
0.009018247
0.009039273
0.009060328
0.009081414
0.009102529
0.009123675
0.009144852
0.009166058
0.009187295
0.009208561
0.009229859
0.009251186
0.009272544
0.009293932
0.00931535
0.009336799
0.009358278
0.009379787
0.009401327
0.009422898
0.009444498
0.009466129
0.009487791
0.009509483
0.009531206
0.009552959
0.009574742
0.009596557
0.009618401
0.009640277
0.009662183
0.009684119
0.009706086
0.009728084
0.009750112
0.009772171
0.009794261
0.009816382
0.009838533
0.009860715
0.009882927
0.009905171
0.009927445
0.00994975
0.009972086
0.009994452
0.01001685
0.010039278
0.010061737
0.010084228
0.010106749
0.010129301
0.010151883
0.010174497
0.010197142
0.010219818
0.010242525
0.010265263
0.010288031
0.010310831
0.010333662
0.010356524
0.010379418
0.010402342
0.010425297
0.010448284
0.010471302
0.010494351
0.010517431
0.010540542
0.010563685
0.010586858
0.010610063
0.0106333
0.010656567
0.010679866
0.010703196
0.010726558
0.010749951
0.010773375
0.010796831
0.010820318
0.010843836
0.010867386
0.010890968
0.010914581
0.010938225
0.010961901
0.010985608
0.011009347
0.011033117
0.011056919
0.011080753
0.011104618
0.011128514
0.011152443
0.011176403
0.011200394
0.011224418
0.011248473
0.011272559
0.011296678
0.011320828
0.01134501
0.011369223
0.011393469
0.011417746
0.011442055
0.011466396
0.011490768
0.011515173
0.011539609
0.011564077
0.011588577
0.01161311
0.011637674
0.011662269
0.011686897
0.011711557
0.011736249
0.011760973
0.011785729
0.011810517
0.011835337
0.011860189
0.011885073
0.01190999
0.011934938
0.011959919
0.011984931
0.012009976
0.012035053
0.012060162
0.012085304
0.012110477
0.012135683
0.012160922
0.012186192
0.012211495
0.01223683
0.012262197
0.012287597
0.012313029
0.012338493
0.01236399
0.012389519
0.012415081
0.012440675
0.012466301
0.01249196
0.012517652
0.012543376
0.012569132
0.012594921
0.012620743
0.012646597
0.012672483
0.012698402
0.012724354
0.012750338
0.012776355
0.012802405
0.012828487
0.012854602
0.01288075
0.01290693
0.012933144
0.012959389
0.012985668
0.013011979
0.013038323
0.0130647
0.01309111
0.013117553
0.013144028
0.013170536
0.013197078
0.013223652
0.013250258
0.013276898
0.013303571
0.013330277
0.013357016
0.013383787
0.013410592
0.01343743
0.0134643
0.013491204
0.013518141
0.013545111
0.013572114
0.01359915
0.013626219
0.013653321
0.013680457
0.013707625
0.013734827
0.013762062
0.013789331
0.013816632
0.013843967
0.013871335
0.013898736
0.01392617
0.013953638
0.013981139
0.014008674
0.014036241
0.014063842
0.014091477
0.014119145
0.014146846
0.014174581
0.014202349
0.014230151
0.014257986
0.014285854
0.014313756
0.014341692
0.014369661
0.014397664
0.0144257
0.01445377
0.014481873
0.01451001
0.01453818
0.014566385
0.014594622
0.014622894
0.014651199
0.014679538
0.014707911
0.014736317
0.014764757
0.014793231
0.014821738
0.01485028
0.014878855
0.014907464
0.014936106
0.014964783
0.014993494
0.015022238
0.015051016
0.015079828
0.015108674
0.015137554
0.015166468
0.015195416
0.015224398
0.015253414
0.015282464
0.015311547
0.015340665
0.015369817
0.015399003
0.015428224
0.015457478
0.015486766
0.015516088
0.015545445
0.015574836
0.015604261
0.01563372
0.015663213
0.015692741
0.015722302
0.015751898
0.015781529
0.015811193
0.015840892
0.015870625
0.015900392
0.015930194
0.01596003
0.015989901
0.016019806
0.016049745
0.016079719
0.016109727
0.016139769
0.016169846
0.016199958
0.016230104
0.016260284
0.016290499
0.016320748
0.016351032
0.016381351
0.016411704
0.016442092
0.016472514
0.016502971
0.016533462
0.016563989
0.01659455
0.016625145
0.016655775
0.01668644
0.01671714
0.016747874
0.016778643
0.016809447
0.016840286
0.016871159
0.016902068
0.016933011
0.016963989
0.016995001
0.017026049
0.017057132
0.017088249
0.017119401
0.017150589
0.017181811
0.017213068
0.01724436
0.017275687
0.017307049
0.017338446
0.017369878
0.017401345
0.017432848
0.017464385
0.017495957
0.017527565
0.017559207
0.017590885
0.017622598
0.017654346
0.017686129
0.017717948
0.017749801
0.01778169
0.017813614
0.017845573
0.017877568
0.017909598
0.017941663
0.017973763
0.018005899
0.01803807
0.018070276
0.018102518
0.018134795
0.018167108
0.018199456
0.018231839
0.018264258
0.018296712
0.018329202
0.018361727
0.018394288
0.018426884
0.018459516
0.018492183
0.018524886
0.018557624
0.018590398
0.018623208
0.018656053
0.018688934
0.01872185
0.018754802
0.01878779
0.018820813
0.018853872
0.018886967
0.018920098
0.018953264
0.018986466
0.019019704
0.019052977
0.019086287
0.019119632
0.019153013
0.01918643
0.019219883
0.019253371
0.019286896
0.019320456
0.019354052
0.019387685
0.019421353
0.019455057
0.019488797
0.019522573
0.019556385
0.019590233
0.019624117
0.019658037
0.019691994
0.019725986
0.019760014
0.019794079
0.019828179
0.019862316
0.019896489
0.019930698
0.019964943
0.019999225
0.020033542
0.020067896
0.020102286
0.020136712
0.020171175
0.020205673
0.020240208
0.02027478
0.020309387
0.020344032
0.020378712
0.020413429
0.020448182
0.020482971
0.020517797
0.020552659
0.020587558
0.020622493
0.020657465
0.020692473
0.020727517
0.020762598
0.020797716
0.02083287
0.020868061
0.020903288
0.020938552
0.020973852
0.021009189
0.021044563
0.021079973
0.02111542
0.021150903
0.021186423
0.02122198
0.021257574
0.021293204
0.021328871
0.021364575
0.021400315
0.021436093
0.021471907
0.021507758
0.021543645
0.02157957
0.021615531
0.021651529
0.021687564
0.021723636
0.021759745
0.021795891
0.021832073
0.021868293
0.02190455
0.021940843
0.021977174
0.022013541
0.022049946
0.022086387
0.022122866
0.022159382
0.022195934
0.022232524
0.022269151
0.022305815
0.022342516
0.022379254
0.02241603
0.022452842
0.022489692
0.022526579
0.022563503
0.022600464
0.022637463
0.022674499
0.022711572
0.022748683
0.02278583
0.022823015
0.022860238
0.022897497
0.022934794
0.022972129
0.0230095
0.023046909
0.023084356
0.02312184
0.023159361
0.02319692
0.023234516
0.02327215
0.023309821
0.02334753
0.023385277
0.02342306
0.023460882
0.023498741
0.023536637
0.023574571
0.023612543
0.023650552
0.023688599
0.023726684
0.023764806
0.023802966
0.023841163
0.023879399
0.023917672
0.023955982
0.023994331
0.024032717
0.024071141
0.024109603
0.024148102
0.024186639
0.024225215
0.024263828
0.024302479
0.024341167
0.024379894
0.024418658
0.024457461
0.024496301
0.024535179
0.024574096
0.02461305
0.024652042
0.024691072
0.02473014
0.024769246
0.024808391
0.024847573
0.024886793
0.024926051
0.024965348
0.025004682
0.025044055
0.025083466
0.025122915
0.025162402
0.025201927
0.025241491
0.025281092
0.025320732
0.02536041
0.025400127
0.025439881
0.025479674
0.025519505
0.025559375
0.025599282
0.025639228
0.025679213
0.025719236
0.025759297
0.025799396
0.025839534
0.02587971
0.025919925
0.025960178
0.02600047
0.0260408
0.026081168
0.026121575
0.026162021
0.026202505
0.026243027
0.026283588
0.026324188
0.026364826
0.026405503
0.026446219
0.026486973
0.026527765
0.026568596
0.026609466
0.026650375
0.026691322
0.026732308
0.026773333
0.026814396
0.026855498
0.026896639
0.026937819
0.026979037
0.027020294
0.02706159
0.027102925
0.027144299
0.027185711
0.027227163
0.027268653
0.027310182
0.02735175
0.027393357
0.027435003
0.027476688
0.027518411
0.027560174
0.027601976
0.027643816
0.027685696
0.027727615
0.027769573
0.027811569
0.027853605
0.02789568
0.027937794
0.027979947
0.028022139
0.028064371
0.028106641
0.028148951
0.0281913
0.028233688
0.028276115
0.028318581
0.028361087
0.028403632
0.028446216
0.02848884
0.028531502
0.028574204
0.028616946
0.028659726
0.028702546
0.028745405
0.028788304
0.028831242
0.02887422
0.028917236
0.028960293
0.029003388
0.029046523
0.029089698
0.029132912
0.029176166
0.029219459
0.029262791
0.029306163
0.029349575
0.029393026
0.029436517
0.029480047
0.029523617
0.029567226
0.029610875
0.029654564
0.029698292
0.02974206
0.029785868
0.029829715
0.029873602
0.029917529
0.029961496
0.030005502
0.030049548
0.030093634
0.030137759
0.030181925
0.03022613
0.030270375
0.03031466
0.030358984
0.030403349
0.030447753
0.030492198
0.030536682
0.030581206
0.03062577
0.030670374
0.030715018
0.030759702
0.030804425
0.030849189
0.030893993
0.030938837
0.030983721
0.031028645
0.031073609
0.031118613
0.031163657
0.031208742
0.031253866
0.031299031
0.031344235
0.03138948
0.031434765
0.03148009
0.031525456
0.031570861
0.031616307
0.031661793
0.031707319
0.031752886
0.031798493
0.03184414
0.031889827
0.031935555
0.031981323
0.032027132
0.03207298
0.032118869
0.032164799
0.032210769
0.032256779
0.03230283
0.032348921
0.032395053
0.032441225
0.032487437
0.03253369
0.032579984
0.032626318
0.032672693
0.032719108
0.032765563
0.03281206
0.032858597
0.032905174
0.032951792
0.032998451
0.03304515
0.03309189
0.033138671
0.033185492
0.033232354
0.033279257
0.0333262
0.033373184
0.033420209
0.033467275
0.033514381
0.033561528
0.033608716
0.033655945
0.033703214
0.033750525
0.033797876
0.033845268
0.033892701
0.033940175
0.03398769
0.034035245
0.034082842
0.03413048
0.034178158
0.034225878
0.034273638
0.03432144
0.034369282
0.034417165
0.03446509
0.034513055
0.034561062
0.03460911
0.034657198
0.034705328
0.034753499
0.034801711
0.034849965
0.034898259
0.034946594
0.034994971
0.035043389
0.035091848
0.035140349
0.03518889
0.035237473
0.035286097
0.035334762
0.035383469
0.035432217
0.035481006
0.035529836
0.035578708
0.035627621
0.035676576
0.035725572
0.035774609
0.035823688
0.035872808
0.03592197
0.035971173
0.036020417
0.036069703
0.03611903
0.036168399
0.03621781
0.036267261
0.036316755
0.03636629
0.036415866
0.036465484
0.036515144
0.036564845
0.036614588
0.036664373
0.036714199
0.036764067
0.036813976
0.036863927
0.03691392
0.036963954
0.037014031
0.037064149
0.037114308
0.03716451
0.037214753
0.037265038
0.037315365
0.037365733
0.037416144
0.037466596
0.03751709
0.037567626
0.037618204
0.037668823
0.037719485
0.037770188
0.037820934
0.037871721
0.03792255
0.037973422
0.038024335
0.03807529
0.038126287
0.038177326
0.038228408
0.038279531
0.038330696
0.038381903
0.038433153
0.038484444
0.038535778
0.038587154
0.038638572
0.038690032
0.038741534
0.038793078
0.038844665
0.038896294
0.038947965
0.038999678
0.039051433
0.039103231
0.039155071
0.039206953
0.039258877
0.039310844
0.039362853
0.039414904
0.039466998
0.039519134
0.039571313
0.039623533
0.039675796
0.039728102
0.03978045
0.03983284
0.039885273
0.039937749
0.039990266
0.040042827
0.040095429
0.040148075
0.040200762
0.040253493
0.040306265
0.040359081
0.040411939
0.040464839
0.040517782
0.040570768
0.040623797
0.040676868
0.040729981
0.040783137
0.040836336
0.040889578
0.040942862
0.040996189
0.041049559
0.041102972
0.041156427
0.041209925
0.041263466
0.041317049
0.041370676
0.041424345
0.041478057
0.041531812
0.041585609
0.04163945
0.041693333
0.041747259
0.041801229
0.041855241
0.041909296
0.041963394
0.042017535
0.042071719
0.042125945
0.042180215
0.042234528
0.042288884
0.042343283
0.042397725
0.04245221
0.042506738
0.042561309
0.042615923
0.042670581
0.042725281
0.042780025
0.042834812
0.042889642
0.042944515
0.042999431
0.04305439
0.043109393
0.043164439
0.043219528
0.04327466
