OpenDRT_v1.0-2.0_full-config_v2/transfer_functions/oetf_apple_log_to_linear.spi1d
Version 1
From -0.15 1.2
Length 8192
Components 1
{
-0.05641088
-0.05641088
-0.05641088
-0.05641088
-0.05641088
-0.05641088
-0.05641088
-0.05641088
-0.05641088
-0.05641088
-0.05641088
-0.05641088
-0.05641088
-0.05641088
-0.05641088
-0.05641088
-0.05641088
-0.05641088
-0.05641088
-0.05641088
-0.05641088
-0.05641088
-0.05641088
-0.05641088
-0.05641088
-0.05641088
-0.05641088
-0.05641088
-0.05641088
-0.05641088
-0.05641088
-0.05641088
-0.05641088
-0.05641088
-0.05641088
-0.05641088
-0.05641088
-0.05641088
-0.05641088
-0.05641088
-0.05641088
-0.05641088
-0.05641088
-0.05641088
-0.05641088
-0.05641088
-0.05641088
-0.05641088
-0.05641088
-0.05641088
-0.05641088
-0.05641088
-0.05641088
-0.05641088
-0.05641088
-0.05641088
-0.05641088
-0.05641088
-0.05641088
-0.05641088
-0.05641088
-0.05641088
-0.05641088
-0.05641088
-0.05641088
-0.05641088
-0.05641088
-0.05641088
-0.05641088
-0.05641088
-0.05641088
-0.05641088
-0.05641088
-0.05641088
-0.05641088
-0.05641088
-0.05641088
-0.05641088
-0.05641088
-0.05641088
-0.05641088
-0.05641088
-0.05641088
-0.05641088
-0.05641088
-0.05641088
-0.05641088
-0.05641088
-0.05641088
-0.05641088
-0.05641088
-0.05641088
-0.05641088
-0.05641088
-0.05641088
-0.05641088
-0.05641088
-0.05641088
-0.05641088
-0.05641088
-0.05641088
-0.05641088
-0.05641088
-0.05641088
-0.05641088
-0.05641088
-0.05641088
-0.05641088
-0.05641088
-0.05641088
-0.05641088
-0.05641088
-0.05641088
-0.05641088
-0.05641088
-0.05641088
-0.05641088
-0.05641088
-0.05641088
-0.05641088
-0.05641088
-0.05641088
-0.05641088
-0.05641088
-0.05641088
-0.05641088
-0.05641088
-0.05641088
-0.05641088
-0.05641088
-0.05641088
-0.05641088
-0.05641088
-0.05641088
-0.05641088
-0.05641088
-0.05641088
-0.05641088
-0.05641088
-0.05641088
-0.05641088
-0.05641088
-0.05641088
-0.05641088
-0.05641088
-0.05641088
-0.05641088
-0.05641088
-0.05641088
-0.05641088
-0.05641088
-0.05641088
-0.05641088
-0.05641088
-0.05641088
-0.05641088
-0.05641088
-0.05641088
-0.05641088
-0.05641088
-0.05641088
-0.05641088
-0.05641088
-0.05641088
-0.05641088
-0.05641088
-0.05641088
-0.05641088
-0.05641088
-0.05641088
-0.05641088
-0.05641088
-0.05641088
-0.05641088
-0.05641088
-0.05641088
-0.05641088
-0.05641088
-0.05641088
-0.05641088
-0.05641088
-0.05641088
-0.05641088
-0.05641088
-0.05641088
-0.05641088
-0.05641088
-0.05641088
-0.05641088
-0.05641088
-0.05641088
-0.05641088
-0.05641088
-0.05641088
-0.05641088
-0.05641088
-0.05641088
-0.05641088
-0.05641088
-0.05641088
-0.05641088
-0.05641088
-0.05641088
-0.05641088
-0.05641088
-0.05641088
-0.05641088
-0.05641088
-0.05641088
-0.05641088
-0.05641088
-0.05641088
-0.05641088
-0.05641088
-0.05641088
-0.05641088
-0.05641088
-0.05641088
-0.05641088
-0.05641088
-0.05641088
-0.05641088
-0.05641088
-0.05641088
-0.05641088
-0.05641088
-0.05641088
-0.05641088
-0.05641088
-0.05641088
-0.05641088
-0.05641088
-0.05641088
-0.05641088
-0.05641088
-0.05641088
-0.05641088
-0.05641088
-0.05641088
-0.05641088
-0.05641088
-0.05641088
-0.05641088
-0.05641088
-0.05641088
-0.05641088
-0.05641088
-0.05641088
-0.05641088
-0.05641088
-0.05641088
-0.05641088
-0.05641088
-0.05641088
-0.05641088
-0.05641088
-0.05641088
-0.05641088
-0.05641088
-0.05641088
-0.05641088
-0.05641088
-0.05641088
-0.05641088
-0.05641088
-0.05641088
-0.05641088
-0.05641088
-0.05641088
-0.05641088
-0.05641088
-0.05641088
-0.05641088
-0.05641088
-0.05641088
-0.05641088
-0.05641088
-0.05641088
-0.05641088
-0.05641088
-0.05641088
-0.05641088
-0.05641088
-0.05641088
-0.05641088
-0.05641088
-0.05641088
-0.05641088
-0.05641088
-0.05641088
-0.05641088
-0.05641088
-0.05641088
-0.05641088
-0.05641088
-0.05641088
-0.05641088
-0.05641088
-0.05641088
-0.05641088
-0.05641088
-0.05641088
-0.05641088
-0.05641088
-0.05641088
-0.05641088
-0.05641088
-0.05641088
-0.05641088
-0.05641088
-0.05641088
-0.05641088
-0.05641088
-0.05641088
-0.05641088
-0.05641088
-0.05641088
-0.05641088
-0.05641088
-0.05641088
-0.05641088
-0.05641088
-0.05641088
-0.05641088
-0.05641088
-0.05641088
-0.05641088
-0.05641088
-0.05641088
-0.05641088
-0.05641088
-0.05641088
-0.05641088
-0.05641088
-0.05641088
-0.05641088
-0.05641088
-0.05641088
-0.05641088
-0.05641088
-0.05641088
-0.05641088
-0.05641088
-0.05641088
-0.05641088
-0.05641088
-0.05641088
-0.05641088
-0.05641088
-0.05641088
-0.05641088
-0.05641088
-0.05641088
-0.05641088
-0.05641088
-0.05641088
-0.05641088
-0.05641088
-0.05641088
-0.05641088
-0.05641088
-0.05641088
-0.05641088
-0.05641088
-0.05641088
-0.05641088
-0.05641088
-0.05641088
-0.05641088
-0.05641088
-0.05641088
-0.05641088
-0.05641088
-0.05641088
-0.05641088
-0.05641088
-0.05641088
-0.05641088
-0.05641088
-0.05641088
-0.05641088
-0.05641088
-0.05641088
-0.05641088
-0.05641088
-0.05641088
-0.05641088
-0.05641088
-0.05641088
-0.05641088
-0.05641088
-0.05641088
-0.05641088
-0.05641088
-0.05641088
-0.05641088
-0.05641088
-0.05641088
-0.05641088
-0.05641088
-0.05641088
-0.05641088
-0.05641088
-0.05641088
-0.05641088
-0.05641088
-0.05641088
-0.05641088
-0.05641088
-0.05641088
-0.05641088
-0.05641088
-0.05641088
-0.05641088
-0.05641088
-0.05641088
-0.05641088
-0.05641088
-0.05641088
-0.05641088
-0.05641088
-0.05641088
-0.05641088
-0.05641088
-0.05641088
-0.05641088
-0.05641088
-0.05641088
-0.05641088
-0.05641088
-0.05641088
-0.05641088
-0.05641088
-0.05641088
-0.05641088
-0.05641088
-0.05641088
-0.05641088
-0.05641088
-0.05641088
-0.05641088
-0.05641088
-0.05641088
-0.05641088
-0.05641088
-0.05641088
-0.05641088
-0.05641088
-0.05641088
-0.05641088
-0.05641088
-0.05641088
-0.05641088
-0.05641088
-0.05641088
-0.05641088
-0.05641088
-0.05641088
-0.05641088
-0.05641088
-0.05641088
-0.05641088
-0.05641088
-0.05641088
-0.05641088
-0.05641088
-0.05641088
-0.05641088
-0.05641088
-0.05641088
-0.05641088
-0.05641088
-0.05641088
-0.05641088
-0.05641088
-0.05641088
-0.05641088
-0.05641088
-0.05641088
-0.05641088
-0.05641088
-0.05641088
-0.05641088
-0.05641088
-0.05641088
-0.05641088
-0.05641088
-0.05641088
-0.05641088
-0.05641088
-0.05641088
-0.05641088
-0.05641088
-0.05641088
-0.05641088
-0.05641088
-0.05641088
-0.05641088
-0.05641088
-0.05641088
-0.05641088
-0.05641088
-0.05641088
-0.05641088
-0.05641088
-0.05641088
-0.05641088
-0.05641088
-0.05641088
-0.05641088
-0.05641088
-0.05641088
-0.05641088
-0.05641088
-0.05641088
-0.05641088
-0.05641088
-0.05641088
-0.05641088
-0.05641088
-0.05641088
-0.05641088
-0.05641088
-0.05641088
-0.05641088
-0.05641088
-0.05641088
-0.05641088
-0.05641088
-0.05641088
-0.05641088
-0.05641088
-0.05641088
-0.05641088
-0.05641088
-0.05641088
-0.05641088
-0.05641088
-0.05641088
-0.05641088
-0.05641088
-0.05641088
-0.05641088
-0.05641088
-0.05641088
-0.05641088
-0.05641088
-0.05641088
-0.05641088
-0.05641088
-0.05641088
-0.05641088
-0.05641088
-0.05641088
-0.05641088
-0.05641088
-0.05641088
-0.05641088
-0.05641088
-0.05641088
-0.05641088
-0.05641088
-0.05641088
-0.05641088
-0.05641088
-0.05641088
-0.05641088
-0.05641088
-0.05641088
-0.05641088
-0.05641088
-0.05641088
-0.05641088
-0.05641088
-0.05641088
-0.05641088
-0.05641088
-0.05641088
-0.05641088
-0.05641088
-0.05641088
-0.05641088
-0.05641088
-0.05641088
-0.05641088
-0.05641088
-0.05641088
-0.05641088
-0.05641088
-0.05641088
-0.05641088
-0.05641088
-0.05641088
-0.05641088
-0.05641088
-0.05641088
-0.05641088
-0.05641088
-0.05641088
-0.05641088
-0.05641088
-0.05641088
-0.05641088
-0.05641088
-0.05641088
-0.05641088
-0.05641088
-0.05641088
-0.05641088
-0.05641088
-0.05641088
-0.05641088
-0.05641088
-0.05641088
-0.05641088
-0.05641088
-0.05641088
-0.05641088
-0.05641088
-0.05641088
-0.05641088
-0.05641088
-0.05641088
-0.05641088
-0.05641088
-0.05641088
-0.05641088
-0.05641088
-0.05641088
-0.05641088
-0.05641088
-0.05641088
-0.05641088
-0.05641088
-0.05641088
-0.05641088
-0.05641088
-0.05641088
-0.05641088
-0.05641088
-0.05641088
-0.05641088
-0.05641088
-0.05641088
-0.05641088
-0.05641088
-0.05641088
-0.05641088
-0.05641088
-0.05641088
-0.05641088
-0.05641088
-0.05641088
-0.05641088
-0.05641088
-0.05641088
-0.05641088
-0.05641088
-0.05641088
-0.05641088
-0.05641088
-0.05641088
-0.05641088
-0.05641088
-0.05641088
-0.05641088
-0.05641088
-0.05641088
-0.05641088
-0.05641088
-0.05641088
-0.05641088
-0.05641088
-0.05641088
-0.05641088
-0.05641088
-0.05641088
-0.05641088
-0.05641088
-0.05641088
-0.05641088
-0.05641088
-0.05641088
-0.05641088
-0.05641088
-0.05641088
-0.05641088
-0.05641088
-0.05641088
-0.05641088
-0.05641088
-0.05641088
-0.05641088
-0.05641088
-0.05641088
-0.05641088
-0.05641088
-0.05641088
-0.05641088
-0.05641088
-0.05641088
-0.05641088
-0.05641088
-0.05641088
-0.05641088
-0.05641088
-0.05641088
-0.05641088
-0.05641088
-0.05641088
-0.05641088
-0.05641088
-0.05641088
-0.05641088
-0.05641088
-0.05641088
-0.05641088
-0.05641088
-0.05641088
-0.05641088
-0.05641088
-0.05641088
-0.05641088
-0.05641088
-0.05641088
-0.05641088
-0.05641088
-0.05641088
-0.05641088
-0.05641088
-0.05641088
-0.05641088
-0.05641088
-0.05641088
-0.05641088
-0.05641088
-0.05641088
-0.05641088
-0.05641088
-0.05641088
-0.05641088
-0.05641088
-0.05641088
-0.05641088
-0.05641088
-0.05641088
-0.05641088
-0.05641088
-0.05641088
-0.05641088
-0.05641088
-0.05641088
-0.05641088
-0.05641088
-0.05641088
-0.05641088
-0.05641088
-0.05641088
-0.05641088
-0.05641088
-0.05641088
-0.05641088
-0.05641088
-0.05641088
-0.05641088
-0.05641088
-0.05641088
-0.05641088
-0.05641088
-0.05641088
-0.05641088
-0.05641088
-0.05641088
-0.05641088
-0.05641088
-0.05641088
-0.05641088
-0.05641088
-0.05641088
-0.05641088
-0.05641088
-0.05641088
-0.05641088
-0.05641088
-0.05641088
-0.05641088
-0.05641088
-0.05641088
-0.05641088
-0.05641088
-0.05641088
-0.05641088
-0.05641088
-0.05641088
-0.05641088
-0.05641088
-0.05641088
-0.05641088
-0.05641088
-0.05641088
-0.05641088
-0.05641088
-0.05641088
-0.05641088
-0.05641088
-0.05641088
-0.05641088
-0.05641088
-0.05641088
-0.05641088
-0.05641088
-0.05641088
-0.05641088
-0.05641088
-0.05641088
-0.05641088
-0.05641088
-0.05641088
-0.05641088
-0.05641088
-0.05641088
-0.05641088
-0.05641088
-0.05641088
-0.05641088
-0.05641088
-0.05641088
-0.05641088
-0.05641088
-0.05641088
-0.05641088
-0.05641088
-0.05641088
-0.05641088
-0.05641088
-0.05641088
-0.05641088
-0.05641088
-0.05641088
-0.05641088
-0.05641088
-0.05641088
-0.05641088
-0.05641088
-0.05641088
-0.05641088
-0.05641088
-0.05641088
-0.05641088
-0.05641088
-0.05641088
-0.05641088
-0.05641088
-0.05641088
-0.05641088
-0.05641088
-0.05641088
-0.05641088
-0.05641088
-0.05641088
-0.05641088
-0.05641088
-0.05641088
-0.05641088
-0.05641088
-0.05641088
-0.05641088
-0.05641088
-0.05641088
-0.05641088
-0.05641088
-0.05641088
-0.05641088
-0.05641088
-0.05641088
-0.05641088
-0.05641088
-0.05641088
-0.05641088
-0.05641088
-0.05641088
-0.05641088
-0.05641088
-0.05641088
-0.05641088
-0.05641088
-0.05641088
-0.05641088
-0.05641088
-0.05641088
-0.05641088
-0.05641088
-0.05641088
-0.05641088
-0.05641088
-0.05641088
-0.05641088
-0.05641088
-0.05641088
-0.05641088
-0.05641088
-0.05641088
-0.05641088
-0.05641088
-0.05641088
-0.05641088
-0.05641088
-0.05641088
-0.05641088
-0.05641088
-0.05641088
-0.054650726
-0.053845036
-0.053237717
-0.052729253
-0.052282952
-0.051880405
-0.051510818
-0.051167215
-0.050844783
-0.050540033
-0.05025034
-0.04997367
-0.049708412
-0.049453259
-0.049207138
-0.048969152
-0.048738545
-0.04851467
-0.048296969
-0.048084959
-0.047878215
-0.047676363
-0.047479072
-0.047286045
-0.047097018
-0.046911752
-0.046730031
-0.046551658
-0.046376456
-0.046204261
-0.046034923
-0.045868305
-0.045704279
-0.045542728
-0.045383544
-0.045226626
-0.045071879
-0.044919215
-0.044768553
-0.044619816
-0.044472932
-0.044327834
-0.044184457
-0.044042742
-0.043902633
-0.043764076
-0.04362702
-0.043491419
-0.043357226
-0.043224398
-0.043092895
-0.042962678
-0.04283371
-0.042705956
-0.042579381
-0.042453954
-0.042329645
-0.042206423
-0.042084261
-0.041963132
-0.04184301
-0.041723871
-0.04160569
-0.041488445
-0.041372114
-0.041256676
-0.041142111
-0.041028399
-0.040915522
-0.040803461
-0.040692199
-0.040581719
-0.040472004
-0.04036304
-0.04025481
-0.040147301
-0.040040498
-0.039934387
-0.039828955
-0.039724189
-0.039620077
-0.039516607
-0.039413766
-0.039311544
-0.039209929
-0.039108912
-0.03900848
-0.038908625
-0.038809336
-0.038710604
-0.03861242
-0.038514775
-0.038417659
-0.038321065
-0.038224984
-0.038129408
-0.038034329
-0.037939739
-0.037845631
-0.037751998
-0.037658833
-0.037566128
-0.037473876
-0.037382072
-0.037290709
-0.037199781
-0.03710928
-0.037019202
-0.036929541
-0.03684029
-0.036751445
-0.036662999
-0.036574947
-0.036487285
-0.036400007
-0.036313108
-0.036226582
-0.036140427
-0.036054636
-0.035969204
-0.035884129
-0.035799404
-0.035715027
-0.035630992
-0.035547296
-0.035463933
-0.035380902
-0.035298197
-0.035215814
-0.035133751
-0.035052003
-0.034970567
-0.034889438
-0.034808615
-0.034728093
-0.034647868
-0.034567938
-0.0344883
-0.03440895
-0.034329885
-0.034251102
-0.034172599
-0.034094371
-0.034016417
-0.033938733
-0.033861317
-0.033784165
-0.033707276
-0.033630647
-0.033554274
-0.033478155
-0.033402289
-0.033326672
-0.033251301
-0.033176175
-0.033101292
-0.033026648
-0.032952241
-0.03287807
-0.032804132
-0.032730425
-0.032656946
-0.032583694
-0.032510667
-0.032437862
-0.032365277
-0.032292911
-0.032220761
-0.032148826
-0.032077104
-0.032005592
-0.031934289
-0.031863194
-0.031792303
-0.031721617
-0.031651132
-0.031580847
-0.03151076
-0.031440871
-0.031371176
-0.031301675
-0.031232365
-0.031163246
-0.031094316
-0.031025572
-0.030957015
-0.030888641
-0.030820451
-0.030752441
-0.030684611
-0.03061696
-0.030549486
-0.030482187
-0.030415062
-0.03034811
-0.03028133
-0.03021472
-0.030148279
-0.030082006
-0.030015899
-0.029949957
-0.02988418
-0.029818564
-0.029753111
-0.029687817
-0.029622683
-0.029557707
-0.029492888
-0.029428224
-0.029363715
-0.02929936
-0.029235156
-0.029171105
-0.029107203
-0.029043451
-0.028979847
-0.02891639
-0.028853079
-0.028789913
-0.028726891
-0.028664013
-0.028601276
-0.028538681
-0.028476226
-0.028413911
-0.028351733
-0.028289694
-0.028227791
-0.028166023
-0.02810439
-0.028042892
-0.027981526
-0.027920292
-0.02785919
-0.027798218
-0.027737376
-0.027676663
-0.027616078
-0.027555619
-0.027495288
-0.027435082
-0.027375001
-0.027315043
-0.02725521
-0.027195498
-0.027135909
-0.02707644
-0.027017092
-0.026957864
-0.026898754
-0.026839762
-0.026780888
-0.026722131
-0.02666349
-0.026604964
-0.026546553
-0.026488255
-0.026430072
-0.026372
-0.026314041
-0.026256194
-0.026198457
-0.02614083
-0.026083313
-0.026025904
-0.025968604
-0.025911412
-0.025854326
-0.025797347
-0.025740474
-0.025683706
-0.025627043
-0.025570484
-0.025514028
-0.025457675
-0.025401425
-0.025345277
-0.02528923
-0.025233284
-0.025177438
-0.025121691
-0.025066044
-0.025010495
-0.024955045
-0.024899692
-0.024844436
-0.024789277
-0.024734213
-0.024679245
-0.024624373
-0.024569595
-0.024514911
-0.02446032
-0.024405823
-0.024351418
-0.024297106
-0.024242885
-0.024188755
-0.024134716
-0.024080768
-0.024026909
-0.02397314
-0.02391946
-0.023865868
-0.023812365
-0.023758949
-0.02370562
-0.023652378
-0.023599223
-0.023546153
-0.023493169
-0.02344027
-0.023387456
-0.023334727
-0.023282081
-0.023229519
-0.02317704
-0.023124643
-0.023072329
-0.023020097
-0.022967947
-0.022915877
-0.022863889
-0.022811981
-0.022760153
-0.022708405
-0.022656736
-0.022605146
-0.022553634
-0.022502201
-0.022450846
-0.022399568
-0.022348368
-0.022297244
-0.022246197
-0.022195226
-0.022144331
-0.022093511
-0.022042767
-0.021992097
-0.021941502
-0.021890981
-0.021840534
-0.02179016
-0.021739859
-0.021689632
-0.021639477
-0.021589394
-0.021539383
-0.021489444
-0.021439576
-0.021389779
-0.021340052
-0.021290396
-0.021240811
-0.021191295
-0.021141848
-0.021092471
-0.021043163
-0.020993923
-0.020944752
-0.020895649
-0.020846613
-0.020797645
-0.020748745
-0.020699911
-0.020651144
-0.020602443
-0.020553809
-0.02050524
-0.020456737
-0.0204083
-0.020359927
-0.02031162
-0.020263376
-0.020215198
-0.020167083
-0.020119032
-0.020071044
-0.02002312
-0.019975259
-0.019927461
-0.019879725
-0.019832051
-0.01978444
-0.01973689
-0.019689402
-0.019641975
-0.01959461
-0.019547305
-0.019500061
-0.019452877
-0.019405753
-0.019358689
-0.019311685
-0.019264741
-0.019217856
-0.019171029
-0.019124262
-0.019077553
-0.019030903
-0.01898431
-0.018937776
-0.018891299
-0.01884488
-0.018798518
-0.018752213
-0.018705965
-0.018659774
-0.018613639
-0.018567561
-0.018521538
-0.018475571
-0.01842966
-0.018383805
-0.018338004
-0.018292259
-0.018246568
-0.018200932
-0.018155351
-0.018109823
-0.01806435
-0.018018931
-0.017973565
-0.017928253
-0.017882994
-0.017837788
-0.017792635
-0.017747535
-0.017702488
-0.017657492
-0.017612549
-0.017567658
-0.017522819
-0.017478031
-0.017433295
-0.01738861
-0.017343977
-0.017299394
-0.017254862
-0.01721038
-0.017165949
-0.017121569
-0.017077238
-0.017032957
-0.016988726
-0.016944545
-0.016900412
-0.01685633
-0.016812296
-0.016768311
-0.016724375
-0.016680487
-0.016636648
-0.016592857
-0.016549115
-0.01650542
-0.016461773
-0.016418174
-0.016374622
-0.016331117
-0.01628766
-0.016244249
-0.016200886
-0.016157569
-0.016114299
-0.016071075
-0.016027898
-0.015984766
-0.015941681
-0.015898641
-0.015855647
-0.015812699
-0.015769796
-0.015726938
-0.015684125
-0.015641357
-0.015598634
-0.015555956
-0.015513323
-0.015470733
-0.015428188
-0.015385687
-0.01534323
-0.015300817
-0.015258448
-0.015216122
-0.01517384
-0.015131601
-0.015089405
-0.015047252
-0.015005142
-0.014963075
-0.01492105
-0.014879068
-0.014837129
-0.014795231
-0.014753376
-0.014711563
-0.014669792
-0.014628062
-0.014586375
-0.014544728
-0.014503123
-0.014461559
-0.014420037
-0.014378555
-0.014337115
-0.014295715
-0.014254356
-0.014213037
-0.014171759
-0.014130521
-0.014089323
-0.014048165
-0.014007047
-0.013965969
-0.013924931
-0.013883933
-0.013842973
-0.013802054
-0.013761173
-0.013720332
-0.01367953
-0.013638766
-0.013598042
-0.013557356
-0.013516708
-0.0134761
-0.013435529
-0.013394997
-0.013354503
-0.013314047
-0.013273629
-0.013233249
-0.013192906
-0.013152602
-0.013112334
-0.013072104
-0.013031912
-0.012991756
-0.012951638
-0.012911557
-0.012871512
-0.012831505
-0.012791534
-0.0127516
-0.012711702
-0.01267184
-0.012632015
-0.012592226
-0.012552473
-0.012512757
-0.012473076
-0.012433431
-0.012393821
-0.012354247
-0.012314709
-0.012275206
-0.012235739
-0.012196306
-0.012156909
-0.012117547
-0.01207822
-0.012038927
-0.01199967
-0.011960447
-0.011921259
-0.011882105
-0.011842985
-0.0118039
-0.011764849
-0.011725833
-0.01168685
-0.011647901
-0.011608986
-0.011570105
-0.011531257
-0.011492443
-0.011453663
-0.011414916
-0.011376203
-0.011337522
-0.011298875
-0.011260261
-0.01122168
-0.011183132
-0.011144616
-0.011106134
-0.011067684
-0.011029266
-0.010990881
-0.010952529
-0.010914209
-0.010875921
-0.010837665
-0.010799441
-0.01076125
-0.01072309
-0.010684962
-0.010646866
-0.010608801
-0.010570769
-0.010532767
-0.010494797
-0.010456859
-0.010418952
-0.010381076
-0.010343231
-0.010305417
-0.010267635
-0.010229883
-0.010192162
-0.010154471
-0.010116812
-0.010079183
-0.010041584
-0.010004016
-0.009966479
-0.009928972
-0.009891495
-0.009854048
-0.009816631
-0.009779244
-0.009741887
-0.009704561
-0.009667263
-0.009629996
-0.009592758
-0.00955555
-0.009518372
-0.009481223
-0.009444103
-0.009407012
-0.009369951
-0.009332919
-0.009295916
-0.009258942
-0.009221998
-0.009185082
-0.009148194
-0.009111336
-0.009074506
-0.009037705
-0.009000933
-0.008964189
-0.008927473
-0.008890786
-0.008854127
-0.008817497
-0.008780894
-0.00874432
-0.008707773
-0.008671255
-0.008634765
-0.008598302
-0.008561867
-0.00852546
-0.008489081
-0.008452729
-0.008416405
-0.008380108
-0.008343838
-0.008307596
-0.008271381
-0.008235194
-0.008199034
-0.0081629
-0.008126794
-0.008090715
-0.008054662
-0.008018637
-0.007982638
-0.007946666
-0.007910721
-0.007874802
-0.00783891
-0.007803045
-0.007767205
-0.007731393
-0.007695606
-0.007659846
-0.007624112
-0.007588404
-0.007552723
-0.007517067
-0.007481437
-0.007445833
-0.007410256
-0.007374704
-0.007339177
-0.007303677
-0.007268202
-0.007232752
-0.007197328
-0.00716193
-0.007126557
-0.00709121
-0.007055887
-0.00702059
-0.006985319
-0.006950072
-0.00691485
-0.006879654
-0.006844482
-0.006809336
-0.006774214
-0.006739117
-0.006704045
-0.006668998
-0.006633975
-0.006598977
-0.006564004
-0.006529055
-0.00649413
-0.00645923
-0.006424355
-0.006389503
-0.006354676
-0.006319873
-0.006285095
-0.00625034
-0.00621561
-0.006180903
-0.00614622
-0.006111562
-0.006076927
-0.006042316
-0.006007729
-0.005973165
-0.005938626
-0.005904109
-0.005869617
-0.005835148
-0.005800702
-0.00576628
-0.005731881
-0.005697506
-0.005663153
-0.005628824
-0.005594519
-0.005560236
-0.005525976
-0.00549174
-0.005457527
-0.005423336
-0.005389168
-0.005355024
-0.005320902
-0.005286803
-0.005252726
-0.005218672
-0.005184641
-0.005150633
-0.005116647
-0.005082683
-0.005048743
-0.005014824
-0.004980928
-0.004947054
-0.004913202
-0.004879373
-0.004845566
-0.004811781
-0.004778018
-0.004744277
-0.004710558
-0.004676861
-0.004643186
-0.004609533
-0.004575902
-0.004542293
-0.004508705
-0.004475139
-0.004441595
-0.004408073
-0.004374572
-0.004341092
-0.004307634
-0.004274198
-0.004240783
-0.004207389
-0.004174017
-0.004140666
-0.004107336
-0.004074028
-0.004040741
-0.004007474
-0.003974229
-0.003941005
-0.003907802
-0.00387462
-0.003841459
-0.003808319
-0.0037752
-0.003742102
-0.003709024
-0.003675967
-0.003642931
-0.003609915
-0.003576921
-0.003543946
-0.003510993
-0.003478059
-0.003445147
-0.003412254
-0.003379382
-0.003346531
-0.0033137
-0.003280889
-0.003248098
-0.003215328
-0.003182577
-0.003149847
-0.003117137
-0.003084447
-0.003051777
-0.003019127
-0.002986497
-0.002953887
-0.002921297
-0.002888727
-0.002856176
-0.002823645
-0.002791134
-0.002758643
-0.002726171
-0.002693719
-0.002661287
-0.002628874
-0.00259648
-0.002564106
-0.002531752
-0.002499417
-0.002467101
-0.002434805
-0.002402528
-0.00237027
-0.002338032
-0.002305813
-0.002273613
-0.002241432
-0.00220927
-0.002177127
-0.002145003
-0.002112899
-0.002080813
-0.002048746
-0.002016698
-0.001984669
-0.001952659
-0.001920668
-0.001888695
-0.001856741
-0.001824806
-0.001792889
-0.001760992
-0.001729112
-0.001697252
-0.001665409
-0.001633586
-0.001601781
-0.001569994
-0.001538226
-0.001506476
-0.001474744
-0.001443031
-0.001411336
-0.001379659
-0.001348001
-0.001316361
-0.001284738
-0.001253134
-0.001221549
-0.001189981
-0.001158431
-0.001126899
-0.001095385
-0.001063889
-0.001032412
-0.001000951
-0.000969509
-0.000938085
-0.000906678
-0.000875289
-0.000843918
-0.000812565
-0.000781229
-0.000749911
-0.00071861
-0.000687328
-0.000656062
-0.000624814
-0.000593584
-0.000562371
-0.000531176
-0.000499998
-0.000468837
-0.000437694
-0.000406568
-0.000375459
-0.000344368
-0.000313293
-0.000282236
-0.000251196
-0.000220174
-0.000189168
-0.00015818
-0.000127208
-9.6254e-05
-6.5317e-05
-3.4396e-05
-3.493e-06
2.7394e-05
5.8264e-05
8.9116e-05
0.000119952
0.000150771
0.000181574
0.000212359
0.000243128
0.00027388
0.000304616
0.000335335
0.000366037
0.000396722
0.000427392
0.000458044
0.00048868
0.0005193
0.000549903
0.000580489
0.000611059
0.000641613
0.000672151
0.000702672
0.000733177
0.000763665
0.000794138
0.000824594
0.000855034
0.000885457
0.000915865
0.000946256
0.000976632
0.001006991
0.001037334
0.001067662
0.001097973
0.001128268
0.001158547
0.001188811
0.001219058
0.00124929
0.001279506
0.001309706
0.00133989
0.001370059
0.001400211
0.001430348
0.00146047
0.001490575
0.001520665
0.001550739
0.001580798
0.001610841
0.001640869
0.001670881
0.001700878
0.001730859
0.001760825
0.001790775
0.00182071
0.001850629
0.001880533
0.001910422
0.001940295
0.001970154
0.001999997
0.002029824
0.002059637
0.002089434
0.002119216
0.002148983
0.002178735
0.002208472
0.002238193
0.0022679
0.002297591
0.002327268
0.00235693
0.002386576
0.002416208
0.002445825
0.002475426
0.002505013
0.002534586
0.002564143
0.002593685
0.002623213
0.002652726
0.002682224
0.002711708
0.002741176
0.002770631
0.00280007
0.002829495
0.002858905
0.002888301
0.002917682
0.002947048
0.0029764
0.003005738
0.003035061
0.00306437
0.003093664
0.003122943
0.003152209
0.00318146
