OpenDRT_v1.0-2.0_full-config_v2/transfer_functions/oetf_canon_clog2_to_linear.spi1d
Version 1
From -0.15 1.2
Length 8192
Components 1
{
-0.094489866
-0.094325179
-0.09416075
-0.09399658
-0.093832667
-0.093669012
-0.093505615
-0.093342473
-0.093179589
-0.09301696
-0.092854586
-0.092692468
-0.092530604
-0.092368995
-0.09220764
-0.092046538
-0.091885689
-0.091725093
-0.091564749
-0.091404657
-0.091244817
-0.091085228
-0.09092589
-0.090766801
-0.090607963
-0.090449375
-0.090291035
-0.090132944
-0.089975102
-0.089817508
-0.089660161
-0.089503062
-0.089346209
-0.089189603
-0.089033242
-0.088877128
-0.088721258
-0.088565634
-0.088410254
-0.088255118
-0.088100226
-0.087945578
-0.087791172
-0.087637009
-0.087483088
-0.087329409
-0.087175971
-0.087022774
-0.086869818
-0.086717103
-0.086564627
-0.086412391
-0.086260394
-0.086108636
-0.085957116
-0.085805835
-0.085654791
-0.085503984
-0.085353414
-0.085203081
-0.085052984
-0.084903123
-0.084753497
-0.084604106
-0.08445495
-0.084306029
-0.084157341
-0.084008887
-0.083860666
-0.083712678
-0.083564923
-0.0834174
-0.083270108
-0.083123048
-0.082976219
-0.082829621
-0.082683253
-0.082537115
-0.082391206
-0.082245527
-0.082100077
-0.081954855
-0.081809861
-0.081665095
-0.081520557
-0.081376245
-0.081232161
-0.081088302
-0.08094467
-0.080801263
-0.080658082
-0.080515126
-0.080372394
-0.080229887
-0.080087603
-0.079945543
-0.079803706
-0.079662092
-0.079520701
-0.079379531
-0.079238584
-0.079097857
-0.078957352
-0.078817068
-0.078677004
-0.07853716
-0.078397536
-0.078258131
-0.078118945
-0.077979978
-0.07784123
-0.077702699
-0.077564386
-0.07742629
-0.077288411
-0.077150749
-0.077013303
-0.076876073
-0.076739058
-0.076602259
-0.076465675
-0.076329305
-0.07619315
-0.076057209
-0.075921481
-0.075785966
-0.075650664
-0.075515575
-0.075380698
-0.075246033
-0.07511158
-0.074977337
-0.074843306
-0.074709485
-0.074575875
-0.074442474
-0.074309283
-0.074176302
-0.074043529
-0.073910965
-0.073778609
-0.073646461
-0.07351452
-0.073382787
-0.073251261
-0.073119942
-0.072988829
-0.072857921
-0.07272722
-0.072596724
-0.072466433
-0.072336346
-0.072206464
-0.072076786
-0.071947312
-0.071818041
-0.071688973
-0.071560109
-0.071431446
-0.071302986
-0.071174727
-0.07104667
-0.070918814
-0.070791159
-0.070663705
-0.070536451
-0.070409397
-0.070282542
-0.070155887
-0.07002943
-0.069903173
-0.069777113
-0.069651252
-0.069525589
-0.069400123
-0.069274854
-0.069149782
-0.069024906
-0.068900227
-0.068775743
-0.068651455
-0.068527362
-0.068403465
-0.068279762
-0.068156253
-0.068032938
-0.067909817
-0.06778689
-0.067664155
-0.067541614
-0.067419265
-0.067297108
-0.067175143
-0.06705337
-0.066931788
-0.066810397
-0.066689197
-0.066568187
-0.066447367
-0.066326737
-0.066206297
-0.066086046
-0.065965984
-0.06584611
-0.065726425
-0.065606928
-0.065487618
-0.065368496
-0.065249562
-0.065130814
-0.065012252
-0.064893877
-0.064775688
-0.064657684
-0.064539866
-0.064422233
-0.064304785
-0.064187522
-0.064070442
-0.063953547
-0.063836835
-0.063720307
-0.063603961
-0.063487799
-0.063371819
-0.063256021
-0.063140405
-0.063024971
-0.062909718
-0.062794646
-0.062679755
-0.062565044
-0.062450514
-0.062336163
-0.062221993
-0.062108001
-0.061994189
-0.061880556
-0.061767101
-0.061653824
-0.061540725
-0.061427804
-0.061315061
-0.061202494
-0.061090105
-0.060977892
-0.060865855
-0.060753994
-0.060642309
-0.0605308
-0.060419465
-0.060308306
-0.060197321
-0.060086511
-0.059975874
-0.059865412
-0.059755123
-0.059645007
-0.059535065
-0.059425295
-0.059315697
-0.059206272
-0.059097019
-0.058987937
-0.058879027
-0.058770288
-0.058661719
-0.058553321
-0.058445094
-0.058337036
-0.058229149
-0.058121431
-0.058013882
-0.057906502
-0.05779929
-0.057692248
-0.057585373
-0.057478666
-0.057372127
-0.057265755
-0.057159551
-0.057053513
-0.056947642
-0.056841937
-0.056736398
-0.056631025
-0.056525818
-0.056420776
-0.056315899
-0.056211187
-0.056106639
-0.056002255
-0.055898036
-0.05579398
-0.055690088
-0.055586359
-0.055482793
-0.055379389
-0.055276148
-0.05517307
-0.055070153
-0.054967398
-0.054864804
-0.054762372
-0.0546601
-0.054557989
-0.054456039
-0.054354248
-0.054252618
-0.054151148
-0.054049836
-0.053948684
-0.053847691
-0.053746857
-0.053646181
-0.053545663
-0.053445303
-0.0533451
-0.053245056
-0.053145168
-0.053045437
-0.052945863
-0.052846446
-0.052747184
-0.052648079
-0.052549129
-0.052450335
-0.052351696
-0.052253211
-0.052154882
-0.052056707
-0.051958687
-0.05186082
-0.051763107
-0.051665548
-0.051568141
-0.051470888
-0.051373788
-0.05127684
-0.051180045
-0.051083402
-0.05098691
-0.05089057
-0.050794382
-0.050698344
-0.050602458
-0.050506722
-0.050411137
-0.050315701
-0.050220416
-0.05012528
-0.050030294
-0.049935457
-0.049840769
-0.04974623
-0.049651839
-0.049557597
-0.049463503
-0.049369556
-0.049275757
-0.049182106
-0.049088601
-0.048995244
-0.048902033
-0.048808969
-0.048716051
-0.048623279
-0.048530652
-0.048438171
-0.048345836
-0.048253645
-0.0481616
-0.048069699
-0.047977942
-0.04788633
-0.047794861
-0.047703536
-0.047612355
-0.047521317
-0.047430422
-0.047339669
-0.04724906
-0.047158592
-0.047068267
-0.046978084
-0.046888042
-0.046798142
-0.046708383
-0.046618765
-0.046529288
-0.046439952
-0.046350755
-0.046261699
-0.046172783
-0.046084007
-0.04599537
-0.045906872
-0.045818514
-0.045730294
-0.045642213
-0.04555427
-0.045466465
-0.045378798
-0.045291269
-0.045203878
-0.045116624
-0.045029507
-0.044942527
-0.044855683
-0.044768976
-0.044682405
-0.04459597
-0.044509671
-0.044423508
-0.044337479
-0.044251587
-0.044165829
-0.044080205
-0.043994716
-0.043909362
-0.043824142
-0.043739055
-0.043654102
-0.043569283
-0.043484597
-0.043400044
-0.043315624
-0.043231337
-0.043147181
-0.043063159
-0.042979268
-0.042895509
-0.042811881
-0.042728385
-0.04264502
-0.042561786
-0.042478683
-0.04239571
-0.042312868
-0.042230156
-0.042147574
-0.042065122
-0.041982799
-0.041900605
-0.041818541
-0.041736605
-0.041654799
-0.041573121
-0.041491571
-0.041410149
-0.041328855
-0.041247689
-0.04116665
-0.041085739
-0.041004955
-0.040924298
-0.040843767
-0.040763363
-0.040683086
-0.040602934
-0.040522909
-0.040443009
-0.040363234
-0.040283585
-0.040204061
-0.040124663
-0.040045388
-0.039966239
-0.039887213
-0.039808312
-0.039729535
-0.039650882
-0.039572352
-0.039493945
-0.039415662
-0.039337502
-0.039259464
-0.03918155
-0.039103757
-0.039026087
-0.038948539
-0.038871112
-0.038793807
-0.038716624
-0.038639562
-0.038562621
-0.038485801
-0.038409102
-0.038332523
-0.038256064
-0.038179726
-0.038103507
-0.038027409
-0.03795143
-0.03787557
-0.037799829
-0.037724207
-0.037648705
-0.03757332
-0.037498055
-0.037422907
-0.037347878
-0.037272966
-0.037198172
-0.037123496
-0.037048937
-0.036974495
-0.03690017
-0.036825962
-0.03675187
-0.036677895
-0.036604036
-0.036530293
-0.036456666
-0.036383155
-0.036309759
-0.036236478
-0.036163313
-0.036090262
-0.036017326
-0.035944505
-0.035871799
-0.035799206
-0.035726728
-0.035654363
-0.035582112
-0.035509975
-0.035437951
-0.03536604
-0.035294242
-0.035222557
-0.035150984
-0.035079524
-0.035008177
-0.034936941
-0.034865817
-0.034794805
-0.034723905
-0.034653116
-0.034582438
-0.034511871
-0.034441415
-0.03437107
-0.034300835
-0.034230711
-0.034160697
-0.034090792
-0.034020998
-0.033951313
-0.033881738
-0.033812272
-0.033742915
-0.033673668
-0.033604529
-0.033535498
-0.033466576
-0.033397763
-0.033329057
-0.03326046
-0.03319197
-0.033123587
-0.033055313
-0.032987145
-0.032919085
-0.032851131
-0.032783285
-0.032715544
-0.032647911
-0.032580383
-0.032512962
-0.032445646
-0.032378437
-0.032311333
-0.032244334
-0.032177441
-0.032110652
-0.032043969
-0.03197739
-0.031910916
-0.031844547
-0.031778282
-0.03171212
-0.031646063
-0.03158011
-0.03151426
-0.031448514
-0.031382871
-0.031317331
-0.031251894
-0.031186559
-0.031121328
-0.031056199
-0.030991172
-0.030926248
-0.030861425
-0.030796704
-0.030732085
-0.030667568
-0.030603152
-0.030538837
-0.030474623
-0.03041051
-0.030346498
-0.030282586
-0.030218775
-0.030155064
-0.030091453
-0.030027942
-0.029964531
-0.029901219
-0.029838007
-0.029774894
-0.029711881
-0.029648966
-0.02958615
-0.029523433
-0.029460814
-0.029398294
-0.029335872
-0.029273548
-0.029211322
-0.029149194
-0.029087164
-0.02902523
-0.028963395
-0.028901656
-0.028840014
-0.028778469
-0.028717021
-0.02865567
-0.028594414
-0.028533255
-0.028472192
-0.028411225
-0.028350354
-0.028289579
-0.028228899
-0.028168314
-0.028107824
-0.02804743
-0.02798713
-0.027926925
-0.027866815
-0.027806799
-0.027746878
-0.02768705
-0.027627317
-0.027567677
-0.027508131
-0.027448679
-0.02738932
-0.027330054
-0.027270882
-0.027211802
-0.027152816
-0.027093921
-0.02703512
-0.026976411
-0.026917794
-0.026859269
-0.026800836
-0.026742495
-0.026684246
-0.026626088
-0.026568021
-0.026510046
-0.026452161
-0.026394368
-0.026336666
-0.026279054
-0.026221533
-0.026164102
-0.026106761
-0.02604951
-0.02599235
-0.025935279
-0.025878297
-0.025821406
-0.025764603
-0.02570789
-0.025651266
-0.025594731
-0.025538285
-0.025481928
-0.025425659
-0.025369478
-0.025313386
-0.025257382
-0.025201466
-0.025145637
-0.025089897
-0.025034244
-0.024978678
-0.0249232
-0.024867809
-0.024812505
-0.024757287
-0.024702157
-0.024647113
-0.024592156
-0.024537285
-0.0244825
-0.024427801
-0.024373188
-0.024318661
-0.02426422
-0.024209864
-0.024155594
-0.024101408
-0.024047308
-0.023993293
-0.023939363
-0.023885518
-0.023831757
-0.023778081
-0.023724489
-0.023670981
-0.023617557
-0.023564217
-0.023510961
-0.023457789
-0.0234047
-0.023351695
-0.023298772
-0.023245933
-0.023193177
-0.023140504
-0.023087914
-0.023035406
-0.022982981
-0.022930638
-0.022878378
-0.022826199
-0.022774103
-0.022722088
-0.022670155
-0.022618304
-0.022566534
-0.022514845
-0.022463238
-0.022411711
-0.022360266
-0.022308902
-0.022257618
-0.022206415
-0.022155292
-0.022104249
-0.022053287
-0.022002405
-0.021951603
-0.02190088
-0.021850237
-0.021799674
-0.02174919
-0.021698786
-0.021648461
-0.021598214
-0.021548047
-0.021497959
-0.021447949
-0.021398018
-0.021348165
-0.021298391
-0.021248695
-0.021199076
-0.021149536
-0.021100074
-0.021050689
-0.021001382
-0.020952153
-0.020903001
-0.020853926
-0.020804928
-0.020756007
-0.020707163
-0.020658395
-0.020609705
-0.020561091
-0.020512553
-0.020464091
-0.020415706
-0.020367396
-0.020319163
-0.020271005
-0.020222923
-0.020174917
-0.020126985
-0.02007913
-0.020031349
-0.019983644
-0.019936013
-0.019888457
-0.019840976
-0.01979357
-0.019746238
-0.01969898
-0.019651797
-0.019604688
-0.019557652
-0.019510691
-0.019463804
-0.01941699
-0.019370249
-0.019323582
-0.019276989
-0.019230469
-0.019184021
-0.019137647
-0.019091346
-0.019045117
-0.018998961
-0.018952877
-0.018906866
-0.018860927
-0.018815061
-0.018769266
-0.018723543
-0.018677892
-0.018632313
-0.018586806
-0.01854137
-0.018496005
-0.018450712
-0.01840549
-0.018360338
-0.018315258
-0.018270249
-0.01822531
-0.018180442
-0.018135645
-0.018090917
-0.01804626
-0.018001674
-0.017957157
-0.01791271
-0.017868333
-0.017824026
-0.017779788
-0.01773562
-0.017691522
-0.017647492
-0.017603532
-0.017559641
-0.017515818
-0.017472065
-0.01742838
-0.017384764
-0.017341217
-0.017297738
-0.017254327
-0.017210985
-0.01716771
-0.017124504
-0.017081365
-0.017038294
-0.016995291
-0.016952356
-0.016909487
-0.016866687
-0.016823953
-0.016781287
-0.016738687
-0.016696155
-0.016653689
-0.01661129
-0.016568958
-0.016526692
-0.016484493
-0.01644236
-0.016400293
-0.016358292
-0.016316358
-0.016274489
-0.016232686
-0.016190948
-0.016149276
-0.01610767
-0.016066129
-0.016024653
-0.015983242
-0.015941897
-0.015900616
-0.0158594
-0.01581825
-0.015777163
-0.015736141
-0.015695184
-0.015654291
-0.015613462
-0.015572698
-0.015531997
-0.015491361
-0.015450788
-0.015410279
-0.015369834
-0.015329452
-0.015289133
-0.015248878
-0.015208687
-0.015168558
-0.015128492
-0.01508849
-0.01504855
-0.015008673
-0.014968858
-0.014929107
-0.014889417
-0.01484979
-0.014810225
-0.014770723
-0.014731282
-0.014691904
-0.014652587
-0.014613332
-0.014574139
-0.014535007
-0.014495937
-0.014456928
-0.01441798
-0.014379094
-0.014340269
-0.014301504
-0.014262801
-0.014224158
-0.014185577
-0.014147055
-0.014108595
-0.014070194
-0.014031854
-0.013993575
-0.013955355
-0.013917196
-0.013879096
-0.013841056
-0.013803076
-0.013765156
-0.013727295
-0.013689494
-0.013651752
-0.01361407
-0.013576446
-0.013538882
-0.013501377
-0.013463931
-0.013426543
-0.013389215
-0.013351945
-0.013314733
-0.01327758
-0.013240485
-0.013203449
-0.013166471
-0.013129551
-0.013092688
-0.013055884
-0.013019138
-0.012982449
-0.012945818
-0.012909245
-0.012872729
-0.01283627
-0.012799869
-0.012763525
-0.012727238
-0.012691008
-0.012654835
-0.012618718
-0.012582659
-0.012546656
-0.01251071
-0.01247482
-0.012438986
-0.012403209
-0.012367488
-0.012331823
-0.012296215
-0.012260662
-0.012225165
-0.012189723
-0.012154338
-0.012119008
-0.012083734
-0.012048515
-0.012013351
-0.011978242
-0.011943189
-0.011908191
-0.011873248
-0.011838359
-0.011803526
-0.011768747
-0.011734023
-0.011699353
-0.011664738
-0.011630177
-0.011595671
-0.011561219
-0.011526821
-0.011492477
-0.011458187
-0.01142395
-0.011389768
-0.011355639
-0.011321564
-0.011287542
-0.011253574
-0.01121966
-0.011185798
-0.01115199
-0.011118235
-0.011084533
-0.011050883
-0.011017287
-0.010983744
-0.010950253
-0.010916815
-0.010883429
-0.010850096
-0.010816815
-0.010783586
-0.01075041
-0.010717286
-0.010684213
-0.010651193
-0.010618225
-0.010585308
-0.010552443
-0.01051963
-0.010486869
-0.010454158
-0.0104215
-0.010388892
-0.010356336
-0.010323831
-0.010291377
-0.010258974
-0.010226622
-0.01019432
-0.01016207
-0.01012987
-0.010097721
-0.010065622
-0.010033573
-0.010001575
-0.009969628
-0.00993773
-0.009905883
-0.009874085
-0.009842338
-0.00981064
-0.009778993
-0.009747394
-0.009715846
-0.009684347
-0.009652898
-0.009621498
-0.009590147
-0.009558846
-0.009527594
-0.009496391
-0.009465237
-0.009434132
-0.009403075
-0.009372068
-0.009341109
-0.009310199
-0.009279338
-0.009248525
-0.00921776
-0.009187044
-0.009156376
-0.009125756
-0.009095184
-0.00906466
-0.009034185
-0.009003757
-0.008973377
-0.008943044
-0.00891276
-0.008882523
-0.008852333
-0.008822191
-0.008792096
-0.008762049
-0.008732048
-0.008702095
-0.008672189
-0.00864233
-0.008612518
-0.008582752
-0.008553034
-0.008523362
-0.008493736
-0.008464158
-0.008434625
-0.008405139
-0.0083757
-0.008346307
-0.008316959
-0.008287658
-0.008258403
-0.008229194
-0.008200031
-0.008170914
-0.008141842
-0.008112816
-0.008083836
-0.008054901
-0.008026012
-0.007997168
-0.007968369
-0.007939616
-0.007910908
-0.007882245
-0.007853627
-0.007825054
-0.007796525
-0.007768042
-0.007739603
-0.00771121
-0.00768286
-0.007654555
-0.007626295
-0.007598079
-0.007569908
-0.00754178
-0.007513697
-0.007485658
-0.007457663
-0.007429712
-0.007401805
-0.007373942
-0.007346122
-0.007318347
-0.007290614
-0.007262926
-0.007235281
-0.007207679
-0.007180121
-0.007152606
-0.007125134
-0.007097706
-0.00707032
-0.007042978
-0.007015678
-0.006988422
-0.006961208
-0.006934037
-0.006906909
-0.006879823
-0.00685278
-0.006825779
-0.006798821
-0.006771905
-0.006745032
-0.0067182
-0.006691411
-0.006664664
-0.006637959
-0.006611296
-0.006584674
-0.006558095
-0.006531557
-0.006505061
-0.006478607
-0.006452194
-0.006425823
-0.006399493
-0.006373204
-0.006346957
-0.006320751
-0.006294586
-0.006268463
-0.00624238
-0.006216338
-0.006190338
-0.006164378
-0.006138459
-0.00611258
-0.006086743
-0.006060945
-0.006035189
-0.006009473
-0.005983797
-0.005958162
-0.005932566
-0.005907012
-0.005881497
-0.005856022
-0.005830588
-0.005805193
-0.005779838
-0.005754523
-0.005729248
-0.005704012
-0.005678817
-0.00565366
-0.005628544
-0.005603466
-0.005578429
-0.00555343
-0.005528471
-0.005503551
-0.00547867
-0.005453828
-0.005429025
-0.005404261
-0.005379537
-0.005354851
-0.005330203
-0.005305595
-0.005281025
-0.005256494
-0.005232001
-0.005207547
-0.005183131
-0.005158753
-0.005134414
-0.005110113
-0.005085851
-0.005061626
-0.005037439
-0.005013291
-0.00498918
-0.004965107
-0.004941072
-0.004917075
-0.004893116
-0.004869194
-0.00484531
-0.004821463
-0.004797654
-0.004773882
-0.004750147
-0.00472645
-0.00470279
-0.004679167
-0.004655582
-0.004632033
-0.004608521
-0.004585047
-0.004561609
-0.004538208
-0.004514844
-0.004491516
-0.004468225
-0.004444971
-0.004421753
-0.004398572
-0.004375427
-0.004352319
-0.004329247
-0.004306211
-0.004283211
-0.004260247
-0.00423732
-0.004214428
-0.004191573
-0.004168753
-0.004145969
-0.004123221
-0.004100509
-0.004077833
-0.004055192
-0.004032586
-0.004010016
-0.003987482
-0.003964983
-0.003942519
-0.003920091
-0.003897698
-0.00387534
-0.003853017
-0.00383073
-0.003808477
-0.003786259
-0.003764076
-0.003741928
-0.003719815
-0.003697737
-0.003675693
-0.003653684
-0.003631709
-0.003609769
-0.003587864
-0.003565992
-0.003544156
-0.003522353
-0.003500585
-0.003478851
-0.003457151
-0.003435485
-0.003413854
-0.003392256
-0.003370692
-0.003349162
-0.003327666
-0.003306204
-0.003284775
-0.00326338
-0.003242019
-0.003220691
-0.003199397
-0.003178136
-0.003156908
-0.003135714
-0.003114554
-0.003093426
-0.003072332
-0.003051271
-0.003030242
-0.003009247
-0.002988285
-0.002967356
-0.00294646
-0.002925596
-0.002904766
-0.002883968
-0.002863203
-0.00284247
-0.00282177
-0.002801102
-0.002780467
-0.002759865
-0.002739294
-0.002718757
-0.002698251
-0.002677777
-0.002657336
-0.002636927
-0.00261655
-0.002596205
-0.002575892
-0.00255561
-0.002535361
-0.002515143
-0.002494958
-0.002474804
-0.002454681
-0.00243459
-0.002414531
-0.002394503
-0.002374507
-0.002354542
-0.002334609
-0.002314707
-0.002294836
-0.002274996
-0.002255188
-0.00223541
-0.002215664
-0.002195949
-0.002176264
-0.002156611
-0.002136989
-0.002117397
-0.002097836
-0.002078306
-0.002058806
-0.002039338
-0.002019899
-0.002000492
-0.001981114
-0.001961768
-0.001942451
-0.001923165
-0.001903909
-0.001884684
-0.001865489
-0.001846324
-0.001827189
-0.001808084
-0.001789009
-0.001769964
-0.001750949
-0.001731964
-0.001713008
-0.001694083
-0.001675187
-0.001656321
-0.001637484
-0.001618677
-0.0015999
-0.001581152
-0.001562434
-0.001543745
-0.001525085
-0.001506455
-0.001487854
-0.001469282
-0.001450739
-0.001432226
-0.001413741
-0.001395286
-0.00137686
-0.001358462
-0.001340094
-0.001321754
-0.001303443
-0.001285161
-0.001266908
-0.001248683
-0.001230487
-0.00121232
-0.001194181
-0.00117607
-0.001157988
-0.001139935
-0.00112191
-0.001103913
-0.001085944
-0.001068004
-0.001050092
-0.001032208
-0.001014352
-0.000996524
-0.000978724
-0.000960952
-0.000943208
-0.000925492
-0.000907804
-0.000890143
-0.00087251
-0.000854905
-0.000837328
-0.000819778
-0.000802256
-0.000784761
-0.000767294
-0.000749854
-0.000732442
-0.000715057
-0.000697699
-0.000680369
-0.000663066
-0.00064579
-0.000628541
-0.000611319
-0.000594125
-0.000576957
-0.000559816
-0.000542702
-0.000525616
-0.000508555
-0.000491522
-0.000474516
-0.000457536
-0.000440583
-0.000423657
-0.000406757
-0.000389883
-0.000373037
-0.000356216
-0.000339422
-0.000322655
-0.000305914
-0.000289199
-0.00027251
-0.000255848
-0.000239212
-0.000222602
-0.000206018
-0.00018946
-0.000172928
-0.000156422
-0.000139942
-0.000123488
-0.00010706
-9.0657e-05
-7.428e-05
-5.7929e-05
-4.1604e-05
-2.5305e-05
-9.031e-06
7.223e-06
2.3494e-05
3.9791e-05
5.6113e-05
7.2461e-05
8.8835e-05
0.000105235
0.00012166
0.000138111
0.000154588
0.000171091
0.00018762
0.000204175
0.000220756
0.000237364
0.000253997
0.000270656
0.000287342
0.000304054
0.000320792
0.000337557
0.000354348
0.000371165
0.000388009
0.000404879
0.000421776
0.0004387
0.00045565
0.000472627
0.00048963
0.00050666
0.000523717
0.000540801
0.000557912
0.00057505
0.000592214
0.000609406
0.000626625
0.000643871
0.000661144
0.000678444
0.000695771
0.000713126
0.000730508
0.000747917
0.000765354
0.000782818
0.000800309
0.000817829
0.000835375
0.00085295
0.000870552
0.000888181
0.000905839
0.000923524
0.000941237
0.000958978
0.000976747
0.000994543
0.001012368
0.001030221
0.001048102
0.001066011
0.001083948
0.001101914
0.001119907
0.001137929
0.00115598
0.001174059
0.001192166
0.001210302
0.001228466
0.001246659
0.00126488
0.00128313
0.001301409
0.001319717
0.001338053
0.001356419
0.001374813
0.001393236
0.001411688
0.001430169
0.00144868
0.001467219
0.001485788
0.001504385
0.001523012
0.001541669
0.001560354
0.00157907
0.001597814
0.001616588
0.001635392
0.001654225
0.001673088
0.00169198
0.001710903
0.001729855
0.001748836
0.001767848
0.00178689
0.001805961
0.001825063
0.001844195
0.001863356
0.001882548
0.00190177
0.001921023
0.001940305
0.001959618
0.001978962
0.001998336
0.00201774
0.002037175
0.00205664
0.002076136
0.002095663
0.002115221
0.002134809
0.002154428
0.002174078
0.002193759
0.00221347
0.002233213
0.002252987
0.002272792
0.002292628
0.002312496
0.002332395
0.002352324
0.002372286
0.002392279
0.002412303
0.002432359
0.002452446
0.002472565
0.002492715
0.002512898
0.002533112
0.002553357
0.002573635
0.002593945
0.002614286
0.00263466
0.002655065
0.002675503
0.002695973
0.002716475
0.002737009
0.002757576
0.002778175
0.002798807
0.002819471
0.002840167
0.002860896
0.002881658
0.002902452
0.002923279
0.002944139
0.002965031
0.002985957
0.003006915
0.003027907
0.003048931
0.003069988
0.003091079
0.003112203
0.00313336
0.00315455
0.003175774
0.003197031
0.003218322
0.003239646
0.003261003
0.003282395
0.003303819
0.003325278
0.00334677
0.003368297
0.003389857
0.003411451
0.003433079
0.003454741
0.003476437
0.003498167
0.003519931
0.00354173
0.003563563
0.00358543
0.003607332
0.003629268
0.003651239
0.003673244
0.003695284
0.003717359
0.003739468
0.003761612
0.003783791
0.003806005
0.003828254
0.003850538
0.003872856
0.00389521
0.0039176
0.003940024
0.003962484
0.003984979
0.004007509
0.004030075
0.004052677
0.004075314
0.004097986
0.004120694
0.004143438
0.004166218
0.004189034
0.004211885
0.004234773
0.004257696
0.004280656
0.004303652
0.004326684
0.004349752
0.004372856
0.004395997
0.004419174
0.004442388
0.004465638
0.004488925
0.004512248
0.004535608
0.004559005
0.004582439
0.00460591
0.004629417
0.004652962
0.004676543
0.004700162
0.004723818
0.004747511
0.004771241
0.004795009
0.004818814
0.004842657
0.004866537
0.004890454
0.00491441
0.004938403
0.004962433
0.004986502
0.005010608
0.005034753
0.005058935
0.005083155
0.005107414
0.00513171
0.005156045
0.005180419
0.00520483
0.00522928
0.005253769
0.005278296
0.005302861
0.005327465
0.005352108
0.00537679
0.005401511
0.00542627
0.005451068
0.005475906
0.005500782
0.005525698
0.005550653
0.005575647
0.005600681
0.005625754
0.005650866
0.005676018
0.005701209
0.00572644
0.005751711
0.005777021
0.005802372
0.005827762
0.005853192
0.005878663
0.005904173
0.005929723
0.005955314
0.005980945
0.006006616
0.006032328
0.00605808
0.006083872
0.006109706
0.00613558
0.006161494
0.006187449
0.006213446
0.006239483
0.006265561
0.00629168
0.00631784
0.006344042
0.006370284
0.006396568
0.006422893
0.00644926
0.006475668
0.006502118
0.006528609
0.006555142
0.006581717
0.006608334
0.006634992
0.006661693
0.006688435
0.00671522
0.006742046
0.006768915
0.006795826
0.00682278
0.006849776
0.006876814
0.006903895
0.006931019
0.006958185
0.006985394
0.007012646
0.007039941
0.007067278
0.007094659
0.007122083
0.00714955
0.00717706
0.007204613
0.00723221
0.00725985
0.007287534
0.007315261
0.007343032
0.007370847
0.007398705
0.007426607
0.007454553
0.007482543
0.007510577
0.007538656
0.007566778
0.007594945
0.007623156
0.007651411
0.007679711
0.007708055
0.007736444
0.007764878
0.007793356
0.00782188
0.007850448
0.007879061
0.007907719
0.007936422
0.00796517
0.007993964
0.008022803
0.008051687
0.008080617
0.008109592
0.008138613
0.008167679
0.008196792
0.00822595
0.008255154
0.008284403
0.008313699
0.008343041
0.00837243
0.008401864
0.008431345
0.008460872
0.008490445
0.008520066
0.008549732
0.008579446
0.008609206
0.008639013
0.008668867
0.008698768
0.008728716
0.008758711
0.008788753
0.008818843
0.008848979
0.008879164
0.008909396
0.008939675
0.008970002
0.009000377
0.009030799
0.00906127
0.009091788
0.009122355
0.009152969
0.009183632
0.009214343
0.009245102
0.009275909
0.009306766
0.00933767
0.009368624
0.009399626
0.009430676
0.009461776
0.009492925
0.009524122
0.009555369
0.009586665
