OpenDRT_v1.0-2.0_full-config_v2/transfer_functions/oetf_xiaomi_log_to_linear.spi1d
Version 1
From -0.15 1.2
Length 8192
Components 1
{
-0.09023729
-0.09023729
-0.09023729
-0.09023729
-0.09023729
-0.09023729
-0.09023729
-0.09023729
-0.09023729
-0.09023729
-0.09023729
-0.09023729
-0.09023729
-0.09023729
-0.09023729
-0.09023729
-0.09023729
-0.09023729
-0.09023729
-0.09023729
-0.09023729
-0.09023729
-0.09023729
-0.09023729
-0.09023729
-0.09023729
-0.09023729
-0.09023729
-0.09023729
-0.09023729
-0.09023729
-0.09023729
-0.09023729
-0.09023729
-0.09023729
-0.09023729
-0.09023729
-0.09023729
-0.09023729
-0.09023729
-0.09023729
-0.09023729
-0.09023729
-0.09023729
-0.09023729
-0.09023729
-0.09023729
-0.09023729
-0.09023729
-0.09023729
-0.09023729
-0.09023729
-0.09023729
-0.09023729
-0.09023729
-0.09023729
-0.09023729
-0.09023729
-0.09023729
-0.09023729
-0.09023729
-0.09023729
-0.09023729
-0.09023729
-0.09023729
-0.09023729
-0.09023729
-0.09023729
-0.09023729
-0.09023729
-0.09023729
-0.09023729
-0.09023729
-0.09023729
-0.09023729
-0.09023729
-0.09023729
-0.09023729
-0.09023729
-0.09023729
-0.09023729
-0.09023729
-0.09023729
-0.09023729
-0.09023729
-0.09023729
-0.09023729
-0.09023729
-0.09023729
-0.09023729
-0.09023729
-0.09023729
-0.09023729
-0.09023729
-0.09023729
-0.09023729
-0.09023729
-0.09023729
-0.09023729
-0.09023729
-0.09023729
-0.09023729
-0.09023729
-0.09023729
-0.09023729
-0.09023729
-0.09023729
-0.09023729
-0.09023729
-0.09023729
-0.09023729
-0.09023729
-0.09023729
-0.09023729
-0.09023729
-0.09023729
-0.09023729
-0.09023729
-0.09023729
-0.09023729
-0.09023729
-0.09023729
-0.09023729
-0.09023729
-0.09023729
-0.09023729
-0.09023729
-0.09023729
-0.09023729
-0.09023729
-0.09023729
-0.09023729
-0.09023729
-0.09023729
-0.09023729
-0.09023729
-0.09023729
-0.09023729
-0.09023729
-0.09023729
-0.09023729
-0.09023729
-0.09023729
-0.09023729
-0.09023729
-0.09023729
-0.09023729
-0.09023729
-0.09023729
-0.09023729
-0.09023729
-0.09023729
-0.09023729
-0.09023729
-0.09023729
-0.09023729
-0.09023729
-0.09023729
-0.09023729
-0.09023729
-0.09023729
-0.09023729
-0.09023729
-0.09023729
-0.09023729
-0.09023729
-0.09023729
-0.09023729
-0.09023729
-0.09023729
-0.09023729
-0.09023729
-0.09023729
-0.09023729
-0.09023729
-0.09023729
-0.09023729
-0.09023729
-0.09023729
-0.09023729
-0.09023729
-0.09023729
-0.09023729
-0.09023729
-0.09023729
-0.09023729
-0.09023729
-0.09023729
-0.09023729
-0.09023729
-0.09023729
-0.09023729
-0.09023729
-0.09023729
-0.09023729
-0.09023729
-0.09023729
-0.09023729
-0.09023729
-0.09023729
-0.09023729
-0.09023729
-0.09023729
-0.09023729
-0.09023729
-0.09023729
-0.09023729
-0.09023729
-0.09023729
-0.09023729
-0.09023729
-0.09023729
-0.09023729
-0.09023729
-0.09023729
-0.09023729
-0.09023729
-0.09023729
-0.09023729
-0.09023729
-0.09023729
-0.09023729
-0.09023729
-0.09023729
-0.09023729
-0.09023729
-0.09023729
-0.09023729
-0.09023729
-0.09023729
-0.09023729
-0.09023729
-0.09023729
-0.09023729
-0.09023729
-0.09023729
-0.09023729
-0.09023729
-0.09023729
-0.09023729
-0.09023729
-0.09023729
-0.09023729
-0.09023729
-0.09023729
-0.09023729
-0.09023729
-0.09023729
-0.09023729
-0.09023729
-0.09023729
-0.09023729
-0.09023729
-0.09023729
-0.09023729
-0.09023729
-0.09023729
-0.09023729
-0.09023729
-0.09023729
-0.09023729
-0.09023729
-0.09023729
-0.09023729
-0.09023729
-0.09023729
-0.09023729
-0.09023729
-0.09023729
-0.09023729
-0.09023729
-0.09023729
-0.09023729
-0.09023729
-0.09023729
-0.09023729
-0.09023729
-0.09023729
-0.09023729
-0.09023729
-0.09023729
-0.09023729
-0.09023729
-0.09023729
-0.09023729
-0.09023729
-0.09023729
-0.09023729
-0.09023729
-0.09023729
-0.09023729
-0.09023729
-0.09023729
-0.09023729
-0.09023729
-0.09023729
-0.09023729
-0.09023729
-0.09023729
-0.09023729
-0.09023729
-0.09023729
-0.09023729
-0.09023729
-0.09023729
-0.09023729
-0.09023729
-0.09023729
-0.09023729
-0.09023729
-0.09023729
-0.09023729
-0.09023729
-0.09023729
-0.09023729
-0.09023729
-0.09023729
-0.09023729
-0.09023729
-0.09023729
-0.09023729
-0.09023729
-0.09023729
-0.09023729
-0.09023729
-0.09023729
-0.09023729
-0.09023729
-0.09023729
-0.09023729
-0.09023729
-0.09023729
-0.09023729
-0.09023729
-0.09023729
-0.09023729
-0.09023729
-0.09023729
-0.09023729
-0.09023729
-0.09023729
-0.09023729
-0.09023729
-0.09023729
-0.09023729
-0.09023729
-0.09023729
-0.09023729
-0.09023729
-0.09023729
-0.09023729
-0.09023729
-0.09023729
-0.09023729
-0.09023729
-0.09023729
-0.09023729
-0.09023729
-0.09023729
-0.09023729
-0.09023729
-0.09023729
-0.09023729
-0.09023729
-0.09023729
-0.09023729
-0.09023729
-0.09023729
-0.09023729
-0.09023729
-0.09023729
-0.09023729
-0.09023729
-0.09023729
-0.09023729
-0.09023729
-0.09023729
-0.09023729
-0.09023729
-0.09023729
-0.09023729
-0.09023729
-0.09023729
-0.09023729
-0.09023729
-0.09023729
-0.09023729
-0.09023729
-0.09023729
-0.09023729
-0.09023729
-0.09023729
-0.09023729
-0.09023729
-0.09023729
-0.09023729
-0.09023729
-0.09023729
-0.09023729
-0.09023729
-0.09023729
-0.09023729
-0.09023729
-0.09023729
-0.09023729
-0.09023729
-0.09023729
-0.09023729
-0.09023729
-0.09023729
-0.09023729
-0.09023729
-0.09023729
-0.09023729
-0.09023729
-0.09023729
-0.09023729
-0.09023729
-0.09023729
-0.09023729
-0.09023729
-0.09023729
-0.09023729
-0.09023729
-0.09023729
-0.09023729
-0.09023729
-0.09023729
-0.09023729
-0.09023729
-0.09023729
-0.09023729
-0.09023729
-0.09023729
-0.09023729
-0.09023729
-0.09023729
-0.09023729
-0.09023729
-0.09023729
-0.09023729
-0.09023729
-0.09023729
-0.09023729
-0.09023729
-0.09023729
-0.09023729
-0.09023729
-0.09023729
-0.09023729
-0.09023729
-0.09023729
-0.09023729
-0.09023729
-0.09023729
-0.09023729
-0.09023729
-0.09023729
-0.09023729
-0.09023729
-0.09023729
-0.09023729
-0.09023729
-0.09023729
-0.09023729
-0.09023729
-0.09023729
-0.09023729
-0.09023729
-0.09023729
-0.09023729
-0.09023729
-0.09023729
-0.09023729
-0.09023729
-0.09023729
-0.09023729
-0.09023729
-0.09023729
-0.09023729
-0.09023729
-0.09023729
-0.09023729
-0.09023729
-0.09023729
-0.09023729
-0.09023729
-0.09023729
-0.09023729
-0.09023729
-0.09023729
-0.09023729
-0.09023729
-0.09023729
-0.09023729
-0.09023729
-0.09023729
-0.09023729
-0.09023729
-0.09023729
-0.09023729
-0.09023729
-0.09023729
-0.09023729
-0.09023729
-0.09023729
-0.09023729
-0.09023729
-0.09023729
-0.09023729
-0.09023729
-0.09023729
-0.09023729
-0.09023729
-0.09023729
-0.09023729
-0.09023729
-0.09023729
-0.09023729
-0.09023729
-0.09023729
-0.09023729
-0.09023729
-0.09023729
-0.09023729
-0.09023729
-0.09023729
-0.09023729
-0.09023729
-0.09023729
-0.09023729
-0.09023729
-0.09023729
-0.09023729
-0.09023729
-0.09023729
-0.09023729
-0.09023729
-0.09023729
-0.09023729
-0.09023729
-0.09023729
-0.09023729
-0.09023729
-0.09023729
-0.09023729
-0.09023729
-0.09023729
-0.09023729
-0.09023729
-0.09023729
-0.09023729
-0.09023729
-0.09023729
-0.09023729
-0.09023729
-0.09023729
-0.09023729
-0.09023729
-0.09023729
-0.09023729
-0.09023729
-0.09023729
-0.09023729
-0.09023729
-0.09023729
-0.09023729
-0.09023729
-0.09023729
-0.09023729
-0.09023729
-0.09023729
-0.09023729
-0.09023729
-0.09023729
-0.09023729
-0.09023729
-0.09023729
-0.09023729
-0.09023729
-0.09023729
-0.09023729
-0.09023729
-0.09023729
-0.09023729
-0.09023729
-0.09023729
-0.09023729
-0.09023729
-0.09023729
-0.09023729
-0.09023729
-0.09023729
-0.09023729
-0.09023729
-0.09023729
-0.09023729
-0.09023729
-0.09023729
-0.09023729
-0.09023729
-0.09023729
-0.09023729
-0.09023729
-0.09023729
-0.09023729
-0.09023729
-0.09023729
-0.09023729
-0.09023729
-0.09023729
-0.09023729
-0.09023729
-0.09023729
-0.09023729
-0.09023729
-0.09023729
-0.09023729
-0.09023729
-0.09023729
-0.09023729
-0.09023729
-0.09023729
-0.09023729
-0.09023729
-0.09023729
-0.09023729
-0.09023729
-0.09023729
-0.09023729
-0.09023729
-0.09023729
-0.09023729
-0.09023729
-0.09023729
-0.09023729
-0.09023729
-0.09023729
-0.09023729
-0.09023729
-0.09023729
-0.09023729
-0.09023729
-0.09023729
-0.09023729
-0.09023729
-0.09023729
-0.09023729
-0.09023729
-0.09023729
-0.09023729
-0.09023729
-0.09023729
-0.09023729
-0.09023729
-0.09023729
-0.09023729
-0.09023729
-0.09023729
-0.09023729
-0.09023729
-0.09023729
-0.09023729
-0.09023729
-0.09023729
-0.09023729
-0.09023729
-0.09023729
-0.09023729
-0.09023729
-0.09023729
-0.09023729
-0.09023729
-0.09023729
-0.09023729
-0.09023729
-0.09023729
-0.09023729
-0.09023729
-0.09023729
-0.09023729
-0.09023729
-0.09023729
-0.09023729
-0.09023729
-0.09023729
-0.09023729
-0.09023729
-0.09023729
-0.09023729
-0.09023729
-0.09023729
-0.09023729
-0.09023729
-0.09023729
-0.09023729
-0.09023729
-0.09023729
-0.09023729
-0.09023729
-0.09023729
-0.09023729
-0.09023729
-0.09023729
-0.09023729
-0.09023729
-0.09023729
-0.09023729
-0.09023729
-0.09023729
-0.09023729
-0.09023729
-0.09023729
-0.09023729
-0.09023729
-0.09023729
-0.09023729
-0.09023729
-0.09023729
-0.09023729
-0.09023729
-0.09023729
-0.09023729
-0.09023729
-0.09023729
-0.09023729
-0.09023729
-0.09023729
-0.09023729
-0.09023729
-0.09023729
-0.09023729
-0.09023729
-0.09023729
-0.09023729
-0.09023729
-0.09023729
-0.09023729
-0.09023729
-0.09023729
-0.09023729
-0.09023729
-0.09023729
-0.09023729
-0.09023729
-0.09023729
-0.09023729
-0.09023729
-0.09023729
-0.09023729
-0.09023729
-0.09023729
-0.09023729
-0.09023729
-0.09023729
-0.09023729
-0.09023729
-0.09023729
-0.09023729
-0.09023729
-0.09023729
-0.09023729
-0.09023729
-0.09023729
-0.09023729
-0.09023729
-0.09023729
-0.09023729
-0.09023729
-0.09023729
-0.09023729
-0.09023729
-0.09023729
-0.09023729
-0.09023729
-0.09023729
-0.09023729
-0.09023729
-0.09023729
-0.09023729
-0.09023729
-0.09023729
-0.09023729
-0.09023729
-0.09023729
-0.09023729
-0.09023729
-0.09023729
-0.09023729
-0.09023729
-0.09023729
-0.09023729
-0.09023729
-0.09023729
-0.09023729
-0.09023729
-0.09023729
-0.09023729
-0.09023729
-0.09023729
-0.09023729
-0.09023729
-0.09023729
-0.09023729
-0.09023729
-0.09023729
-0.09023729
-0.09023729
-0.09023729
-0.09023729
-0.09023729
-0.09023729
-0.09023729
-0.09023729
-0.09023729
-0.09023729
-0.09023729
-0.09023729
-0.09023729
-0.09023729
-0.09023729
-0.09023729
-0.09023729
-0.09023729
-0.09023729
-0.09023729
-0.09023729
-0.09023729
-0.09023729
-0.09023729
-0.09023729
-0.09023729
-0.09023729
-0.09023729
-0.09023729
-0.09023729
-0.09023729
-0.09023729
-0.09023729
-0.09023729
-0.09023729
-0.09023729
-0.09023729
-0.09023729
-0.09023729
-0.09023729
-0.09023729
-0.09023729
-0.09023729
-0.09023729
-0.09023729
-0.09023729
-0.09023729
-0.09023729
-0.09023729
-0.09023729
-0.09023729
-0.09023729
-0.09023729
-0.09023729
-0.09023729
-0.09023729
-0.09023729
-0.09023729
-0.09023729
-0.09023729
-0.09023729
-0.09023729
-0.09023729
-0.09023729
-0.09023729
-0.09023729
-0.09023729
-0.09023729
-0.09023729
-0.09023729
-0.09023729
-0.09023729
-0.09023729
-0.09023729
-0.09023729
-0.09023729
-0.09023729
-0.09023729
-0.09023729
-0.09023729
-0.09023729
-0.09023729
-0.09023729
-0.09023729
-0.09023729
-0.09023729
-0.09023729
-0.09023729
-0.09023729
-0.09023729
-0.09023729
-0.09023729
-0.09023729
-0.09023729
-0.09023729
-0.09023729
-0.09023729
-0.09023729
-0.09023729
-0.09023729
-0.09023729
-0.09023729
-0.09023729
-0.09023729
-0.09023729
-0.087392704
-0.086090629
-0.08510914
-0.084287412
-0.083566145
-0.082915589
-0.082318298
-0.081763002
-0.081241919
-0.080749413
-0.080281239
-0.079834114
-0.079405429
-0.078993077
-0.07859532
-0.078210712
-0.077838027
-0.077476223
-0.077124397
-0.076781767
-0.076447648
-0.076121435
-0.075802593
-0.075490643
-0.075185156
-0.074885747
-0.074592067
-0.0743038
-0.074020655
-0.07374237
-0.073468703
-0.073199431
-0.072934349
-0.072673268
-0.07241601
-0.072162414
-0.071912327
-0.071665607
-0.071422123
-0.071181749
-0.07094437
-0.070709876
-0.070478165
-0.070249139
-0.070022709
-0.069798787
-0.069577291
-0.069358146
-0.069141276
-0.068926614
-0.068714092
-0.068503648
-0.068295223
-0.068088759
-0.067884201
-0.067681499
-0.067480603
-0.067281464
-0.067084038
-0.066888281
-0.066694152
-0.066501611
-0.066310619
-0.066121139
-0.065933137
-0.065746578
-0.065561429
-0.065377659
-0.065195238
-0.065014136
-0.064834325
-0.064655778
-0.064478469
-0.064302372
-0.064127462
-0.063953716
-0.063781112
-0.063609626
-0.063439237
-0.063269925
-0.06310167
-0.062934451
-0.06276825
-0.062603049
-0.06243883
-0.062275575
-0.062113267
-0.061951891
-0.061791431
-0.06163187
-0.061473195
-0.06131539
-0.061158442
-0.061002336
-0.060847059
-0.060692598
-0.060538941
-0.060386075
-0.060233987
-0.060082667
-0.059932102
-0.059782281
-0.059633194
-0.059484829
-0.059337177
-0.059190228
-0.05904397
-0.058898395
-0.058753493
-0.058609255
-0.058465672
-0.058322735
-0.058180435
-0.058038764
-0.057897713
-0.057757275
-0.057617442
-0.057478206
-0.057339558
-0.057201493
-0.057064003
-0.056927079
-0.056790717
-0.056654908
-0.056519646
-0.056384925
-0.056250737
-0.056117078
-0.055983939
-0.055851317
-0.055719204
-0.055587594
-0.055456483
-0.055325864
-0.055195732
-0.055066081
-0.054936907
-0.054808203
-0.054679966
-0.054552189
-0.054424868
-0.054297998
-0.054171575
-0.054045593
-0.053920048
-0.053794936
-0.053670251
-0.053545991
-0.053422149
-0.053298723
-0.053175708
-0.0530531
-0.052930895
-0.052809089
-0.052687678
-0.052566659
-0.052446026
-0.052325778
-0.05220591
-0.052086419
-0.0519673
-0.051848552
-0.051730169
-0.051612149
-0.051494489
-0.051377185
-0.051260234
-0.051143633
-0.051027379
-0.050911468
-0.050795898
-0.050680666
-0.050565768
-0.050451202
-0.050336965
-0.050223055
-0.050109467
-0.049996201
-0.049883252
-0.049770618
-0.049658297
-0.049546286
-0.049434583
-0.049323184
-0.049212088
-0.049101292
-0.048990794
-0.048880591
-0.048770681
-0.048661061
-0.04855173
-0.048442684
-0.048333923
-0.048225443
-0.048117242
-0.048009318
-0.04790167
-0.047794295
-0.047687191
-0.047580355
-0.047473787
-0.047367483
-0.047261442
-0.047155663
-0.047050142
-0.046944879
-0.046839871
-0.046735116
-0.046630613
-0.04652636
-0.046422355
-0.046318597
-0.046215082
-0.046111811
-0.046008781
-0.04590599
-0.045803437
-0.045701121
-0.045599038
-0.045497189
-0.045395571
-0.045294183
-0.045193023
-0.045092089
-0.044991381
-0.044890896
-0.044790634
-0.044690592
-0.04459077
-0.044491165
-0.044391777
-0.044292604
-0.044193644
-0.044094897
-0.04399636
-0.043898034
-0.043799915
-0.043702003
-0.043604297
-0.043506795
-0.043409496
-0.043312398
-0.043215502
-0.043118804
-0.043022305
-0.042926002
-0.042829895
-0.042733982
-0.042638263
-0.042542736
-0.0424474
-0.042352253
-0.042257296
-0.042162525
-0.042067942
-0.041973543
-0.041879329
-0.041785298
-0.041691449
-0.041597782
-0.041504294
-0.041410985
-0.041317855
-0.041224901
-0.041132123
-0.04103952
-0.040947092
-0.040854836
-0.040762752
-0.040670839
-0.040579097
-0.040487523
-0.040396118
-0.04030488
-0.040213809
-0.040122903
-0.040032161
-0.039941584
-0.039851169
-0.039760916
-0.039670824
-0.039580893
-0.039491121
-0.039401507
-0.039312051
-0.039222752
-0.039133609
-0.039044621
-0.038955788
-0.038867108
-0.038778581
-0.038690206
-0.038601983
-0.038513909
-0.038425986
-0.038338211
-0.038250585
-0.038163106
-0.038075774
-0.037988588
-0.037901547
-0.037814651
-0.037727898
-0.037641288
-0.037554821
-0.037468496
-0.037382311
-0.037296267
-0.037210363
-0.037124597
-0.03703897
-0.03695348
-0.036868127
-0.036782911
-0.03669783
-0.036612884
-0.036528073
-0.036443395
-0.03635885
-0.036274438
-0.036190157
-0.036106008
-0.03602199
-0.035938101
-0.035854342
-0.035770711
-0.035687209
-0.035603835
-0.035520587
-0.035437466
-0.035354471
-0.035271601
-0.035188856
-0.035106235
-0.035023738
-0.034941364
-0.034859112
-0.034776982
-0.034694974
-0.034613087
-0.03453132
-0.034449673
-0.034368145
-0.034286736
-0.034205445
-0.034124272
-0.034043217
-0.033962278
-0.033881455
-0.033800748
-0.033720156
-0.03363968
-0.033559317
-0.033479068
-0.033398932
-0.03331891
-0.033238999
-0.033159201
-0.033079514
-0.032999937
-0.032920472
-0.032841116
-0.03276187
-0.032682733
-0.032603705
-0.032524784
-0.032445972
-0.032367267
-0.032288669
-0.032210177
-0.032131792
-0.032053512
-0.031975337
-0.031897267
-0.031819301
-0.031741439
-0.031663681
-0.031586025
-0.031508473
-0.031431023
-0.031353674
-0.031276427
-0.031199281
-0.031122236
-0.031045291
-0.030968446
-0.030891701
-0.030815054
-0.030738506
-0.030662057
-0.030585706
-0.030509452
-0.030433296
-0.030357236
-0.030281273
-0.030205406
-0.030129634
-0.030053959
-0.029978378
-0.029902891
-0.0298275
-0.029752202
-0.029676997
-0.029601887
-0.029526868
-0.029451943
-0.02937711
-0.029302368
-0.029227719
-0.02915316
-0.029078692
-0.029004315
-0.028930029
-0.028855832
-0.028781724
-0.028707706
-0.028633777
-0.028559936
-0.028486184
-0.02841252
-0.028338943
-0.028265454
-0.028192052
-0.028118736
-0.028045507
-0.027972364
-0.027899307
-0.027826336
-0.027753449
-0.027680648
-0.027607931
-0.027535299
-0.02746275
-0.027390285
-0.027317904
-0.027245606
-0.027173391
-0.027101258
-0.027029208
-0.02695724
-0.026885353
-0.026813548
-0.026741825
-0.026670182
-0.026598619
-0.026527138
-0.026455736
-0.026384414
-0.026313172
-0.026242009
-0.026170925
-0.02609992
-0.026028993
-0.025958145
-0.025887374
-0.025816681
-0.025746066
-0.025675528
-0.025605068
-0.025534683
-0.025464376
-0.025394144
-0.025323989
-0.025253909
-0.025183905
-0.025113976
-0.025044122
-0.024974342
-0.024904638
-0.024835007
-0.024765451
-0.024695968
-0.024626559
-0.024557224
-0.024487961
-0.024418772
-0.024349655
-0.02428061
-0.024211638
-0.024142738
-0.024073909
-0.024005152
-0.023936466
-0.023867851
-0.023799308
-0.023730834
-0.023662432
-0.023594099
-0.023525837
-0.023457644
-0.023389521
-0.023321467
-0.023253482
-0.023185566
-0.023117719
-0.023049941
-0.02298223
-0.022914588
-0.022847014
-0.022779507
-0.022712068
-0.022644697
-0.022577392
-0.022510154
-0.022442983
-0.022375878
-0.02230884
-0.022241868
-0.022174961
-0.022108121
-0.022041346
-0.021974636
-0.021907991
-0.021841411
-0.021774896
-0.021708446
-0.02164206
-0.021575738
-0.02150948
-0.021443286
-0.021377156
-0.021311089
-0.021245085
-0.021179144
-0.021113267
-0.021047452
-0.020981699
-0.020916009
-0.020850381
-0.020784815
-0.020719311
-0.020653869
-0.020588488
-0.020523168
-0.02045791
-0.020392712
-0.020327576
-0.0202625
-0.020197484
-0.020132529
-0.020067634
-0.020002799
-0.019938023
-0.019873307
-0.019808651
-0.019744054
-0.019679516
-0.019615037
-0.019550617
-0.019486256
-0.019421953
-0.019357709
-0.019293522
-0.019229394
-0.019165323
-0.019101311
-0.019037355
-0.018973457
-0.018909617
-0.018845833
-0.018782107
-0.018718437
-0.018654824
-0.018591267
-0.018527767
-0.018464323
-0.018400934
-0.018337602
-0.018274326
-0.018211105
-0.018147939
-0.018084829
-0.018021774
-0.017958774
-0.017895829
-0.017832938
-0.017770103
-0.017707321
-0.017644594
-0.017581921
-0.017519302
-0.017456737
-0.017394226
-0.017331768
-0.017269364
-0.017207013
-0.017144715
-0.01708247
-0.017020278
-0.016958139
-0.016896053
-0.016834019
-0.016772038
-0.016710108
-0.016648231
-0.016586406
-0.016524633
-0.016462911
-0.016401241
-0.016339623
-0.016278056
-0.01621654
-0.016155075
-0.016093661
-0.016032298
-0.015970986
-0.015909724
-0.015848512
-0.015787351
-0.015726241
-0.01566518
-0.015604169
-0.015543208
-0.015482297
-0.015421435
-0.015360623
-0.01529986
-0.015239147
-0.015178482
-0.015117867
-0.0150573
-0.014996782
-0.014936313
-0.014875892
-0.01481552
-0.014755196
-0.01469492
-0.014634692
-0.014574512
-0.01451438
-0.014454296
-0.014394259
-0.01433427
-0.014274328
-0.014214434
-0.014154586
-0.014094786
-0.014035032
-0.013975326
-0.013915666
-0.013856053
-0.013796486
-0.013736965
-0.013677491
-0.013618063
-0.013558681
-0.013499345
-0.013440055
-0.01338081
-0.013321612
-0.013262458
-0.01320335
-0.013144288
-0.013085271
-0.013026298
-0.012967371
-0.012908489
-0.012849651
-0.012790859
-0.01273211
-0.012673407
-0.012614747
-0.012556132
-0.012497562
-0.012439035
-0.012380552
-0.012322113
-0.012263718
-0.012205367
-0.012147059
-0.012088795
-0.012030574
-0.011972397
-0.011914262
-0.011856171
-0.011798123
-0.011740118
-0.011682155
-0.011624236
-0.011566359
-0.011508524
-0.011450732
-0.011392983
-0.011335275
-0.01127761
-0.011219987
-0.011162406
-0.011104867
-0.011047369
-0.010989913
-0.010932499
-0.010875127
-0.010817796
-0.010760506
-0.010703257
-0.01064605
-0.010588884
-0.010531759
-0.010474674
-0.010417631
-0.010360628
-0.010303666
-0.010246745
-0.010189864
-0.010133023
-0.010076223
-0.010019462
-0.009962742
-0.009906062
-0.009849422
-0.009792822
-0.009736262
-0.009679741
-0.00962326
-0.009566819
-0.009510417
-0.009454054
-0.009397731
-0.009341447
-0.009285202
-0.009228996
-0.009172829
-0.009116701
-0.009060612
-0.009004562
-0.00894855
-0.008892576
-0.008836642
-0.008780745
-0.008724887
-0.008669067
-0.008613286
-0.008557542
-0.008501837
-0.008446169
-0.008390539
-0.008334948
-0.008279393
-0.008223877
-0.008168398
-0.008112956
-0.008057552
-0.008002185
-0.007946856
-0.007891563
-0.007836308
-0.00778109
-0.007725908
-0.007670764
-0.007615656
-0.007560585
-0.007505551
-0.007450553
-0.007395592
-0.007340668
-0.007285779
-0.007230927
-0.007176111
-0.007121332
-0.007066588
-0.007011881
-0.006957209
-0.006902573
-0.006847973
-0.006793409
-0.00673888
-0.006684387
-0.00662993
-0.006575508
-0.006521121
-0.00646677
-0.006412454
-0.006358173
-0.006303927
-0.006249716
-0.00619554
-0.006141399
-0.006087293
-0.006033222
-0.005979185
-0.005925183
-0.005871216
-0.005817283
-0.005763385
-0.00570952
-0.005655691
-0.005601895
-0.005548134
-0.005494406
-0.005440713
-0.005387054
-0.005333428
-0.005279837
-0.005226279
-0.005172755
-0.005119265
-0.005065808
-0.005012385
-0.004958995
-0.004905638
-0.004852315
-0.004799026
-0.004745769
-0.004692546
-0.004639356
-0.004586198
-0.004533074
-0.004479983
-0.004426924
-0.004373898
-0.004320905
-0.004267945
-0.004215017
-0.004162122
-0.004109259
-0.004056429
-0.004003631
-0.003950866
-0.003898132
-0.003845431
-0.003792762
-0.003740125
-0.00368752
-0.003634947
-0.003582406
-0.003529897
-0.003477419
-0.003424973
-0.003372559
-0.003320177
-0.003267826
-0.003215506
-0.003163218
-0.003110962
-0.003058736
-0.003006542
-0.002954379
-0.002902248
-0.002850147
-0.002798078
-0.002746039
-0.002694031
-0.002642055
-0.002590109
-0.002538194
-0.002486309
-0.002434455
-0.002382632
-0.00233084
-0.002279078
-0.002227346
-0.002175645
-0.002123974
-0.002072333
-0.002020723
-0.001969142
-0.001917592
-0.001866072
-0.001814582
-0.001763122
-0.001711692
-0.001660291
-0.001608921
-0.00155758
-0.001506269
-0.001454988
-0.001403736
-0.001352514
-0.001301321
-0.001250158
-0.001199024
-0.001147919
-0.001096844
-0.001045798
-0.000994781
-0.000943794
-0.000892835
-0.000841906
-0.000791005
-0.000740134
-0.000689291
-0.000638477
-0.000587692
-0.000536936
-0.000486209
-0.00043551
-0.000384839
-0.000334198
-0.000283585
-0.000233
-0.000182444
-0.000131916
-8.1416e-05
-3.0945e-05
1.9499e-05
6.9914e-05
0.0001203
0.000170659
0.00022099
0.000271293
0.000321567
0.000371814
0.000422033
0.000472225
0.000522388
0.000572524
0.000622632
0.000672712
0.000722765
0.000772791
0.000822789
0.000872759
0.000922702
0.000972618
0.001022506
0.001072368
0.001122202
0.001172008
0.001221788
0.001271541
0.001321266
0.001370965
0.001420636
0.001470281
0.001519899
0.00156949
0.001619054
0.001668592
0.001718103
0.001767587
0.001817044
0.001866475
0.00191588
0.001965258
0.00201461
0.002063935
0.002113234
0.002162506
0.002211753
0.002260973
0.002310167
0.002359335
0.002408476
0.002457592
0.002506682
0.002555745
0.002604783
0.002653795
0.002702781
0.002751741
0.002800676
0.002849584
0.002898467
0.002947325
0.002996157
0.003044963
0.003093743
0.003142499
0.003191228
0.003239933
0.003288612
0.003337266
0.003385894
0.003434497
0.003483075
0.003531628
0.003580156
0.003628658
0.003677136
0.003725588
0.003774016
0.003822418
0.003870796
0.003919149
0.003967477
0.00401578
0.004064059
0.004112312
0.004160542
0.004208746
0.004256926
0.004305081
0.004353212
0.004401319
0.004449401
0.004497458
0.004545491
0.0045935
0.004641485
0.004689445
0.004737381
0.004785293
0.004833181
0.004881044
0.004928884
0.004976699
0.005024491
0.005072259
0.005120002
0.005167722
0.005215418
0.00526309
0.005310738
0.005358363
0.005405963
0.005453541
0.005501094
0.005548624
0.00559613
0.005643613
0.005691072
0.005738508
0.005785921
0.00583331
0.005880675
0.005928017
0.005975336
0.006022632
