OpenDRT_v1.0-2.0_full-config_v2/transfer_functions/oetf_davinci_intermediate_to_linear.spi1d
Version 1
From -0.15 1.2
Length 8192
Components 1
{
-0.014361944
-0.014346164
-0.014330383
-0.014314603
-0.014298822
-0.014283042
-0.014267261
-0.014251481
-0.014235701
-0.01421992
-0.01420414
-0.014188359
-0.014172579
-0.014156798
-0.014141018
-0.014125238
-0.014109457
-0.014093677
-0.014077896
-0.014062116
-0.014046335
-0.014030555
-0.014014775
-0.013998994
-0.013983214
-0.013967433
-0.013951653
-0.013935872
-0.013920092
-0.013904312
-0.013888531
-0.013872751
-0.01385697
-0.01384119
-0.013825409
-0.013809629
-0.013793849
-0.013778068
-0.013762288
-0.013746507
-0.013730727
-0.013714946
-0.013699166
-0.013683386
-0.013667605
-0.013651825
-0.013636044
-0.013620264
-0.013604483
-0.013588703
-0.013572923
-0.013557142
-0.013541362
-0.013525581
-0.013509801
-0.01349402
-0.01347824
-0.01346246
-0.013446679
-0.013430899
-0.013415118
-0.013399338
-0.013383557
-0.013367777
-0.013351997
-0.013336216
-0.013320436
-0.013304655
-0.013288875
-0.013273094
-0.013257314
-0.013241534
-0.013225753
-0.013209973
-0.013194192
-0.013178412
-0.013162631
-0.013146851
-0.013131071
-0.01311529
-0.01309951
-0.013083729
-0.013067949
-0.013052168
-0.013036388
-0.013020608
-0.013004827
-0.012989047
-0.012973266
-0.012957486
-0.012941705
-0.012925925
-0.012910145
-0.012894364
-0.012878584
-0.012862803
-0.012847023
-0.012831242
-0.012815462
-0.012799682
-0.012783901
-0.012768121
-0.01275234
-0.01273656
-0.012720779
-0.012704999
-0.012689218
-0.012673438
-0.012657658
-0.012641877
-0.012626097
-0.012610316
-0.012594536
-0.012578755
-0.012562975
-0.012547195
-0.012531414
-0.012515634
-0.012499853
-0.012484073
-0.012468292
-0.012452512
-0.012436732
-0.012420951
-0.012405171
-0.01238939
-0.01237361
-0.012357829
-0.012342049
-0.012326269
-0.012310488
-0.012294708
-0.012278927
-0.012263147
-0.012247366
-0.012231586
-0.012215806
-0.012200025
-0.012184245
-0.012168464
-0.012152684
-0.012136903
-0.012121123
-0.012105343
-0.012089562
-0.012073782
-0.012058001
-0.012042221
-0.01202644
-0.01201066
-0.01199488
-0.011979099
-0.011963319
-0.011947538
-0.011931758
-0.011915977
-0.011900197
-0.011884417
-0.011868636
-0.011852856
-0.011837075
-0.011821295
-0.011805514
-0.011789734
-0.011773954
-0.011758173
-0.011742393
-0.011726612
-0.011710832
-0.011695051
-0.011679271
-0.011663491
-0.01164771
-0.01163193
-0.011616149
-0.011600369
-0.011584588
-0.011568808
-0.011553028
-0.011537247
-0.011521467
-0.011505686
-0.011489906
-0.011474125
-0.011458345
-0.011442565
-0.011426784
-0.011411004
-0.011395223
-0.011379443
-0.011363662
-0.011347882
-0.011332102
-0.011316321
-0.011300541
-0.01128476
-0.01126898
-0.011253199
-0.011237419
-0.011221639
-0.011205858
-0.011190078
-0.011174297
-0.011158517
-0.011142736
-0.011126956
-0.011111176
-0.011095395
-0.011079615
-0.011063834
-0.011048054
-0.011032273
-0.011016493
-0.011000713
-0.010984932
-0.010969152
-0.010953371
-0.010937591
-0.01092181
-0.01090603
-0.01089025
-0.010874469
-0.010858689
-0.010842908
-0.010827128
-0.010811347
-0.010795567
-0.010779787
-0.010764006
-0.010748226
-0.010732445
-0.010716665
-0.010700884
-0.010685104
-0.010669324
-0.010653543
-0.010637763
-0.010621982
-0.010606202
-0.010590421
-0.010574641
-0.010558861
-0.01054308
-0.0105273
-0.010511519
-0.010495739
-0.010479958
-0.010464178
-0.010448398
-0.010432617
-0.010416837
-0.010401056
-0.010385276
-0.010369495
-0.010353715
-0.010337935
-0.010322154
-0.010306374
-0.010290593
-0.010274813
-0.010259032
-0.010243252
-0.010227472
-0.010211691
-0.010195911
-0.01018013
-0.01016435
-0.010148569
-0.010132789
-0.010117009
-0.010101228
-0.010085448
-0.010069667
-0.010053887
-0.010038106
-0.010022326
-0.010006546
-0.009990765
-0.009974985
-0.009959204
-0.009943424
-0.009927643
-0.009911863
-0.009896083
-0.009880302
-0.009864522
-0.009848741
-0.009832961
-0.00981718
-0.0098014
-0.00978562
-0.009769839
-0.009754059
-0.009738278
-0.009722498
-0.009706717
-0.009690937
-0.009675157
-0.009659376
-0.009643596
-0.009627815
-0.009612035
-0.009596254
-0.009580474
-0.009564694
-0.009548913
-0.009533133
-0.009517352
-0.009501572
-0.009485791
-0.009470011
-0.009454231
-0.00943845
-0.00942267
-0.009406889
-0.009391109
-0.009375328
-0.009359548
-0.009343767
-0.009327987
-0.009312207
-0.009296426
-0.009280646
-0.009264865
-0.009249085
-0.009233304
-0.009217524
-0.009201744
-0.009185963
-0.009170183
-0.009154402
-0.009138622
-0.009122841
-0.009107061
-0.009091281
-0.0090755
-0.00905972
-0.009043939
-0.009028159
-0.009012378
-0.008996598
-0.008980818
-0.008965037
-0.008949257
-0.008933476
-0.008917696
-0.008901915
-0.008886135
-0.008870355
-0.008854574
-0.008838794
-0.008823013
-0.008807233
-0.008791452
-0.008775672
-0.008759892
-0.008744111
-0.008728331
-0.00871255
-0.00869677
-0.008680989
-0.008665209
-0.008649429
-0.008633648
-0.008617868
-0.008602087
-0.008586307
-0.008570526
-0.008554746
-0.008538966
-0.008523185
-0.008507405
-0.008491624
-0.008475844
-0.008460063
-0.008444283
-0.008428503
-0.008412722
-0.008396942
-0.008381161
-0.008365381
-0.0083496
-0.00833382
-0.00831804
-0.008302259
-0.008286479
-0.008270698
-0.008254918
-0.008239137
-0.008223357
-0.008207577
-0.008191796
-0.008176016
-0.008160235
-0.008144455
-0.008128674
-0.008112894
-0.008097114
-0.008081333
-0.008065553
-0.008049772
-0.008033992
-0.008018211
-0.008002431
-0.007986651
-0.00797087
-0.00795509
-0.007939309
-0.007923529
-0.007907748
-0.007891968
-0.007876188
-0.007860407
-0.007844627
-0.007828846
-0.007813066
-0.007797285
-0.007781505
-0.007765725
-0.007749944
-0.007734164
-0.007718383
-0.007702603
-0.007686822
-0.007671042
-0.007655262
-0.007639481
-0.007623701
-0.00760792
-0.00759214
-0.007576359
-0.007560579
-0.007544799
-0.007529018
-0.007513238
-0.007497457
-0.007481677
-0.007465896
-0.007450116
-0.007434336
-0.007418555
-0.007402775
-0.007386994
-0.007371214
-0.007355433
-0.007339653
-0.007323873
-0.007308092
-0.007292312
-0.007276531
-0.007260751
-0.00724497
-0.00722919
-0.00721341
-0.007197629
-0.007181849
-0.007166068
-0.007150288
-0.007134507
-0.007118727
-0.007102947
-0.007087166
-0.007071386
-0.007055605
-0.007039825
-0.007024044
-0.007008264
-0.006992484
-0.006976703
-0.006960923
-0.006945142
-0.006929362
-0.006913581
-0.006897801
-0.006882021
-0.00686624
-0.00685046
-0.006834679
-0.006818899
-0.006803118
-0.006787338
-0.006771558
-0.006755777
-0.006739997
-0.006724216
-0.006708436
-0.006692655
-0.006676875
-0.006661095
-0.006645314
-0.006629534
-0.006613753
-0.006597973
-0.006582192
-0.006566412
-0.006550632
-0.006534851
-0.006519071
-0.00650329
-0.00648751
-0.006471729
-0.006455949
-0.006440169
-0.006424388
-0.006408608
-0.006392827
-0.006377047
-0.006361266
-0.006345486
-0.006329706
-0.006313925
-0.006298145
-0.006282364
-0.006266584
-0.006250803
-0.006235023
-0.006219243
-0.006203462
-0.006187682
-0.006171901
-0.006156121
-0.00614034
-0.00612456
-0.006108779
-0.006092999
-0.006077219
-0.006061438
-0.006045658
-0.006029877
-0.006014097
-0.005998316
-0.005982536
-0.005966756
-0.005950975
-0.005935195
-0.005919414
-0.005903634
-0.005887853
-0.005872073
-0.005856293
-0.005840512
-0.005824732
-0.005808951
-0.005793171
-0.00577739
-0.00576161
-0.00574583
-0.005730049
-0.005714269
-0.005698488
-0.005682708
-0.005666927
-0.005651147
-0.005635367
-0.005619586
-0.005603806
-0.005588025
-0.005572245
-0.005556464
-0.005540684
-0.005524904
-0.005509123
-0.005493343
-0.005477562
-0.005461782
-0.005446001
-0.005430221
-0.005414441
-0.00539866
-0.00538288
-0.005367099
-0.005351319
-0.005335538
-0.005319758
-0.005303978
-0.005288197
-0.005272417
-0.005256636
-0.005240856
-0.005225075
-0.005209295
-0.005193515
-0.005177734
-0.005161954
-0.005146173
-0.005130393
-0.005114612
-0.005098832
-0.005083052
-0.005067271
-0.005051491
-0.00503571
-0.00501993
-0.005004149
-0.004988369
-0.004972589
-0.004956808
-0.004941028
-0.004925247
-0.004909467
-0.004893686
-0.004877906
-0.004862126
-0.004846345
-0.004830565
-0.004814784
-0.004799004
-0.004783223
-0.004767443
-0.004751663
-0.004735882
-0.004720102
-0.004704321
-0.004688541
-0.00467276
-0.00465698
-0.0046412
-0.004625419
-0.004609639
-0.004593858
-0.004578078
-0.004562297
-0.004546517
-0.004530737
-0.004514956
-0.004499176
-0.004483395
-0.004467615
-0.004451834
-0.004436054
-0.004420274
-0.004404493
-0.004388713
-0.004372932
-0.004357152
-0.004341371
-0.004325591
-0.004309811
-0.00429403
-0.00427825
-0.004262469
-0.004246689
-0.004230908
-0.004215128
-0.004199348
-0.004183567
-0.004167787
-0.004152006
-0.004136226
-0.004120445
-0.004104665
-0.004088885
-0.004073104
-0.004057324
-0.004041543
-0.004025763
-0.004009982
-0.003994202
-0.003978422
-0.003962641
-0.003946861
-0.00393108
-0.0039153
-0.003899519
-0.003883739
-0.003867959
-0.003852178
-0.003836398
-0.003820617
-0.003804837
-0.003789056
-0.003773276
-0.003757496
-0.003741715
-0.003725935
-0.003710154
-0.003694374
-0.003678593
-0.003662813
-0.003647033
-0.003631252
-0.003615472
-0.003599691
-0.003583911
-0.00356813
-0.00355235
-0.00353657
-0.003520789
-0.003505009
-0.003489228
-0.003473448
-0.003457667
-0.003441887
-0.003426107
-0.003410326
-0.003394546
-0.003378765
-0.003362985
-0.003347204
-0.003331424
-0.003315644
-0.003299863
-0.003284083
-0.003268302
-0.003252522
-0.003236741
-0.003220961
-0.003205181
-0.0031894
-0.00317362
-0.003157839
-0.003142059
-0.003126278
-0.003110498
-0.003094718
-0.003078937
-0.003063157
-0.003047376
-0.003031596
-0.003015815
-0.003000035
-0.002984255
-0.002968474
-0.002952694
-0.002936913
-0.002921133
-0.002905352
-0.002889572
-0.002873792
-0.002858011
-0.002842231
-0.00282645
-0.00281067
-0.002794889
-0.002779109
-0.002763328
-0.002747548
-0.002731768
-0.002715987
-0.002700207
-0.002684426
-0.002668646
-0.002652865
-0.002637085
-0.002621305
-0.002605524
-0.002589744
-0.002573963
-0.002558183
-0.002542402
-0.002526622
-0.002510842
-0.002495061
-0.002479281
-0.0024635
-0.00244772
-0.002431939
-0.002416159
-0.002400379
-0.002384598
-0.002368818
-0.002353037
-0.002337257
-0.002321476
-0.002305696
-0.002289916
-0.002274135
-0.002258355
-0.002242574
-0.002226794
-0.002211013
-0.002195233
-0.002179453
-0.002163672
-0.002147892
-0.002132111
-0.002116331
-0.00210055
-0.00208477
-0.00206899
-0.002053209
-0.002037429
-0.002021648
-0.002005868
-0.001990087
-0.001974307
-0.001958527
-0.001942746
-0.001926966
-0.001911185
-0.001895405
-0.001879624
-0.001863844
-0.001848064
-0.001832283
-0.001816503
-0.001800722
-0.001784942
-0.001769161
-0.001753381
-0.001737601
-0.00172182
-0.00170604
-0.001690259
-0.001674479
-0.001658698
-0.001642918
-0.001627138
-0.001611357
-0.001595577
-0.001579796
-0.001564016
-0.001548235
-0.001532455
-0.001516675
-0.001500894
-0.001485114
-0.001469333
-0.001453553
-0.001437772
-0.001421992
-0.001406212
-0.001390431
-0.001374651
-0.00135887
-0.00134309
-0.001327309
-0.001311529
-0.001295749
-0.001279968
-0.001264188
-0.001248407
-0.001232627
-0.001216846
-0.001201066
-0.001185286
-0.001169505
-0.001153725
-0.001137944
-0.001122164
-0.001106383
-0.001090603
-0.001074823
-0.001059042
-0.001043262
-0.001027481
-0.001011701
-0.00099592
-0.00098014
-0.00096436
-0.000948579
-0.000932799
-0.000917018
-0.000901238
-0.000885457
-0.000869677
-0.000853897
-0.000838116
-0.000822336
-0.000806555
-0.000790775
-0.000774994
-0.000759214
-0.000743434
-0.000727653
-0.000711873
-0.000696092
-0.000680312
-0.000664531
-0.000648751
-0.000632971
-0.00061719
-0.00060141
-0.000585629
-0.000569849
-0.000554068
-0.000538288
-0.000522508
-0.000506727
-0.000490947
-0.000475166
-0.000459386
-0.000443605
-0.000427825
-0.000412045
-0.000396264
-0.000380484
-0.000364703
-0.000348923
-0.000333142
-0.000317362
-0.000301582
-0.000285801
-0.000270021
-0.00025424
-0.00023846
-0.000222679
-0.000206899
-0.000191119
-0.000175338
-0.000159558
-0.000143777
-0.000127997
-0.000112216
-9.6436e-05
-8.0656e-05
-6.4875e-05
-4.9095e-05
-3.3314e-05
-1.7534e-05
-1.753e-06
1.4027e-05
2.9807e-05
4.5588e-05
6.1368e-05
7.7149e-05
9.2929e-05
0.00010871
0.00012449
0.00014027
0.000156051
0.000171831
0.000187612
0.000203392
0.000219173
0.000234953
0.000250733
0.000266514
0.000282294
0.000298075
0.000313855
0.000329636
0.000345416
0.000361196
0.000376977
0.000392757
0.000408538
0.000424318
0.000440099
0.000455879
0.000471659
0.00048744
0.00050322
0.000519001
0.000534781
0.000550562
0.000566342
0.000582123
0.000597903
0.000613683
0.000629464
0.000645244
0.000661025
0.000676805
0.000692586
0.000708366
0.000724146
0.000739927
0.000755707
0.000771488
0.000787268
0.000803049
0.000818829
0.000834609
0.00085039
0.00086617
0.000881951
0.000897731
0.000913512
0.000929292
0.000945072
0.000960853
0.000976633
0.000992414
0.001008194
0.001023975
0.001039755
0.001055535
0.001071316
0.001087096
0.001102877
0.001118657
0.001134438
0.001150218
0.001165998
0.001181779
0.001197559
0.00121334
0.00122912
0.001244901
0.001260681
0.001276461
0.001292242
0.001308022
0.001323803
0.001339583
0.001355364
0.001371144
0.001386924
0.001402705
0.001418485
0.001434266
0.001450046
0.001465827
0.001481607
0.001497387
0.001513168
0.001528948
0.001544729
0.001560509
0.00157629
0.00159207
0.00160785
0.001623631
0.001639411
0.001655192
0.001670972
0.001686753
0.001702533
0.001718313
0.001734094
0.001749874
0.001765655
0.001781435
0.001797216
0.001812996
0.001828776
0.001844557
0.001860337
0.001876118
0.001891898
0.001907679
0.001923459
0.001939239
0.00195502
0.0019708
0.001986581
0.002002361
0.002018142
0.002033922
0.002049702
0.002065483
0.002081263
0.002097044
0.002112824
0.002128605
0.002144385
0.002160165
0.002175946
0.002191726
0.002207507
0.002223287
0.002239068
0.002254848
0.002270628
0.002286409
0.002302189
0.00231797
0.00233375
0.002349531
0.002365311
0.002381091
0.002396872
0.002412652
0.002428433
0.002444213
0.002459994
0.002475774
0.002491554
0.002507335
0.002523115
0.002538896
0.002554676
0.002570457
0.002586237
0.002602017
0.002617798
0.002633583
0.00264939
0.002665223
0.002681079
0.002696961
0.002712867
0.002728799
0.002744755
0.002760736
0.002776742
0.002792772
0.002808828
0.002824909
0.002841015
0.002857146
0.002873303
0.002889484
0.002905691
0.002921923
0.00293818
0.002954463
0.002970771
0.002987105
0.003003464
0.003019848
0.003036258
0.003052694
0.003069155
0.003085642
0.003102155
0.003118693
0.003135258
0.003151848
0.003168464
0.003185106
0.003201774
0.003218467
0.003235187
0.003251933
0.003268705
0.003285504
0.003302328
0.003319179
0.003336056
0.003352959
0.003369889
0.003386845
0.003403828
0.003420837
0.003437872
0.003454935
0.003472023
0.003489139
0.003506281
0.00352345
0.003540645
0.003557868
0.003575117
0.003592394
0.003609697
0.003627027
0.003644384
0.003661769
0.00367918
0.003696619
0.003714084
0.003731577
0.003749098
0.003766645
0.00378422
0.003801823
0.003819453
0.00383711
0.003854795
0.003872508
0.003890248
0.003908016
0.003925811
0.003943634
0.003961486
0.003979365
0.003997271
0.004015206
0.004033169
0.00405116
0.004069179
0.004087226
0.004105301
0.004123404
0.004141535
0.004159695
0.004177883
0.0041961
0.004214345
0.004232618
0.00425092
0.004269251
0.00428761
0.004305997
0.004324414
0.004342859
0.004361333
0.004379835
0.004398367
0.004416927
0.004435517
0.004454135
0.004472783
0.004491459
0.004510165
0.0045289
0.004547664
0.004566457
0.00458528
0.004604132
0.004623013
0.004641924
0.004660865
0.004679835
0.004698834
0.004717863
0.004736922
0.004756011
0.004775129
0.004794277
0.004813455
0.004832663
0.004851901
0.004871169
0.004890467
0.004909795
0.004929153
0.004948542
0.004967961
0.00498741
0.005006889
0.005026399
0.005045939
0.005065509
0.005085111
0.005104742
0.005124405
0.005144098
0.005163821
0.005183576
0.005203361
0.005223177
0.005243024
0.005262903
0.005282812
0.005302752
0.005322723
0.005342725
0.005362759
0.005382824
0.00540292
0.005423047
0.005443206
0.005463397
0.005483618
0.005503872
0.005524157
0.005544473
0.005564822
0.005585202
0.005605613
0.005626057
0.005646533
0.00566704
0.00568758
0.005708151
0.005728755
0.005749391
0.005770058
0.005790759
0.005811491
0.005832256
0.005853053
0.005873883
0.005894745
0.00591564
0.005936567
0.005957527
0.005978519
0.005999545
0.006020603
0.006041694
0.006062818
0.006083975
0.006105165
0.006126388
0.006147644
0.006168933
0.006190255
0.006211611
0.006233
0.006254422
0.006275878
0.006297367
0.00631889
0.006340446
0.006362036
0.00638366
0.006405317
0.006427008
0.006448733
0.006470492
0.006492285
0.006514112
0.006535973
0.006557867
0.006579797
0.00660176
0.006623757
0.006645789
0.006667856
0.006689956
0.006712091
0.006734261
0.006756465
0.006778704
0.006800978
0.006823286
0.006845629
0.006868007
0.00689042
0.006912868
0.006935351
0.006957869
0.006980422
0.00700301
0.007025634
0.007048292
0.007070987
0.007093716
0.007116481
0.007139282
0.007162118
0.007184989
0.007207897
0.00723084
0.007253819
0.007276833
0.007299884
0.007322971
0.007346093
0.007369252
0.007392447
0.007415678
0.007438945
0.007462248
0.007485588
0.007508964
0.007532377
0.007555826
0.007579312
0.007602835
0.007626394
0.00764999
0.007673623
0.007697292
0.007720999
0.007744742
0.007768523
0.00779234
0.007816195
0.007840087
0.007864016
0.007887983
0.007911987
0.007936028
0.007960107
0.007984224
0.008008378
0.00803257
0.008056799
0.008081066
0.008105372
0.008129715
0.008154096
0.008178515
0.008202972
0.008227467
0.008252001
0.008276573
0.008301183
0.008325831
0.008350518
0.008375244
0.008400008
0.00842481
0.008449652
0.008474532
0.008499451
0.008524409
0.008549405
0.008574441
0.008599516
0.00862463
0.008649783
0.008674975
0.008700207
0.008725478
0.008750788
0.008776138
0.008801528
0.008826957
0.008852425
0.008877934
0.008903482
0.00892907
0.008954698
0.008980366
0.009006074
0.009031822
0.00905761
0.009083439
0.009109308
0.009135217
0.009161166
0.009187156
0.009213187
0.009239258
0.00926537
0.009291522
0.009317716
0.00934395
0.009370225
0.009396541
0.009422899
0.009449297
0.009475736
0.009502217
0.009528739
0.009555303
0.009581907
0.009608554
0.009635242
0.009661971
0.009688742
0.009715556
0.00974241
0.009769307
0.009796246
0.009823226
0.009850249
0.009877314
0.009904421
0.009931571
0.009958763
0.009985997
0.010013273
0.010040593
0.010067955
0.010095359
0.010122806
0.010150297
0.01017783
0.010205405
0.010233024
0.010260686
0.010288392
0.01031614
0.010343932
0.010371767
0.010399645
0.010427567
0.010455533
0.010483542
0.010511595
0.010539691
0.010567832
0.010596016
0.010624244
0.010652517
0.010680833
0.010709194
0.010737598
0.010766048
0.010794541
0.010823079
0.010851662
0.010880289
0.01090896
0.010937677
0.010966438
0.010995244
0.011024095
0.011052991
0.011081932
0.011110919
0.01113995
0.011169027
0.011198149
0.011227316
0.01125653
0.011285788
0.011315092
0.011344442
0.011373838
0.01140328
0.011432767
0.011462301
0.01149188
0.011521506
0.011551178
0.011580896
0.011610661
0.011640472
0.01167033
0.011700234
0.011730185
0.011760182
0.011790226
0.011820317
0.011850456
0.011880641
0.011910873
0.011941152
0.011971479
0.012001853
0.012032274
0.012062743
0.012093259
0.012123823
0.012154434
0.012185093
0.012215801
0.012246556
0.012277359
0.01230821
0.012339109
0.012370056
0.012401052
0.012432096
0.012463188
0.012494329
0.012525519
0.012556757
0.012588044
0.012619379
0.012650764
0.012682197
0.01271368
0.012745211
0.012776792
0.012808422
0.012840102
0.012871831
0.012903609
0.012935437
0.012967315
0.012999242
0.013031219
0.013063246
0.013095323
0.01312745
0.013159627
0.013191854
0.013224132
0.01325646
0.013288838
0.013321267
0.013353746
0.013386277
0.013418857
0.013451489
0.013484172
0.013516905
0.01354969
0.013582526
0.013615413
0.013648351
0.013681341
0.013714382
0.013747474
0.013780619
0.013813815
0.013847062
0.013880362
0.013913714
0.013947117
0.013980573
0.014014081
0.014047641
0.014081254
0.014114919
0.014148636
0.014182406
0.014216229
0.014250104
0.014284033
0.014318014
0.014352048
0.014386136
0.014420276
0.01445447
0.014488717
0.014523018
0.014557372
0.014591779
0.014626241
0.014660756
0.014695325
0.014729948
0.014764624
0.014799355
0.014834141
0.01486898
0.014903874
0.014938822
0.014973825
0.015008882
0.015043994
0.015079161
0.015114382
0.015149659
0.01518499
0.015220377
0.015255819
0.015291316
0.015326869
0.015362477
0.01539814
0.015433859
0.015469634
0.015505465
0.015541352
0.015577294
0.015613293
0.015649348
0.015685459
0.015721626
0.01575785
0.01579413
0.015830467
0.015866861
0.015903311
0.015939818
0.015976382
0.016013004
0.016049682
0.016086418
0.01612321
0.016160061
0.016196968
0.016233934
0.016270957
0.016308037
0.016345176
0.016382372
0.016419627
0.01645694
0.01649431
0.016531739
0.016569227
0.016606773
0.016644378
0.016682041
0.016719763
0.016757544
0.016795383
0.016833282
0.01687124
0.016909257
0.016947333
0.016985469
0.017023665
0.017061919
0.017100234
0.017138608
0.017177042
0.017215537
0.017254091
0.017292705
0.01733138
0.017370115
0.01740891
0.017447766
0.017486682
0.017525659
0.017564697
0.017603796
0.017642956
0.017682177
0.017721459
0.017760802
0.017800207
0.017839673
0.017879201
0.01791879
0.017958442
0.017998155
0.01803793
0.018077767
0.018117666
0.018157627
0.018197651
0.018237737
0.018277886
0.018318097
0.018358371
0.018398708
0.018439108
0.018479571
0.018520097
0.018560686
0.018601339
0.018642055
0.018682834
0.018723677
0.018764584
0.018805554
0.018846589
0.018887687
0.01892885
0.018970077
0.019011368
0.019052723
0.019094143
0.019135628
0.019177177
0.019218792
0.019260471
0.019302215
0.019344024
0.019385898
0.019427838
0.019469843
0.019511914
0.01955405
0.019596252
0.01963852
0.019680854
0.019723254
0.01976572
0.019808252
0.019850851
0.019893516
0.019936248
0.019979046
0.020021911
0.020064843
0.020107842
0.020150907
0.020194041
0.020237241
0.020280509
0.020323844
0.020367247
0.020410718
0.020454256
0.020497862
0.020541537
0.020585279
0.02062909
0.020672969
0.020716916
0.020760932
0.020805017
0.02084917
0.020893393
0.020937684
0.020982045
0.021026474
0.021070973
0.021115541
0.021160179
0.021204887
0.021249664
0.021294511
0.021339428
0.021384415
0.021429472
0.0214746
0.021519798
0.021565066
0.021610406
0.021655815
0.021701296
0.021746848
0.02179247
0.021838164
0.021883929
0.021929766
0.021975674
0.022021653
0.022067705
0.022113828
0.022160023
0.02220629
0.022252629
0.022299041
0.022345525
0.022392081
0.022438711
0.022485412
0.022532187
0.022579035
0.022625956
0.02267295
0.022720017
0.022767158
0.022814372
0.02286166
0.022909022
0.022956457
0.023003967
0.02305155
0.023099208
0.02314694
0.023194747
0.023242628
0.023290584
0.023338615
0.023386721
0.023434901
0.023483157
0.023531488
0.023579895
0.023628377
0.023676935
0.023725568
0.023774277
0.023823063
0.023871924
0.023920861
0.023969875
0.024018966
0.024068133
0.024117376
0.024166697
0.024216094
0.024265569
0.02431512
0.024364749
0.024414456
0.02446424
0.024514101
0.02456404
0.024614058
0.024664153
0.024714326
0.024764578
0.024814908
0.024865317
0.024915804
0.02496637
0.025017015
0.025067738
0.025118541
0.025169424
0.025220385
0.025271426
0.025322547
0.025373747
0.025425028
0.025476388
0.025527828
0.025579349
0.02563095
0.025682632
0.025734394
0.025786237
0.02583816
0.025890165
0.025942251
0.025994418
0.026046667
0.026098997
0.026151408
0.026203902
0.026256477
0.026309134
0.026361874
0.026414695
0.026467599
0.026520586
0.026573655
0.026626807
0.026680042
0.02673336
0.026786762
0.026840246
0.026893814
0.026947466
0.027001201
0.02705502
0.027108923
0.02716291
0.027216981
0.027271137
0.027325377
0.027379701
0.027434111
0.027488605
0.027543184
0.027597849
0.027652599
0.027707434
0.027762354
0.027817361
0.027872453
0.027927631
0.027982895
0.028038245
0.028093682
0.028149205
0.028204815
0.028260512
0.028316295
0.028372165
0.028428123
0.028484168
0.0285403
0.02859652
0.028652828
0.028709223
0.028765706
0.028822278
0.028878938
0.028935686
0.028992522
0.029049448
0.029106462
0.029163565
0.029220757
0.029278038
0.029335409
0.029392869
0.029450419
0.029508058
0.029565788
0.029623607
0.029681517
0.029739517
0.029797608
0.029855789
0.029914061
0.029972424
0.030030878
0.030089423
0.030148059
0.030206787
0.030265606
0.030324517
0.030383521
0.030442616
0.030501803
0.030561083
0.030620455
0.030679919
0.030739477
0.030799127
0.030858871
0.030918707
0.030978637
0.031038661
0.031098778
0.031158989
0.031219294
