OpenDRT_v1.0-2.0_full-config_v2/transfer_functions/oetf_leica_llog_to_linear.spi1d
Version 1
From -0.15 1.2
Length 8192
Components 1
{
-0.03
-0.029979398
-0.029958796
-0.029938194
-0.029917592
-0.029896991
-0.029876389
-0.029855787
-0.029835185
-0.029814583
-0.029793981
-0.029773379
-0.029752777
-0.029732176
-0.029711574
-0.029690972
-0.02967037
-0.029649768
-0.029629166
-0.029608564
-0.029587962
-0.029567361
-0.029546759
-0.029526157
-0.029505555
-0.029484953
-0.029464351
-0.029443749
-0.029423147
-0.029402545
-0.029381944
-0.029361342
-0.02934074
-0.029320138
-0.029299536
-0.029278934
-0.029258332
-0.02923773
-0.029217129
-0.029196527
-0.029175925
-0.029155323
-0.029134721
-0.029114119
-0.029093517
-0.029072915
-0.029052314
-0.029031712
-0.02901111
-0.028990508
-0.028969906
-0.028949304
-0.028928702
-0.0289081
-0.028887498
-0.028866897
-0.028846295
-0.028825693
-0.028805091
-0.028784489
-0.028763887
-0.028743285
-0.028722683
-0.028702082
-0.02868148
-0.028660878
-0.028640276
-0.028619674
-0.028599072
-0.02857847
-0.028557868
-0.028537267
-0.028516665
-0.028496063
-0.028475461
-0.028454859
-0.028434257
-0.028413655
-0.028393053
-0.028372451
-0.02835185
-0.028331248
-0.028310646
-0.028290044
-0.028269442
-0.02824884
-0.028228238
-0.028207636
-0.028187035
-0.028166433
-0.028145831
-0.028125229
-0.028104627
-0.028084025
-0.028063423
-0.028042821
-0.02802222
-0.028001618
-0.027981016
-0.027960414
-0.027939812
-0.02791921
-0.027898608
-0.027878006
-0.027857404
-0.027836803
-0.027816201
-0.027795599
-0.027774997
-0.027754395
-0.027733793
-0.027713191
-0.027692589
-0.027671988
-0.027651386
-0.027630784
-0.027610182
-0.02758958
-0.027568978
-0.027548376
-0.027527774
-0.027507173
-0.027486571
-0.027465969
-0.027445367
-0.027424765
-0.027404163
-0.027383561
-0.027362959
-0.027342357
-0.027321756
-0.027301154
-0.027280552
-0.02725995
-0.027239348
-0.027218746
-0.027198144
-0.027177542
-0.027156941
-0.027136339
-0.027115737
-0.027095135
-0.027074533
-0.027053931
-0.027033329
-0.027012727
-0.026992126
-0.026971524
-0.026950922
-0.02693032
-0.026909718
-0.026889116
-0.026868514
-0.026847912
-0.02682731
-0.026806709
-0.026786107
-0.026765505
-0.026744903
-0.026724301
-0.026703699
-0.026683097
-0.026662495
-0.026641894
-0.026621292
-0.02660069
-0.026580088
-0.026559486
-0.026538884
-0.026518282
-0.02649768
-0.026477079
-0.026456477
-0.026435875
-0.026415273
-0.026394671
-0.026374069
-0.026353467
-0.026332865
-0.026312263
-0.026291662
-0.02627106
-0.026250458
-0.026229856
-0.026209254
-0.026188652
-0.02616805
-0.026147448
-0.026126847
-0.026106245
-0.026085643
-0.026065041
-0.026044439
-0.026023837
-0.026003235
-0.025982633
-0.025962031
-0.02594143
-0.025920828
-0.025900226
-0.025879624
-0.025859022
-0.02583842
-0.025817818
-0.025797216
-0.025776615
-0.025756013
-0.025735411
-0.025714809
-0.025694207
-0.025673605
-0.025653003
-0.025632401
-0.0256118
-0.025591198
-0.025570596
-0.025549994
-0.025529392
-0.02550879
-0.025488188
-0.025467586
-0.025446984
-0.025426383
-0.025405781
-0.025385179
-0.025364577
-0.025343975
-0.025323373
-0.025302771
-0.025282169
-0.025261568
-0.025240966
-0.025220364
-0.025199762
-0.02517916
-0.025158558
-0.025137956
-0.025117354
-0.025096753
-0.025076151
-0.025055549
-0.025034947
-0.025014345
-0.024993743
-0.024973141
-0.024952539
-0.024931937
-0.024911336
-0.024890734
-0.024870132
-0.02484953
-0.024828928
-0.024808326
-0.024787724
-0.024767122
-0.024746521
-0.024725919
-0.024705317
-0.024684715
-0.024664113
-0.024643511
-0.024622909
-0.024602307
-0.024581706
-0.024561104
-0.024540502
-0.0245199
-0.024499298
-0.024478696
-0.024458094
-0.024437492
-0.02441689
-0.024396289
-0.024375687
-0.024355085
-0.024334483
-0.024313881
-0.024293279
-0.024272677
-0.024252075
-0.024231474
-0.024210872
-0.02419027
-0.024169668
-0.024149066
-0.024128464
-0.024107862
-0.02408726
-0.024066659
-0.024046057
-0.024025455
-0.024004853
-0.023984251
-0.023963649
-0.023943047
-0.023922445
-0.023901843
-0.023881242
-0.02386064
-0.023840038
-0.023819436
-0.023798834
-0.023778232
-0.02375763
-0.023737028
-0.023716427
-0.023695825
-0.023675223
-0.023654621
-0.023634019
-0.023613417
-0.023592815
-0.023572213
-0.023551612
-0.02353101
-0.023510408
-0.023489806
-0.023469204
-0.023448602
-0.023428
-0.023407398
-0.023386796
-0.023366195
-0.023345593
-0.023324991
-0.023304389
-0.023283787
-0.023263185
-0.023242583
-0.023221981
-0.02320138
-0.023180778
-0.023160176
-0.023139574
-0.023118972
-0.02309837
-0.023077768
-0.023057166
-0.023036565
-0.023015963
-0.022995361
-0.022974759
-0.022954157
-0.022933555
-0.022912953
-0.022892351
-0.022871749
-0.022851148
-0.022830546
-0.022809944
-0.022789342
-0.02276874
-0.022748138
-0.022727536
-0.022706934
-0.022686333
-0.022665731
-0.022645129
-0.022624527
-0.022603925
-0.022583323
-0.022562721
-0.022542119
-0.022521518
-0.022500916
-0.022480314
-0.022459712
-0.02243911
-0.022418508
-0.022397906
-0.022377304
-0.022356702
-0.022336101
-0.022315499
-0.022294897
-0.022274295
-0.022253693
-0.022233091
-0.022212489
-0.022191887
-0.022171286
-0.022150684
-0.022130082
-0.02210948
-0.022088878
-0.022068276
-0.022047674
-0.022027072
-0.022006471
-0.021985869
-0.021965267
-0.021944665
-0.021924063
-0.021903461
-0.021882859
-0.021862257
-0.021841655
-0.021821054
-0.021800452
-0.02177985
-0.021759248
-0.021738646
-0.021718044
-0.021697442
-0.02167684
-0.021656239
-0.021635637
-0.021615035
-0.021594433
-0.021573831
-0.021553229
-0.021532627
-0.021512025
-0.021491424
-0.021470822
-0.02145022
-0.021429618
-0.021409016
-0.021388414
-0.021367812
-0.02134721
-0.021326608
-0.021306007
-0.021285405
-0.021264803
-0.021244201
-0.021223599
-0.021202997
-0.021182395
-0.021161793
-0.021141192
-0.02112059
-0.021099988
-0.021079386
-0.021058784
-0.021038182
-0.02101758
-0.020996978
-0.020976377
-0.020955775
-0.020935173
-0.020914571
-0.020893969
-0.020873367
-0.020852765
-0.020832163
-0.020811561
-0.02079096
-0.020770358
-0.020749756
-0.020729154
-0.020708552
-0.02068795
-0.020667348
-0.020646746
-0.020626145
-0.020605543
-0.020584941
-0.020564339
-0.020543737
-0.020523135
-0.020502533
-0.020481931
-0.02046133
-0.020440728
-0.020420126
-0.020399524
-0.020378922
-0.02035832
-0.020337718
-0.020317116
-0.020296514
-0.020275913
-0.020255311
-0.020234709
-0.020214107
-0.020193505
-0.020172903
-0.020152301
-0.020131699
-0.020111098
-0.020090496
-0.020069894
-0.020049292
-0.02002869
-0.020008088
-0.019987486
-0.019966884
-0.019946283
-0.019925681
-0.019905079
-0.019884477
-0.019863875
-0.019843273
-0.019822671
-0.019802069
-0.019781467
-0.019760866
-0.019740264
-0.019719662
-0.01969906
-0.019678458
-0.019657856
-0.019637254
-0.019616652
-0.019596051
-0.019575449
-0.019554847
-0.019534245
-0.019513643
-0.019493041
-0.019472439
-0.019451837
-0.019431236
-0.019410634
-0.019390032
-0.01936943
-0.019348828
-0.019328226
-0.019307624
-0.019287022
-0.01926642
-0.019245819
-0.019225217
-0.019204615
-0.019184013
-0.019163411
-0.019142809
-0.019122207
-0.019101605
-0.019081004
-0.019060402
-0.0190398
-0.019019198
-0.018998596
-0.018977994
-0.018957392
-0.01893679
-0.018916188
-0.018895587
-0.018874985
-0.018854383
-0.018833781
-0.018813179
-0.018792577
-0.018771975
-0.018751373
-0.018730772
-0.01871017
-0.018689568
-0.018668966
-0.018648364
-0.018627762
-0.01860716
-0.018586558
-0.018565957
-0.018545355
-0.018524753
-0.018504151
-0.018483549
-0.018462947
-0.018442345
-0.018421743
-0.018401141
-0.01838054
-0.018359938
-0.018339336
-0.018318734
-0.018298132
-0.01827753
-0.018256928
-0.018236326
-0.018215725
-0.018195123
-0.018174521
-0.018153919
-0.018133317
-0.018112715
-0.018092113
-0.018071511
-0.01805091
-0.018030308
-0.018009706
-0.017989104
-0.017968502
-0.0179479
-0.017927298
-0.017906696
-0.017886094
-0.017865493
-0.017844891
-0.017824289
-0.017803687
-0.017783085
-0.017762483
-0.017741881
-0.017721279
-0.017700678
-0.017680076
-0.017659474
-0.017638872
-0.01761827
-0.017597668
-0.017577066
-0.017556464
-0.017535863
-0.017515261
-0.017494659
-0.017474057
-0.017453455
-0.017432853
-0.017412251
-0.017391649
-0.017371047
-0.017350446
-0.017329844
-0.017309242
-0.01728864
-0.017268038
-0.017247436
-0.017226834
-0.017206232
-0.017185631
-0.017165029
-0.017144427
-0.017123825
-0.017103223
-0.017082621
-0.017062019
-0.017041417
-0.017020816
-0.017000214
-0.016979612
-0.01695901
-0.016938408
-0.016917806
-0.016897204
-0.016876602
-0.016856
-0.016835399
-0.016814797
-0.016794195
-0.016773593
-0.016752991
-0.016732389
-0.016711787
-0.016691185
-0.016670584
-0.016649982
-0.01662938
-0.016608778
-0.016588176
-0.016567574
-0.016546972
-0.01652637
-0.016505769
-0.016485167
-0.016464565
-0.016443963
-0.016423361
-0.016402759
-0.016382157
-0.016361555
-0.016340953
-0.016320352
-0.01629975
-0.016279148
-0.016258546
-0.016237944
-0.016217342
-0.01619674
-0.016176138
-0.016155537
-0.016134935
-0.016114333
-0.016093731
-0.016073129
-0.016052527
-0.016031925
-0.016011323
-0.015990722
-0.01597012
-0.015949518
-0.015928916
-0.015908314
-0.015887712
-0.01586711
-0.015846508
-0.015825906
-0.015805305
-0.015784703
-0.015764101
-0.015743499
-0.015722897
-0.015702295
-0.015681693
-0.015661091
-0.01564049
-0.015619888
-0.015599286
-0.015578684
-0.015558082
-0.01553748
-0.015516878
-0.015496276
-0.015475675
-0.015455073
-0.015434471
-0.015413869
-0.015393267
-0.015372665
-0.015352063
-0.015331461
-0.015310859
-0.015290258
-0.015269656
-0.015249054
-0.015228452
-0.01520785
-0.015187248
-0.015166646
-0.015146044
-0.015125443
-0.015104841
-0.015084239
-0.015063637
-0.015043035
-0.015022433
-0.015001831
-0.014981229
-0.014960628
-0.014940026
-0.014919424
-0.014898822
-0.01487822
-0.014857618
-0.014837016
-0.014816414
-0.014795812
-0.014775211
-0.014754609
-0.014734007
-0.014713405
-0.014692803
-0.014672201
-0.014651599
-0.014630997
-0.014610396
-0.014589794
-0.014569192
-0.01454859
-0.014527988
-0.014507386
-0.014486784
-0.014466182
-0.014445581
-0.014424979
-0.014404377
-0.014383775
-0.014363173
-0.014342571
-0.014321969
-0.014301367
-0.014280765
-0.014260164
-0.014239562
-0.01421896
-0.014198358
-0.014177756
-0.014157154
-0.014136552
-0.01411595
-0.014095349
-0.014074747
-0.014054145
-0.014033543
-0.014012941
-0.013992339
-0.013971737
-0.013951135
-0.013930534
-0.013909932
-0.01388933
-0.013868728
-0.013848126
-0.013827524
-0.013806922
-0.01378632
-0.013765718
-0.013745117
-0.013724515
-0.013703913
-0.013683311
-0.013662709
-0.013642107
-0.013621505
-0.013600903
-0.013580302
-0.0135597
-0.013539098
-0.013518496
-0.013497894
-0.013477292
-0.01345669
-0.013436088
-0.013415487
-0.013394885
-0.013374283
-0.013353681
-0.013333079
-0.013312477
-0.013291875
-0.013271273
-0.013250671
-0.01323007
-0.013209468
-0.013188866
-0.013168264
-0.013147662
-0.01312706
-0.013106458
-0.013085856
-0.013065255
-0.013044653
-0.013024051
-0.013003449
-0.012982847
-0.012962245
-0.012941643
-0.012921041
-0.01290044
-0.012879838
-0.012859236
-0.012838634
-0.012818032
-0.01279743
-0.012776828
-0.012756226
-0.012735624
-0.012715023
-0.012694421
-0.012673819
-0.012653217
-0.012632615
-0.012612013
-0.012591411
-0.012570809
-0.012550208
-0.012529606
-0.012509004
-0.012488402
-0.0124678
-0.012447198
-0.012426596
-0.012405994
-0.012385393
-0.012364791
-0.012344189
-0.012323587
-0.012302985
-0.012282383
-0.012261781
-0.012241179
-0.012220577
-0.012199976
-0.012179374
-0.012158772
-0.01213817
-0.012117568
-0.012096966
-0.012076364
-0.012055762
-0.012035161
-0.012014559
-0.011993957
-0.011973355
-0.011952753
-0.011932151
-0.011911549
-0.011890947
-0.011870346
-0.011849744
-0.011829142
-0.01180854
-0.011787938
-0.011767336
-0.011746734
-0.011726132
-0.01170553
-0.011684929
-0.011664327
-0.011643725
-0.011623123
-0.011602521
-0.011581919
-0.011561317
-0.011540715
-0.011520114
-0.011499512
-0.01147891
-0.011458308
-0.011437706
-0.011417104
-0.011396502
-0.0113759
-0.011355298
-0.011334697
-0.011314095
-0.011293493
-0.011272891
-0.011252289
-0.011231687
-0.011211085
-0.011190483
-0.011169882
-0.01114928
-0.011128678
-0.011108076
-0.011087474
-0.011066872
-0.01104627
-0.011025668
-0.011005067
-0.010984465
-0.010963863
-0.010943261
-0.010922659
-0.010902057
-0.010881455
-0.010860853
-0.010840251
-0.01081965
-0.010799048
-0.010778446
-0.010757844
-0.010737242
-0.01071664
-0.010696038
-0.010675436
-0.010654835
-0.010634233
-0.010613631
-0.010593029
-0.010572427
-0.010551825
-0.010531223
-0.010510621
-0.01049002
-0.010469418
-0.010448816
-0.010428214
-0.010407612
-0.01038701
-0.010366408
-0.010345806
-0.010325204
-0.010304603
-0.010284001
-0.010263399
-0.010242797
-0.010222195
-0.010201593
-0.010180991
-0.010160389
-0.010139788
-0.010119186
-0.010098584
-0.010077982
-0.01005738
-0.010036778
-0.010016176
-0.009995574
-0.009974973
-0.009954371
-0.009933769
-0.009913167
-0.009892565
-0.009871963
-0.009851361
-0.009830759
-0.009810157
-0.009789556
-0.009768954
-0.009748352
-0.00972775
-0.009707148
-0.009686546
-0.009665944
-0.009645342
-0.009624741
-0.009604139
-0.009583537
-0.009562935
-0.009542333
-0.009521731
-0.009501129
-0.009480527
-0.009459926
-0.009439324
-0.009418722
-0.00939812
-0.009377518
-0.009356916
-0.009336314
-0.009315712
-0.00929511
-0.009274509
-0.009253907
-0.009233305
-0.009212703
-0.009192101
-0.009171499
-0.009150897
-0.009130295
-0.009109694
-0.009089092
-0.00906849
-0.009047888
-0.009027286
-0.009006684
-0.008986082
-0.00896548
-0.008944879
-0.008924277
-0.008903675
-0.008883073
-0.008862471
-0.008841869
-0.008821267
-0.008800665
-0.008780063
-0.008759462
-0.00873886
-0.008718258
-0.008697656
-0.008677054
-0.008656452
-0.00863585
-0.008615248
-0.008594647
-0.008574045
-0.008553443
-0.008532841
-0.008512239
-0.008491637
-0.008471035
-0.008450433
-0.008429832
-0.00840923
-0.008388628
-0.008368026
-0.008347424
-0.008326822
-0.00830622
-0.008285618
-0.008265016
-0.008244415
-0.008223813
-0.008203211
-0.008182609
-0.008162007
-0.008141405
-0.008120803
-0.008100201
-0.0080796
-0.008058998
-0.008038396
-0.008017794
-0.007997192
-0.00797659
-0.007955988
-0.007935386
-0.007914785
-0.007894183
-0.007873581
-0.007852979
-0.007832377
-0.007811775
-0.007791173
-0.007770571
-0.007749969
-0.007729368
-0.007708766
-0.007688164
-0.007667562
-0.00764696
-0.007626358
-0.007605756
-0.007585154
-0.007564553
-0.007543951
-0.007523349
-0.007502747
-0.007482145
-0.007461543
-0.007440941
-0.007420339
-0.007399738
-0.007379136
-0.007358534
-0.007337932
-0.00731733
-0.007296728
-0.007276126
-0.007255524
-0.007234922
-0.007214321
-0.007193719
-0.007173117
-0.007152515
-0.007131913
-0.007111311
-0.007090709
-0.007070107
-0.007049506
-0.007028904
-0.007008302
-0.0069877
-0.006967098
-0.006946496
-0.006925894
-0.006905292
-0.006884691
-0.006864089
-0.006843487
-0.006822885
-0.006802283
-0.006781681
-0.006761079
-0.006740477
-0.006719875
-0.006699274
-0.006678672
-0.00665807
-0.006637468
-0.006616866
-0.006596264
-0.006575662
-0.00655506
-0.006534459
-0.006513857
-0.006493255
-0.006472653
-0.006452051
-0.006431449
-0.006410847
-0.006390245
-0.006369644
-0.006349042
-0.00632844
-0.006307838
-0.006287236
-0.006266634
-0.006246032
-0.00622543
-0.006204828
-0.006184227
-0.006163625
-0.006143023
-0.006122421
-0.006101819
-0.006081217
-0.006060615
-0.006040013
-0.006019412
-0.00599881
-0.005978208
-0.005957606
-0.005937004
-0.005916402
-0.0058958
-0.005875198
-0.005854597
-0.005833995
-0.005813393
-0.005792791
-0.005772189
-0.005751587
-0.005730985
-0.005710383
-0.005689781
-0.00566918
-0.005648578
-0.005627976
-0.005607374
-0.005586772
-0.00556617
-0.005545568
-0.005524966
-0.005504365
-0.005483763
-0.005463161
-0.005442559
-0.005421957
-0.005401355
-0.005380753
-0.005360151
-0.00533955
-0.005318948
-0.005298346
-0.005277744
-0.005257142
-0.00523654
-0.005215938
-0.005195336
-0.005174734
-0.005154133
-0.005133531
-0.005112929
-0.005092327
-0.005071725
-0.005051123
-0.005030521
-0.005009919
-0.004989318
-0.004968716
-0.004948114
-0.004927512
-0.00490691
-0.004886308
-0.004865706
-0.004845104
-0.004824503
-0.004803901
-0.004783299
-0.004762697
-0.004742095
-0.004721493
-0.004700891
-0.004680289
-0.004659687
-0.004639086
-0.004618484
-0.004597882
-0.00457728
-0.004556678
-0.004536076
-0.004515474
-0.004494872
-0.004474271
-0.004453669
-0.004433067
-0.004412465
-0.004391863
-0.004371261
-0.004350659
-0.004330057
-0.004309455
-0.004288854
-0.004268252
-0.00424765
-0.004227048
-0.004206446
-0.004185844
-0.004165242
-0.00414464
-0.004124039
-0.004103437
-0.004082835
-0.004062233
-0.004041631
-0.004021029
-0.004000427
-0.003979825
-0.003959224
-0.003938622
-0.00391802
-0.003897418
-0.003876816
-0.003856214
-0.003835612
-0.00381501
-0.003794408
-0.003773807
-0.003753205
-0.003732603
-0.003712001
-0.003691399
-0.003670797
-0.003650195
-0.003629593
-0.003608992
-0.00358839
-0.003567788
-0.003547186
-0.003526584
-0.003505982
-0.00348538
-0.003464778
-0.003444177
-0.003423575
-0.003402973
-0.003382371
-0.003361769
-0.003341167
-0.003320565
-0.003299963
-0.003279361
-0.00325876
-0.003238158
-0.003217556
-0.003196954
-0.003176352
-0.00315575
-0.003135148
-0.003114546
-0.003093945
-0.003073343
-0.003052741
-0.003032139
-0.003011537
-0.002990935
-0.002970333
-0.002949731
-0.00292913
-0.002908528
-0.002887926
-0.002867324
-0.002846722
-0.00282612
-0.002805518
-0.002784916
-0.002764314
-0.002743713
-0.002723111
-0.002702509
-0.002681907
-0.002661305
-0.002640703
-0.002620101
-0.002599499
-0.002578898
-0.002558296
-0.002537694
-0.002517092
-0.00249649
-0.002475888
-0.002455286
-0.002434684
-0.002414083
-0.002393481
-0.002372879
-0.002352277
-0.002331675
-0.002311073
-0.002290471
-0.002269869
-0.002249267
-0.002228666
-0.002208064
-0.002187462
-0.00216686
-0.002146258
-0.002125656
-0.002105054
-0.002084452
-0.002063851
-0.002043249
-0.002022647
-0.002002045
-0.001981443
-0.001960841
-0.001940239
-0.001919637
-0.001899036
-0.001878434
-0.001857832
-0.00183723
-0.001816628
-0.001796026
-0.001775424
-0.001754822
-0.00173422
-0.001713619
-0.001693017
-0.001672415
-0.001651813
-0.001631211
-0.001610609
-0.001590007
-0.001569405
-0.001548804
-0.001528202
-0.0015076
-0.001486998
-0.001466396
-0.001445794
-0.001425192
-0.00140459
-0.001383989
-0.001363387
-0.001342785
-0.001322183
-0.001301581
-0.001280979
-0.001260377
-0.001239775
-0.001219173
-0.001198572
-0.00117797
-0.001157368
-0.001136766
-0.001116164
-0.001095562
-0.00107496
-0.001054358
-0.001033757
-0.001013155
-0.000992553
-0.000971951
-0.000951349
-0.000930747
-0.000910145
-0.000889543
-0.000868942
-0.00084834
-0.000827738
-0.000807136
-0.000786534
-0.000765932
-0.00074533
-0.000724728
-0.000704126
-0.000683525
-0.000662923
-0.000642321
-0.000621719
-0.000601117
-0.000580515
-0.000559913
-0.000539311
-0.00051871
-0.000498108
-0.000477506
-0.000456904
-0.000436302
-0.0004157
-0.000395098
-0.000374496
-0.000353895
-0.000333293
-0.000312691
-0.000292089
-0.000271487
-0.000250885
-0.000230283
-0.000209681
-0.000189079
-0.000168478
-0.000147876
-0.000127274
-0.000106672
-8.607e-05
-6.5468e-05
-4.4866e-05
-2.4264e-05
-3.663e-06
1.6939e-05
3.7541e-05
5.8143e-05
7.8745e-05
9.9347e-05
0.000119949
0.000140551
0.000161152
0.000181754
0.000202356
0.000222958
0.00024356
0.000264162
0.000284764
0.000305366
0.000325968
0.000346569
0.000367171
0.000387773
0.000408375
0.000428977
0.000449579
0.000470181
0.000490783
0.000511384
0.000531986
0.000552588
0.00057319
0.000593792
0.000614394
0.000634996
0.000655598
0.000676199
0.000696801
0.000717403
0.000738005
0.000758607
0.000779209
0.000799811
0.000820413
0.000841015
0.000861616
0.000882218
0.00090282
0.000923422
0.000944024
0.000964626
0.000985228
0.00100583
0.001026431
0.001047033
0.001067635
0.001088237
0.001108839
0.001129441
0.001150043
0.001170645
0.001191246
0.001211848
0.00123245
0.001253052
0.001273654
0.001294256
0.001314858
0.00133546
0.001356062
0.001376663
0.001397265
0.001417867
0.001438469
0.001459071
0.001479673
0.001500275
0.001520877
0.001541478
0.00156208
0.001582682
0.001603284
0.001623886
0.001644488
0.00166509
0.001685692
0.001706293
0.001726895
0.001747497
0.001768099
0.001788701
0.001809303
0.001829905
0.001850507
0.001871109
0.00189171
0.001912312
0.001932914
0.001953516
0.001974118
0.00199472
0.002015322
0.002035924
0.002056525
0.002077127
0.002097729
0.002118331
0.002138933
0.002159535
0.002180137
0.002200739
0.00222134
0.002241942
0.002262544
0.002283146
0.002303748
0.00232435
0.002344952
0.002365554
0.002386156
0.002406757
0.002427359
0.002447961
0.002468563
0.002489165
0.002509767
0.002530369
0.002550971
0.002571572
0.002592174
0.002612776
0.002633378
0.00265398
0.002674582
0.002695184
0.002715786
0.002736387
0.002756989
0.002777591
0.002798193
0.002818795
0.002839397
0.002859999
0.002880601
0.002901203
0.002921804
0.002942406
0.002963008
0.00298361
0.003004212
0.003024814
0.003045416
0.003066018
0.003086619
0.003107221
0.003127823
0.003148425
0.003169027
0.003189629
0.003210231
0.003230833
0.003251435
0.003272036
0.003292638
0.00331324
0.003333842
0.003354444
0.003375046
0.003395648
0.00341625
0.003436851
0.003457453
0.003478055
0.003498657
0.003519259
0.003539861
0.003560463
0.003581065
0.003601666
0.003622268
0.00364287
0.003663472
0.003684074
0.003704676
0.003725278
0.00374588
0.003766482
0.003787083
0.003807685
0.003828287
0.003848889
0.003869491
0.003890093
0.003910695
0.003931297
0.003951898
0.0039725
0.003993102
0.004013704
0.004034306
0.004054908
0.00407551
0.004096112
0.004116713
0.004137315
0.004157917
0.004178519
0.004199121
0.004219723
0.004240325
0.004260927
0.004281529
0.00430213
0.004322732
0.004343334
0.004363936
0.004384538
0.00440514
0.004425742
0.004446344
0.004466945
0.004487547
0.004508149
0.004528751
0.004549353
0.004569955
0.004590557
0.004611159
0.00463176
0.004652362
0.004672964
0.004693566
0.004714168
0.00473477
0.004755372
0.004775974
0.004796576
0.004817177
0.004837779
0.004858381
0.004878983
0.004899585
0.004920187
0.004940789
0.004961391
0.004981992
0.005002594
0.005023196
0.005043798
0.0050644
0.005085002
0.005105604
0.005126206
0.005146807
0.005167409
0.005188011
0.005208613
0.005229215
0.005249817
0.005270419
0.005291021
0.005311623
0.005332224
0.005352826
0.005373428
0.00539403
0.005414632
0.005435234
0.005455836
0.005476438
0.005497039
0.005517641
0.005538243
0.005558845
0.005579447
0.005600049
0.005620651
0.005641253
0.005661854
0.005682456
0.005703058
0.00572366
0.005744262
0.005764864
0.005785466
0.005806068
0.00582667
0.005847271
0.005867873
0.005888475
0.005909077
0.005929679
0.005950281
0.005970883
0.005991485
0.006126668
0.006147728
0.006168817
0.006189937
0.006211086
0.006232264
0.006253473
0.006274711
0.006295979
0.006317277
0.006338606
0.006359964
0.006381352
0.00640277
0.006424218
0.006445697
0.006467205
0.006488744
0.006510314
0.006531913
0.006553543
0.006575204
0.006596894
0.006618616
0.006640368
0.00666215
0.006683963
0.006705807
0.006727682
0.006749587
0.006771523
0.00679349
0.006815488
0.006837517
0.006859577
0.006881667
0.006903789
0.006925942
0.006948127
0.006970342
0.006992589
0.007014867
0.007037176
0.007059516
0.007081888
0.007104292
0.007126727
0.007149194
0.007171692
0.007194222
0.007216783
0.007239376
0.007262001
0.007284658
0.007307347
0.007330068
0.00735282
0.007375605
0.007398422
0.00742127
0.007444151
0.007467064
0.00749001
0.007512987
0.007535997
0.007559039
0.007582114
0.007605221
0.007628361
0.007651533
0.007674738
0.007697975
0.007721245
0.007744548
0.007767884
0.007791252
0.007814653
0.007838087
0.007861555
0.007885055
0.007908588
0.007932154
0.007955754
0.007979386
0.008003052
0.008026751
0.008050484
0.00807425
0.008098049
0.008121882
0.008145748
0.008169648
0.008193582
0.008217549
0.00824155
0.008265584
0.008289653
0.008313755
0.008337891
0.008362062
0.008386266
0.008410504
0.008434776
0.008459083
0.008483423
0.008507798
0.008532207
0.008556651
0.008581129
0.008605641
0.008630188
0.008654769
0.008679385
0.008704035
0.00872872
0.00875344
0.008778195
0.008802984
0.008827809
0.008852668
0.008877562
0.008902491
0.008927456
0.008952455
0.00897749
0.009002559
0.009027664
0.009052805
0.009077981
0.009103192
0.009128438
0.00915372
0.009179038
0.009204391
0.00922978
0.009255205
0.009280665
0.009306161
0.009331693
0.009357261
0.009382865
0.009408505
0.009434181
0.009459894
0.009485642
