OpenDRT_v1.0-2.0_full-config_v2/transfer_functions/oetf_sony_slog3_to_linear.spi1d
Version 1
From -0.15 1.2
Length 8192
Components 1
{
-0.036675655
-0.036650766
-0.036625877
-0.036600988
-0.036576098
-0.036551209
-0.03652632
-0.036501431
-0.036476542
-0.036451652
-0.036426763
-0.036401874
-0.036376985
-0.036352095
-0.036327206
-0.036302317
-0.036277428
-0.036252539
-0.036227649
-0.03620276
-0.036177871
-0.036152982
-0.036128092
-0.036103203
-0.036078314
-0.036053425
-0.036028535
-0.036003646
-0.035978757
-0.035953868
-0.035928979
-0.035904089
-0.0358792
-0.035854311
-0.035829422
-0.035804532
-0.035779643
-0.035754754
-0.035729865
-0.035704976
-0.035680086
-0.035655197
-0.035630308
-0.035605419
-0.035580529
-0.03555564
-0.035530751
-0.035505862
-0.035480973
-0.035456083
-0.035431194
-0.035406305
-0.035381416
-0.035356526
-0.035331637
-0.035306748
-0.035281859
-0.03525697
-0.03523208
-0.035207191
-0.035182302
-0.035157413
-0.035132523
-0.035107634
-0.035082745
-0.035057856
-0.035032967
-0.035008077
-0.034983188
-0.034958299
-0.03493341
-0.03490852
-0.034883631
-0.034858742
-0.034833853
-0.034808964
-0.034784074
-0.034759185
-0.034734296
-0.034709407
-0.034684517
-0.034659628
-0.034634739
-0.03460985
-0.03458496
-0.034560071
-0.034535182
-0.034510293
-0.034485404
-0.034460514
-0.034435625
-0.034410736
-0.034385847
-0.034360957
-0.034336068
-0.034311179
-0.03428629
-0.034261401
-0.034236511
-0.034211622
-0.034186733
-0.034161844
-0.034136954
-0.034112065
-0.034087176
-0.034062287
-0.034037398
-0.034012508
-0.033987619
-0.03396273
-0.033937841
-0.033912951
-0.033888062
-0.033863173
-0.033838284
-0.033813395
-0.033788505
-0.033763616
-0.033738727
-0.033713838
-0.033688948
-0.033664059
-0.03363917
-0.033614281
-0.033589392
-0.033564502
-0.033539613
-0.033514724
-0.033489835
-0.033464945
-0.033440056
-0.033415167
-0.033390278
-0.033365389
-0.033340499
-0.03331561
-0.033290721
-0.033265832
-0.033240942
-0.033216053
-0.033191164
-0.033166275
-0.033141386
-0.033116496
-0.033091607
-0.033066718
-0.033041829
-0.033016939
-0.03299205
-0.032967161
-0.032942272
-0.032917382
-0.032892493
-0.032867604
-0.032842715
-0.032817826
-0.032792936
-0.032768047
-0.032743158
-0.032718269
-0.032693379
-0.03266849
-0.032643601
-0.032618712
-0.032593823
-0.032568933
-0.032544044
-0.032519155
-0.032494266
-0.032469376
-0.032444487
-0.032419598
-0.032394709
-0.03236982
-0.03234493
-0.032320041
-0.032295152
-0.032270263
-0.032245373
-0.032220484
-0.032195595
-0.032170706
-0.032145817
-0.032120927
-0.032096038
-0.032071149
-0.03204626
-0.03202137
-0.031996481
-0.031971592
-0.031946703
-0.031921814
-0.031896924
-0.031872035
-0.031847146
-0.031822257
-0.031797367
-0.031772478
-0.031747589
-0.0317227
-0.031697811
-0.031672921
-0.031648032
-0.031623143
-0.031598254
-0.031573364
-0.031548475
-0.031523586
-0.031498697
-0.031473807
-0.031448918
-0.031424029
-0.03139914
-0.031374251
-0.031349361
-0.031324472
-0.031299583
-0.031274694
-0.031249804
-0.031224915
-0.031200026
-0.031175137
-0.031150248
-0.031125358
-0.031100469
-0.03107558
-0.031050691
-0.031025801
-0.031000912
-0.030976023
-0.030951134
-0.030926245
-0.030901355
-0.030876466
-0.030851577
-0.030826688
-0.030801798
-0.030776909
-0.03075202
-0.030727131
-0.030702242
-0.030677352
-0.030652463
-0.030627574
-0.030602685
-0.030577795
-0.030552906
-0.030528017
-0.030503128
-0.030478239
-0.030453349
-0.03042846
-0.030403571
-0.030378682
-0.030353792
-0.030328903
-0.030304014
-0.030279125
-0.030254236
-0.030229346
-0.030204457
-0.030179568
-0.030154679
-0.030129789
-0.0301049
-0.030080011
-0.030055122
-0.030030232
-0.030005343
-0.029980454
-0.029955565
-0.029930676
-0.029905786
-0.029880897
-0.029856008
-0.029831119
-0.029806229
-0.02978134
-0.029756451
-0.029731562
-0.029706673
-0.029681783
-0.029656894
-0.029632005
-0.029607116
-0.029582226
-0.029557337
-0.029532448
-0.029507559
-0.02948267
-0.02945778
-0.029432891
-0.029408002
-0.029383113
-0.029358223
-0.029333334
-0.029308445
-0.029283556
-0.029258667
-0.029233777
-0.029208888
-0.029183999
-0.02915911
-0.02913422
-0.029109331
-0.029084442
-0.029059553
-0.029034664
-0.029009774
-0.028984885
-0.028959996
-0.028935107
-0.028910217
-0.028885328
-0.028860439
-0.02883555
-0.028810661
-0.028785771
-0.028760882
-0.028735993
-0.028711104
-0.028686214
-0.028661325
-0.028636436
-0.028611547
-0.028586657
-0.028561768
-0.028536879
-0.02851199
-0.028487101
-0.028462211
-0.028437322
-0.028412433
-0.028387544
-0.028362654
-0.028337765
-0.028312876
-0.028287987
-0.028263098
-0.028238208
-0.028213319
-0.02818843
-0.028163541
-0.028138651
-0.028113762
-0.028088873
-0.028063984
-0.028039095
-0.028014205
-0.027989316
-0.027964427
-0.027939538
-0.027914648
-0.027889759
-0.02786487
-0.027839981
-0.027815092
-0.027790202
-0.027765313
-0.027740424
-0.027715535
-0.027690645
-0.027665756
-0.027640867
-0.027615978
-0.027591089
-0.027566199
-0.02754131
-0.027516421
-0.027491532
-0.027466642
-0.027441753
-0.027416864
-0.027391975
-0.027367086
-0.027342196
-0.027317307
-0.027292418
-0.027267529
-0.027242639
-0.02721775
-0.027192861
-0.027167972
-0.027143082
-0.027118193
-0.027093304
-0.027068415
-0.027043526
-0.027018636
-0.026993747
-0.026968858
-0.026943969
-0.026919079
-0.02689419
-0.026869301
-0.026844412
-0.026819523
-0.026794633
-0.026769744
-0.026744855
-0.026719966
-0.026695076
-0.026670187
-0.026645298
-0.026620409
-0.02659552
-0.02657063
-0.026545741
-0.026520852
-0.026495963
-0.026471073
-0.026446184
-0.026421295
-0.026396406
-0.026371517
-0.026346627
-0.026321738
-0.026296849
-0.02627196
-0.02624707
-0.026222181
-0.026197292
-0.026172403
-0.026147514
-0.026122624
-0.026097735
-0.026072846
-0.026047957
-0.026023067
-0.025998178
-0.025973289
-0.0259484
-0.025923511
-0.025898621
-0.025873732
-0.025848843
-0.025823954
-0.025799064
-0.025774175
-0.025749286
-0.025724397
-0.025699508
-0.025674618
-0.025649729
-0.02562484
-0.025599951
-0.025575061
-0.025550172
-0.025525283
-0.025500394
-0.025475504
-0.025450615
-0.025425726
-0.025400837
-0.025375948
-0.025351058
-0.025326169
-0.02530128
-0.025276391
-0.025251501
-0.025226612
-0.025201723
-0.025176834
-0.025151945
-0.025127055
-0.025102166
-0.025077277
-0.025052388
-0.025027498
-0.025002609
-0.02497772
-0.024952831
-0.024927942
-0.024903052
-0.024878163
-0.024853274
-0.024828385
-0.024803495
-0.024778606
-0.024753717
-0.024728828
-0.024703939
-0.024679049
-0.02465416
-0.024629271
-0.024604382
-0.024579492
-0.024554603
-0.024529714
-0.024504825
-0.024479936
-0.024455046
-0.024430157
-0.024405268
-0.024380379
-0.024355489
-0.0243306
-0.024305711
-0.024280822
-0.024255933
-0.024231043
-0.024206154
-0.024181265
-0.024156376
-0.024131486
-0.024106597
-0.024081708
-0.024056819
-0.024031929
-0.02400704
-0.023982151
-0.023957262
-0.023932373
-0.023907483
-0.023882594
-0.023857705
-0.023832816
-0.023807926
-0.023783037
-0.023758148
-0.023733259
-0.02370837
-0.02368348
-0.023658591
-0.023633702
-0.023608813
-0.023583923
-0.023559034
-0.023534145
-0.023509256
-0.023484367
-0.023459477
-0.023434588
-0.023409699
-0.02338481
-0.02335992
-0.023335031
-0.023310142
-0.023285253
-0.023260364
-0.023235474
-0.023210585
-0.023185696
-0.023160807
-0.023135917
-0.023111028
-0.023086139
-0.02306125
-0.023036361
-0.023011471
-0.022986582
-0.022961693
-0.022936804
-0.022911914
-0.022887025
-0.022862136
-0.022837247
-0.022812358
-0.022787468
-0.022762579
-0.02273769
-0.022712801
-0.022687911
-0.022663022
-0.022638133
-0.022613244
-0.022588354
-0.022563465
-0.022538576
-0.022513687
-0.022488798
-0.022463908
-0.022439019
-0.02241413
-0.022389241
-0.022364351
-0.022339462
-0.022314573
-0.022289684
-0.022264795
-0.022239905
-0.022215016
-0.022190127
-0.022165238
-0.022140348
-0.022115459
-0.02209057
-0.022065681
-0.022040792
-0.022015902
-0.021991013
-0.021966124
-0.021941235
-0.021916345
-0.021891456
-0.021866567
-0.021841678
-0.021816789
-0.021791899
-0.02176701
-0.021742121
-0.021717232
-0.021692342
-0.021667453
-0.021642564
-0.021617675
-0.021592786
-0.021567896
-0.021543007
-0.021518118
-0.021493229
-0.021468339
-0.02144345
-0.021418561
-0.021393672
-0.021368783
-0.021343893
-0.021319004
-0.021294115
-0.021269226
-0.021244336
-0.021219447
-0.021194558
-0.021169669
-0.021144779
-0.02111989
-0.021095001
-0.021070112
-0.021045223
-0.021020333
-0.020995444
-0.020970555
-0.020945666
-0.020920776
-0.020895887
-0.020870998
-0.020846109
-0.02082122
-0.02079633
-0.020771441
-0.020746552
-0.020721663
-0.020696773
-0.020671884
-0.020646995
-0.020622106
-0.020597217
-0.020572327
-0.020547438
-0.020522549
-0.02049766
-0.02047277
-0.020447881
-0.020422992
-0.020398103
-0.020373214
-0.020348324
-0.020323435
-0.020298546
-0.020273657
-0.020248767
-0.020223878
-0.020198989
-0.0201741
-0.020149211
-0.020124321
-0.020099432
-0.020074543
-0.020049654
-0.020024764
-0.019999875
-0.019974986
-0.019950097
-0.019925208
-0.019900318
-0.019875429
-0.01985054
-0.019825651
-0.019800761
-0.019775872
-0.019750983
-0.019726094
-0.019701204
-0.019676315
-0.019651426
-0.019626537
-0.019601648
-0.019576758
-0.019551869
-0.01952698
-0.019502091
-0.019477201
-0.019452312
-0.019427423
-0.019402534
-0.019377645
-0.019352755
-0.019327866
-0.019302977
-0.019278088
-0.019253198
-0.019228309
-0.01920342
-0.019178531
-0.019153642
-0.019128752
-0.019103863
-0.019078974
-0.019054085
-0.019029195
-0.019004306
-0.018979417
-0.018954528
-0.018929639
-0.018904749
-0.01887986
-0.018854971
-0.018830082
-0.018805192
-0.018780303
-0.018755414
-0.018730525
-0.018705636
-0.018680746
-0.018655857
-0.018630968
-0.018606079
-0.018581189
-0.0185563
-0.018531411
-0.018506522
-0.018481633
-0.018456743
-0.018431854
-0.018406965
-0.018382076
-0.018357186
-0.018332297
-0.018307408
-0.018282519
-0.018257629
-0.01823274
-0.018207851
-0.018182962
-0.018158073
-0.018133183
-0.018108294
-0.018083405
-0.018058516
-0.018033626
-0.018008737
-0.017983848
-0.017958959
-0.01793407
-0.01790918
-0.017884291
-0.017859402
-0.017834513
-0.017809623
-0.017784734
-0.017759845
-0.017734956
-0.017710067
-0.017685177
-0.017660288
-0.017635399
-0.01761051
-0.01758562
-0.017560731
-0.017535842
-0.017510953
-0.017486064
-0.017461174
-0.017436285
-0.017411396
-0.017386507
-0.017361617
-0.017336728
-0.017311839
-0.01728695
-0.017262061
-0.017237171
-0.017212282
-0.017187393
-0.017162504
-0.017137614
-0.017112725
-0.017087836
-0.017062947
-0.017038058
-0.017013168
-0.016988279
-0.01696339
-0.016938501
-0.016913611
-0.016888722
-0.016863833
-0.016838944
-0.016814055
-0.016789165
-0.016764276
-0.016739387
-0.016714498
-0.016689608
-0.016664719
-0.01663983
-0.016614941
-0.016590051
-0.016565162
-0.016540273
-0.016515384
-0.016490495
-0.016465605
-0.016440716
-0.016415827
-0.016390938
-0.016366048
-0.016341159
-0.01631627
-0.016291381
-0.016266492
-0.016241602
-0.016216713
-0.016191824
-0.016166935
-0.016142045
-0.016117156
-0.016092267
-0.016067378
-0.016042489
-0.016017599
-0.01599271
-0.015967821
-0.015942932
-0.015918042
-0.015893153
-0.015868264
-0.015843375
-0.015818486
-0.015793596
-0.015768707
-0.015743818
-0.015718929
-0.015694039
-0.01566915
-0.015644261
-0.015619372
-0.015594483
-0.015569593
-0.015544704
-0.015519815
-0.015494926
-0.015470036
-0.015445147
-0.015420258
-0.015395369
-0.01537048
-0.01534559
-0.015320701
-0.015295812
-0.015270923
-0.015246033
-0.015221144
-0.015196255
-0.015171366
-0.015146476
-0.015121587
-0.015096698
-0.015071809
-0.01504692
-0.01502203
-0.014997141
-0.014972252
-0.014947363
-0.014922473
-0.014897584
-0.014872695
-0.014847806
-0.014822917
-0.014798027
-0.014773138
-0.014748249
-0.01472336
-0.01469847
-0.014673581
-0.014648692
-0.014623803
-0.014598914
-0.014574024
-0.014549135
-0.014524246
-0.014499357
-0.014474467
-0.014449578
-0.014424689
-0.0143998
-0.014374911
-0.014350021
-0.014325132
-0.014300243
-0.014275354
-0.014250464
-0.014225575
-0.014200686
-0.014175797
-0.014150908
-0.014126018
-0.014101129
-0.01407624
-0.014051351
-0.014026461
-0.014001572
-0.013976683
-0.013951794
-0.013926905
-0.013902015
-0.013877126
-0.013852237
-0.013827348
-0.013802458
-0.013777569
-0.01375268
-0.013727791
-0.013702901
-0.013678012
-0.013653123
-0.013628234
-0.013603345
-0.013578455
-0.013553566
-0.013528677
-0.013503788
-0.013478898
-0.013454009
-0.01342912
-0.013404231
-0.013379342
-0.013354452
-0.013329563
-0.013304674
-0.013279785
-0.013254895
-0.013230006
-0.013205117
-0.013180228
-0.013155339
-0.013130449
-0.01310556
-0.013080671
-0.013055782
-0.013030892
-0.013006003
-0.012981114
-0.012956225
-0.012931336
-0.012906446
-0.012881557
-0.012856668
-0.012831779
-0.012806889
-0.012782
-0.012757111
-0.012732222
-0.012707333
-0.012682443
-0.012657554
-0.012632665
-0.012607776
-0.012582886
-0.012557997
-0.012533108
-0.012508219
-0.01248333
-0.01245844
-0.012433551
-0.012408662
-0.012383773
-0.012358883
-0.012333994
-0.012309105
-0.012284216
-0.012259326
-0.012234437
-0.012209548
-0.012184659
-0.01215977
-0.01213488
-0.012109991
-0.012085102
-0.012060213
-0.012035323
-0.012010434
-0.011985545
-0.011960656
-0.011935767
-0.011910877
-0.011885988
-0.011861099
-0.01183621
-0.01181132
-0.011786431
-0.011761542
-0.011736653
-0.011711764
-0.011686874
-0.011661985
-0.011637096
-0.011612207
-0.011587317
-0.011562428
-0.011537539
-0.01151265
-0.011487761
-0.011462871
-0.011437982
-0.011413093
-0.011388204
-0.011363314
-0.011338425
-0.011313536
-0.011288647
-0.011263758
-0.011238868
-0.011213979
-0.01118909
-0.011164201
-0.011139311
-0.011114422
-0.011089533
-0.011064644
-0.011039755
-0.011014865
-0.010989976
-0.010965087
-0.010940198
-0.010915308
-0.010890419
-0.01086553
-0.010840641
-0.010815751
-0.010790862
-0.010765973
-0.010741084
-0.010716195
-0.010691305
-0.010666416
-0.010641527
-0.010616638
-0.010591748
-0.010566859
-0.01054197
-0.010517081
-0.010492192
-0.010467302
-0.010442413
-0.010417524
-0.010392635
-0.010367745
-0.010342856
-0.010317967
-0.010293078
-0.010268189
-0.010243299
-0.01021841
-0.010193521
-0.010168632
-0.010143742
-0.010118853
-0.010093964
-0.010069075
-0.010044186
-0.010019296
-0.009994407
-0.009969518
-0.009944629
-0.009919739
-0.00989485
-0.009869961
-0.009845072
-0.009820183
-0.009795293
-0.009770404
-0.009745515
-0.009720626
-0.009695736
-0.009670847
-0.009645958
-0.009621069
-0.00959618
-0.00957129
-0.009546401
-0.009521512
-0.009496623
-0.009471733
-0.009446844
-0.009421955
-0.009397066
-0.009372177
-0.009347287
-0.009322398
-0.009297509
-0.00927262
-0.00924773
-0.009222841
-0.009197952
-0.009173063
-0.009148173
-0.009123284
-0.009098395
-0.009073506
-0.009048617
-0.009023727
-0.008998838
-0.008973949
-0.00894906
-0.00892417
-0.008899281
-0.008874392
-0.008849503
-0.008824614
-0.008799724
-0.008774835
-0.008749946
-0.008725057
-0.008700167
-0.008675278
-0.008650389
-0.0086255
-0.008600611
-0.008575721
-0.008550832
-0.008525943
-0.008501054
-0.008476164
-0.008451275
-0.008426386
-0.008401497
-0.008376608
-0.008351718
-0.008326829
-0.00830194
-0.008277051
-0.008252161
-0.008227272
-0.008202383
-0.008177494
-0.008152605
-0.008127715
-0.008102826
-0.008077937
-0.008053048
-0.008028158
-0.008003269
-0.00797838
-0.007953491
-0.007928602
-0.007903712
-0.007878823
-0.007853934
-0.007829045
-0.007804155
-0.007779266
-0.007754377
-0.007729488
-0.007704598
-0.007679709
-0.00765482
-0.007629931
-0.007605042
-0.007580152
-0.007555263
-0.007530374
-0.007505485
-0.007480595
-0.007455706
-0.007430817
-0.007405928
-0.007381039
-0.007356149
-0.00733126
-0.007306371
-0.007281482
-0.007256592
-0.007231703
-0.007206814
-0.007181925
-0.007157036
-0.007132146
-0.007107257
-0.007082368
-0.007057479
-0.007032589
-0.0070077
-0.006982811
-0.006957922
-0.006933033
-0.006908143
-0.006883254
-0.006858365
-0.006833476
-0.006808586
-0.006783697
-0.006758808
-0.006733919
-0.00670903
-0.00668414
-0.006659251
-0.006634362
-0.006609473
-0.006584583
-0.006559694
-0.006534805
-0.006509916
-0.006485027
-0.006460137
-0.006435248
-0.006410359
-0.00638547
-0.00636058
-0.006335691
-0.006310802
-0.006285913
-0.006261023
-0.006236134
-0.006211245
-0.006186356
-0.006161467
-0.006136577
-0.006111688
-0.006086799
-0.00606191
-0.00603702
-0.006012131
-0.005987242
-0.005962353
-0.005937464
-0.005912574
-0.005887685
-0.005862796
-0.005837907
-0.005813017
-0.005788128
-0.005763239
-0.00573835
-0.005713461
-0.005688571
-0.005663682
-0.005638793
-0.005613904
-0.005589014
-0.005564125
-0.005539236
-0.005514347
-0.005489458
-0.005464568
-0.005439679
-0.00541479
-0.005389901
-0.005365011
-0.005340122
-0.005315233
-0.005290344
-0.005265455
-0.005240565
-0.005215676
-0.005190787
-0.005165898
-0.005141008
-0.005116119
-0.00509123
-0.005066341
-0.005041452
-0.005016562
-0.004991673
-0.004966784
-0.004941895
-0.004917005
-0.004892116
-0.004867227
-0.004842338
-0.004817448
-0.004792559
-0.00476767
-0.004742781
-0.004717892
-0.004693002
-0.004668113
-0.004643224
-0.004618335
-0.004593445
-0.004568556
-0.004543667
-0.004518778
-0.004493889
-0.004468999
-0.00444411
-0.004419221
-0.004394332
-0.004369442
-0.004344553
-0.004319664
-0.004294775
-0.004269886
-0.004244996
-0.004220107
-0.004195218
-0.004170329
-0.004145439
-0.00412055
-0.004095661
-0.004070772
-0.004045883
-0.004020993
-0.003996104
-0.003971215
-0.003946326
-0.003921436
-0.003896547
-0.003871658
-0.003846769
-0.00382188
-0.00379699
-0.003772101
-0.003747212
-0.003722323
-0.003697433
-0.003672544
-0.003647655
-0.003622766
-0.003597877
-0.003572987
-0.003548098
-0.003523209
-0.00349832
-0.00347343
-0.003448541
-0.003423652
-0.003398763
-0.003373873
-0.003348984
-0.003324095
-0.003299206
-0.003274317
-0.003249427
-0.003224538
-0.003199649
-0.00317476
-0.00314987
-0.003124981
-0.003100092
-0.003075203
-0.003050314
-0.003025424
-0.003000535
-0.002975646
-0.002950757
-0.002925867
-0.002900978
-0.002876089
-0.0028512
-0.002826311
-0.002801421
-0.002776532
-0.002751643
-0.002726754
-0.002701864
-0.002676975
-0.002652086
-0.002627197
-0.002602308
-0.002577418
-0.002552529
-0.00252764
-0.002502751
-0.002477861
-0.002452972
-0.002428083
-0.002403194
-0.002378305
-0.002353415
-0.002328526
-0.002303637
-0.002278748
-0.002253858
-0.002228969
-0.00220408
-0.002179191
-0.002154302
-0.002129412
-0.002104523
-0.002079634
-0.002054745
-0.002029855
-0.002004966
-0.001980077
-0.001955188
-0.001930299
-0.001905409
-0.00188052
-0.001855631
-0.001830742
-0.001805852
-0.001780963
-0.001756074
-0.001731185
-0.001706295
-0.001681406
-0.001656517
-0.001631628
-0.001606739
-0.001581849
-0.00155696
-0.001532071
-0.001507182
-0.001482292
-0.001457403
-0.001432514
-0.001407625
-0.001382736
-0.001357846
-0.001332957
-0.001308068
-0.001283179
-0.001258289
-0.0012334
-0.001208511
-0.001183622
-0.001158733
-0.001133843
-0.001108954
-0.001084065
-0.001059176
-0.001034286
-0.001009397
-0.000984508
-0.000959619
-0.00093473
-0.00090984
-0.000884951
-0.000860062
-0.000835173
-0.000810283
-0.000785394
-0.000760505
-0.000735616
-0.000710727
-0.000685837
-0.000660948
-0.000636059
-0.00061117
-0.00058628
-0.000561391
-0.000536502
-0.000511613
-0.000486724
-0.000461834
-0.000436945
-0.000412056
-0.000387167
-0.000362277
-0.000337388
-0.000312499
-0.00028761
-0.00026272
-0.000237831
-0.000212942
-0.000188053
-0.000163164
-0.000138274
-0.000113385
-8.8496e-05
-6.3607e-05
-3.8717e-05
-1.3828e-05
1.1061e-05
3.595e-05
6.0839e-05
8.5729e-05
0.000110618
0.000135507
0.000160396
0.000185286
0.000210175
0.000235064
0.000259953
0.000284842
0.000309732
0.000334621
0.00035951
0.000384399
0.000409289
0.000434178
0.000459067
0.000483956
0.000508845
0.000533735
0.000558624
0.000583513
0.000608402
0.000633292
0.000658181
0.00068307
0.000707959
0.000732848
0.000757738
0.000782627
0.000807516
0.000832405
0.000857295
0.000882184
0.000907073
0.000931962
0.000956851
0.000981741
0.00100663
0.001031519
0.001056408
0.001081298
0.001106187
0.001131076
0.001155965
0.001180855
0.001205744
0.001230633
0.001255522
0.001280411
0.001305301
0.00133019
0.001355079
0.001379968
0.001404858
0.001429747
0.001454636
0.001479525
0.001504414
0.001529304
0.001554193
0.001579082
0.001603971
0.001628861
0.00165375
0.001678639
0.001703528
0.001728417
0.001753307
0.001778196
0.001803085
0.001827974
0.001852864
0.001877753
0.001902642
0.001927531
0.00195242
0.00197731
0.002002199
0.002027088
0.002051977
0.002076867
0.002101756
0.002126645
0.002151534
0.002176423
0.002201313
0.002226202
0.002251091
0.00227598
0.00230087
0.002325759
0.002350648
0.002375537
0.002400426
0.002425316
0.002450205
0.002475094
0.002499983
0.002524873
0.002549762
0.002574651
0.00259954
0.00262443
0.002649319
0.002674208
0.002699097
0.002723986
0.002748876
0.002773765
0.002798654
0.002823543
0.002848433
0.002873322
0.002898211
0.0029231
0.002947989
0.002972879
0.002997768
0.003022657
0.003047546
0.003072436
0.003097325
0.003122214
0.003147103
0.003171992
0.003196882
0.003221771
0.00324666
0.003271549
0.003296439
0.003321328
0.003346217
0.003371106
0.003395995
0.003420885
0.003445774
0.003470663
0.003495552
0.003520442
0.003545331
0.00357022
0.003595109
0.003619998
0.003644888
0.003669777
0.003694666
0.003719555
0.003744445
0.003769334
0.003794223
0.003819112
0.003844001
0.003868891
0.00389378
0.003918669
0.003943558
0.003968448
0.003993337
0.004018226
0.004043115
0.004068005
0.004092894
0.004117783
0.004142672
0.004167561
0.004192451
0.00421734
0.004242229
0.004267118
0.004292008
0.004316897
0.004341786
0.004366675
0.004391564
0.004416454
0.004441343
0.004466232
0.004491121
0.004516011
0.0045409
0.004565789
0.004590678
0.004615567
0.004640457
0.004665346
0.004690235
0.004715124
0.004740014
0.004764903
0.004789792
0.004814681
0.00483957
0.00486446
0.004889349
0.004914238
0.004939127
0.004964017
0.004988906
0.005013795
0.005038684
0.005063573
0.005088463
0.005113352
0.005138241
0.00516313
0.00518802
0.005212909
0.005237798
0.005262687
0.005287576
0.005312466
0.005337355
0.005362244
0.005387133
0.005412023
0.005436912
0.005461801
0.00548669
0.005511579
0.005536469
0.005561358
0.005586247
0.005611136
0.005636026
0.005660915
0.005685804
0.005710693
0.005735583
0.005760472
0.005785361
0.00581025
0.005835139
0.005860029
0.005884918
0.005909807
0.005934696
0.005959586
0.005984475
0.006009364
0.006034253
0.006059142
0.006084032
0.006108921
0.00613381
0.006158699
0.006183589
0.006208478
0.006233367
0.006258256
0.006283145
0.006308035
0.006332924
0.006357813
0.006382702
0.006407592
0.006432481
0.00645737
0.006482259
0.006507148
0.006532038
0.006556927
0.006581816
0.006606705
0.006631595
0.006656484
0.006681373
0.006706262
0.006731151
0.006756041
0.00678093
0.006805819
0.006830708
0.006855598
0.006880487
0.006905376
0.006930265
0.006955154
0.006980044
0.007004933
0.007029822
0.007054711
0.007079601
0.00710449
0.007129379
0.007154268
0.007179158
0.007204047
0.007228936
0.007253825
0.007278714
0.007303604
0.007328493
0.007353382
0.007378271
0.007403161
0.00742805
0.007452939
0.007477828
0.007502717
0.007527607
0.007552496
0.007577385
0.007602274
0.007627164
0.007652053
0.007676942
0.007701831
0.00772672
0.00775161
0.007776499
0.007801388
0.007826277
0.007851167
0.007876056
0.007900945
0.007925834
0.007950723
0.007975613
0.008000502
0.008025391
0.00805028
0.00807517
0.008100059
0.008124948
0.008149837
0.008174726
0.008199616
0.008224505
0.008249394
0.008274283
0.008299173
0.008324062
0.008348951
0.00837384
0.008398729
0.008423619
0.008448508
0.008473397
0.008498286
0.008523176
0.008548065
0.008572954
0.008597843
0.008622733
0.008647622
0.008672511
0.0086974
0.008722289
0.008747179
0.008772068
0.008796957
0.008821846
0.008846736
0.008871625
0.008896514
0.008921403
0.008946292
0.008971182
0.008996071
0.00902096
0.009045849
0.009070739
0.009095628
0.009120517
0.009145406
0.009170295
0.009195185
0.009220074
0.009244963
0.009269852
0.009294742
0.009319631
0.00934452
0.009369409
0.009394298
0.009419188
0.009444077
0.009468966
0.009493855
0.009518745
0.009543634
0.009568523
0.009593412
0.009618301
0.009643191
0.00966808
0.009692969
0.009717858
0.009742748
0.009767637
0.009792526
0.009817415
0.009842304
0.009867194
0.009892083
0.009916972
0.009941861
0.009966751
0.00999164
0.010016529
0.010041418
0.010066308
0.010091197
0.010116086
0.010140975
0.010165864
0.010190754
0.010215643
0.010240532
0.010265421
0.010290311
0.0103152
0.010340089
