OpenDRT_v1.0-2.0_full-config_v2/transfer_functions/oetf_fujifilm_flog2_to_linear.spi1d
Version 1
From -0.15 1.2
Length 8192
Components 1
{
-0.027599872
-0.027581142
-0.027562412
-0.027543682
-0.027524952
-0.027506222
-0.027487492
-0.027468761
-0.027450031
-0.027431301
-0.027412571
-0.027393841
-0.027375111
-0.027356381
-0.027337651
-0.02731892
-0.02730019
-0.02728146
-0.02726273
-0.027244
-0.02722527
-0.02720654
-0.027187809
-0.027169079
-0.027150349
-0.027131619
-0.027112889
-0.027094159
-0.027075429
-0.027056699
-0.027037968
-0.027019238
-0.027000508
-0.026981778
-0.026963048
-0.026944318
-0.026925588
-0.026906858
-0.026888127
-0.026869397
-0.026850667
-0.026831937
-0.026813207
-0.026794477
-0.026775747
-0.026757016
-0.026738286
-0.026719556
-0.026700826
-0.026682096
-0.026663366
-0.026644636
-0.026625906
-0.026607175
-0.026588445
-0.026569715
-0.026550985
-0.026532255
-0.026513525
-0.026494795
-0.026476065
-0.026457334
-0.026438604
-0.026419874
-0.026401144
-0.026382414
-0.026363684
-0.026344954
-0.026326224
-0.026307493
-0.026288763
-0.026270033
-0.026251303
-0.026232573
-0.026213843
-0.026195113
-0.026176382
-0.026157652
-0.026138922
-0.026120192
-0.026101462
-0.026082732
-0.026064002
-0.026045272
-0.026026541
-0.026007811
-0.025989081
-0.025970351
-0.025951621
-0.025932891
-0.025914161
-0.025895431
-0.0258767
-0.02585797
-0.02583924
-0.02582051
-0.02580178
-0.02578305
-0.02576432
-0.02574559
-0.025726859
-0.025708129
-0.025689399
-0.025670669
-0.025651939
-0.025633209
-0.025614479
-0.025595748
-0.025577018
-0.025558288
-0.025539558
-0.025520828
-0.025502098
-0.025483368
-0.025464638
-0.025445907
-0.025427177
-0.025408447
-0.025389717
-0.025370987
-0.025352257
-0.025333527
-0.025314797
-0.025296066
-0.025277336
-0.025258606
-0.025239876
-0.025221146
-0.025202416
-0.025183686
-0.025164956
-0.025146225
-0.025127495
-0.025108765
-0.025090035
-0.025071305
-0.025052575
-0.025033845
-0.025015114
-0.024996384
-0.024977654
-0.024958924
-0.024940194
-0.024921464
-0.024902734
-0.024884004
-0.024865273
-0.024846543
-0.024827813
-0.024809083
-0.024790353
-0.024771623
-0.024752893
-0.024734163
-0.024715432
-0.024696702
-0.024677972
-0.024659242
-0.024640512
-0.024621782
-0.024603052
-0.024584322
-0.024565591
-0.024546861
-0.024528131
-0.024509401
-0.024490671
-0.024471941
-0.024453211
-0.02443448
-0.02441575
-0.02439702
-0.02437829
-0.02435956
-0.02434083
-0.0243221
-0.02430337
-0.024284639
-0.024265909
-0.024247179
-0.024228449
-0.024209719
-0.024190989
-0.024172259
-0.024153529
-0.024134798
-0.024116068
-0.024097338
-0.024078608
-0.024059878
-0.024041148
-0.024022418
-0.024003688
-0.023984957
-0.023966227
-0.023947497
-0.023928767
-0.023910037
-0.023891307
-0.023872577
-0.023853846
-0.023835116
-0.023816386
-0.023797656
-0.023778926
-0.023760196
-0.023741466
-0.023722736
-0.023704005
-0.023685275
-0.023666545
-0.023647815
-0.023629085
-0.023610355
-0.023591625
-0.023572895
-0.023554164
-0.023535434
-0.023516704
-0.023497974
-0.023479244
-0.023460514
-0.023441784
-0.023423054
-0.023404323
-0.023385593
-0.023366863
-0.023348133
-0.023329403
-0.023310673
-0.023291943
-0.023273212
-0.023254482
-0.023235752
-0.023217022
-0.023198292
-0.023179562
-0.023160832
-0.023142102
-0.023123371
-0.023104641
-0.023085911
-0.023067181
-0.023048451
-0.023029721
-0.023010991
-0.022992261
-0.02297353
-0.0229548
-0.02293607
-0.02291734
-0.02289861
-0.02287988
-0.02286115
-0.02284242
-0.022823689
-0.022804959
-0.022786229
-0.022767499
-0.022748769
-0.022730039
-0.022711309
-0.022692578
-0.022673848
-0.022655118
-0.022636388
-0.022617658
-0.022598928
-0.022580198
-0.022561468
-0.022542737
-0.022524007
-0.022505277
-0.022486547
-0.022467817
-0.022449087
-0.022430357
-0.022411627
-0.022392896
-0.022374166
-0.022355436
-0.022336706
-0.022317976
-0.022299246
-0.022280516
-0.022261786
-0.022243055
-0.022224325
-0.022205595
-0.022186865
-0.022168135
-0.022149405
-0.022130675
-0.022111944
-0.022093214
-0.022074484
-0.022055754
-0.022037024
-0.022018294
-0.021999564
-0.021980834
-0.021962103
-0.021943373
-0.021924643
-0.021905913
-0.021887183
-0.021868453
-0.021849723
-0.021830993
-0.021812262
-0.021793532
-0.021774802
-0.021756072
-0.021737342
-0.021718612
-0.021699882
-0.021681152
-0.021662421
-0.021643691
-0.021624961
-0.021606231
-0.021587501
-0.021568771
-0.021550041
-0.02153131
-0.02151258
-0.02149385
-0.02147512
-0.02145639
-0.02143766
-0.02141893
-0.0214002
-0.021381469
-0.021362739
-0.021344009
-0.021325279
-0.021306549
-0.021287819
-0.021269089
-0.021250359
-0.021231628
-0.021212898
-0.021194168
-0.021175438
-0.021156708
-0.021137978
-0.021119248
-0.021100517
-0.021081787
-0.021063057
-0.021044327
-0.021025597
-0.021006867
-0.020988137
-0.020969407
-0.020950676
-0.020931946
-0.020913216
-0.020894486
-0.020875756
-0.020857026
-0.020838296
-0.020819566
-0.020800835
-0.020782105
-0.020763375
-0.020744645
-0.020725915
-0.020707185
-0.020688455
-0.020669725
-0.020650994
-0.020632264
-0.020613534
-0.020594804
-0.020576074
-0.020557344
-0.020538614
-0.020519883
-0.020501153
-0.020482423
-0.020463693
-0.020444963
-0.020426233
-0.020407503
-0.020388773
-0.020370042
-0.020351312
-0.020332582
-0.020313852
-0.020295122
-0.020276392
-0.020257662
-0.020238932
-0.020220201
-0.020201471
-0.020182741
-0.020164011
-0.020145281
-0.020126551
-0.020107821
-0.020089091
-0.02007036
-0.02005163
-0.0200329
-0.02001417
-0.01999544
-0.01997671
-0.01995798
-0.019939249
-0.019920519
-0.019901789
-0.019883059
-0.019864329
-0.019845599
-0.019826869
-0.019808139
-0.019789408
-0.019770678
-0.019751948
-0.019733218
-0.019714488
-0.019695758
-0.019677028
-0.019658298
-0.019639567
-0.019620837
-0.019602107
-0.019583377
-0.019564647
-0.019545917
-0.019527187
-0.019508457
-0.019489726
-0.019470996
-0.019452266
-0.019433536
-0.019414806
-0.019396076
-0.019377346
-0.019358615
-0.019339885
-0.019321155
-0.019302425
-0.019283695
-0.019264965
-0.019246235
-0.019227505
-0.019208774
-0.019190044
-0.019171314
-0.019152584
-0.019133854
-0.019115124
-0.019096394
-0.019077664
-0.019058933
-0.019040203
-0.019021473
-0.019002743
-0.018984013
-0.018965283
-0.018946553
-0.018927823
-0.018909092
-0.018890362
-0.018871632
-0.018852902
-0.018834172
-0.018815442
-0.018796712
-0.018777981
-0.018759251
-0.018740521
-0.018721791
-0.018703061
-0.018684331
-0.018665601
-0.018646871
-0.01862814
-0.01860941
-0.01859068
-0.01857195
-0.01855322
-0.01853449
-0.01851576
-0.01849703
-0.018478299
-0.018459569
-0.018440839
-0.018422109
-0.018403379
-0.018384649
-0.018365919
-0.018347189
-0.018328458
-0.018309728
-0.018290998
-0.018272268
-0.018253538
-0.018234808
-0.018216078
-0.018197347
-0.018178617
-0.018159887
-0.018141157
-0.018122427
-0.018103697
-0.018084967
-0.018066237
-0.018047506
-0.018028776
-0.018010046
-0.017991316
-0.017972586
-0.017953856
-0.017935126
-0.017916396
-0.017897665
-0.017878935
-0.017860205
-0.017841475
-0.017822745
-0.017804015
-0.017785285
-0.017766555
-0.017747824
-0.017729094
-0.017710364
-0.017691634
-0.017672904
-0.017654174
-0.017635444
-0.017616713
-0.017597983
-0.017579253
-0.017560523
-0.017541793
-0.017523063
-0.017504333
-0.017485603
-0.017466872
-0.017448142
-0.017429412
-0.017410682
-0.017391952
-0.017373222
-0.017354492
-0.017335762
-0.017317031
-0.017298301
-0.017279571
-0.017260841
-0.017242111
-0.017223381
-0.017204651
-0.017185921
-0.01716719
-0.01714846
-0.01712973
-0.017111
-0.01709227
-0.01707354
-0.01705481
-0.017036079
-0.017017349
-0.016998619
-0.016979889
-0.016961159
-0.016942429
-0.016923699
-0.016904969
-0.016886238
-0.016867508
-0.016848778
-0.016830048
-0.016811318
-0.016792588
-0.016773858
-0.016755128
-0.016736397
-0.016717667
-0.016698937
-0.016680207
-0.016661477
-0.016642747
-0.016624017
-0.016605287
-0.016586556
-0.016567826
-0.016549096
-0.016530366
-0.016511636
-0.016492906
-0.016474176
-0.016455445
-0.016436715
-0.016417985
-0.016399255
-0.016380525
-0.016361795
-0.016343065
-0.016324335
-0.016305604
-0.016286874
-0.016268144
-0.016249414
-0.016230684
-0.016211954
-0.016193224
-0.016174494
-0.016155763
-0.016137033
-0.016118303
-0.016099573
-0.016080843
-0.016062113
-0.016043383
-0.016024653
-0.016005922
-0.015987192
-0.015968462
-0.015949732
-0.015931002
-0.015912272
-0.015893542
-0.015874811
-0.015856081
-0.015837351
-0.015818621
-0.015799891
-0.015781161
-0.015762431
-0.015743701
-0.01572497
-0.01570624
-0.01568751
-0.01566878
-0.01565005
-0.01563132
-0.01561259
-0.01559386
-0.015575129
-0.015556399
-0.015537669
-0.015518939
-0.015500209
-0.015481479
-0.015462749
-0.015444018
-0.015425288
-0.015406558
-0.015387828
-0.015369098
-0.015350368
-0.015331638
-0.015312908
-0.015294177
-0.015275447
-0.015256717
-0.015237987
-0.015219257
-0.015200527
-0.015181797
-0.015163067
-0.015144336
-0.015125606
-0.015106876
-0.015088146
-0.015069416
-0.015050686
-0.015031956
-0.015013226
-0.014994495
-0.014975765
-0.014957035
-0.014938305
-0.014919575
-0.014900845
-0.014882115
-0.014863384
-0.014844654
-0.014825924
-0.014807194
-0.014788464
-0.014769734
-0.014751004
-0.014732274
-0.014713543
-0.014694813
-0.014676083
-0.014657353
-0.014638623
-0.014619893
-0.014601163
-0.014582433
-0.014563702
-0.014544972
-0.014526242
-0.014507512
-0.014488782
-0.014470052
-0.014451322
-0.014432592
-0.014413861
-0.014395131
-0.014376401
-0.014357671
-0.014338941
-0.014320211
-0.014301481
-0.01428275
-0.01426402
-0.01424529
-0.01422656
-0.01420783
-0.0141891
-0.01417037
-0.01415164
-0.014132909
-0.014114179
-0.014095449
-0.014076719
-0.014057989
-0.014039259
-0.014020529
-0.014001799
-0.013983068
-0.013964338
-0.013945608
-0.013926878
-0.013908148
-0.013889418
-0.013870688
-0.013851958
-0.013833227
-0.013814497
-0.013795767
-0.013777037
-0.013758307
-0.013739577
-0.013720847
-0.013702116
-0.013683386
-0.013664656
-0.013645926
-0.013627196
-0.013608466
-0.013589736
-0.013571006
-0.013552275
-0.013533545
-0.013514815
-0.013496085
-0.013477355
-0.013458625
-0.013439895
-0.013421165
-0.013402434
-0.013383704
-0.013364974
-0.013346244
-0.013327514
-0.013308784
-0.013290054
-0.013271324
-0.013252593
-0.013233863
-0.013215133
-0.013196403
-0.013177673
-0.013158943
-0.013140213
-0.013121482
-0.013102752
-0.013084022
-0.013065292
-0.013046562
-0.013027832
-0.013009102
-0.012990372
-0.012971641
-0.012952911
-0.012934181
-0.012915451
-0.012896721
-0.012877991
-0.012859261
-0.012840531
-0.0128218
-0.01280307
-0.01278434
-0.01276561
-0.01274688
-0.01272815
-0.01270942
-0.01269069
-0.012671959
-0.012653229
-0.012634499
-0.012615769
-0.012597039
-0.012578309
-0.012559579
-0.012540848
-0.012522118
-0.012503388
-0.012484658
-0.012465928
-0.012447198
-0.012428468
-0.012409738
-0.012391007
-0.012372277
-0.012353547
-0.012334817
-0.012316087
-0.012297357
-0.012278627
-0.012259897
-0.012241166
-0.012222436
-0.012203706
-0.012184976
-0.012166246
-0.012147516
-0.012128786
-0.012110056
-0.012091325
-0.012072595
-0.012053865
-0.012035135
-0.012016405
-0.011997675
-0.011978945
-0.011960214
-0.011941484
-0.011922754
-0.011904024
-0.011885294
-0.011866564
-0.011847834
-0.011829104
-0.011810373
-0.011791643
-0.011772913
-0.011754183
-0.011735453
-0.011716723
-0.011697993
-0.011679263
-0.011660532
-0.011641802
-0.011623072
-0.011604342
-0.011585612
-0.011566882
-0.011548152
-0.011529422
-0.011510691
-0.011491961
-0.011473231
-0.011454501
-0.011435771
-0.011417041
-0.011398311
-0.01137958
-0.01136085
-0.01134212
-0.01132339
-0.01130466
-0.01128593
-0.0112672
-0.01124847
-0.011229739
-0.011211009
-0.011192279
-0.011173549
-0.011154819
-0.011136089
-0.011117359
-0.011098629
-0.011079898
-0.011061168
-0.011042438
-0.011023708
-0.011004978
-0.010986248
-0.010967518
-0.010948788
-0.010930057
-0.010911327
-0.010892597
-0.010873867
-0.010855137
-0.010836407
-0.010817677
-0.010798946
-0.010780216
-0.010761486
-0.010742756
-0.010724026
-0.010705296
-0.010686566
-0.010667836
-0.010649105
-0.010630375
-0.010611645
-0.010592915
-0.010574185
-0.010555455
-0.010536725
-0.010517995
-0.010499264
-0.010480534
-0.010461804
-0.010443074
-0.010424344
-0.010405614
-0.010386884
-0.010368154
-0.010349423
-0.010330693
-0.010311963
-0.010293233
-0.010274503
-0.010255773
-0.010237043
-0.010218312
-0.010199582
-0.010180852
-0.010162122
-0.010143392
-0.010124662
-0.010105932
-0.010087202
-0.010068471
-0.010049741
-0.010031011
-0.010012281
-0.009993551
-0.009974821
-0.009956091
-0.009937361
-0.00991863
-0.0098999
-0.00988117
-0.00986244
-0.00984371
-0.00982498
-0.00980625
-0.009787519
-0.009768789
-0.009750059
-0.009731329
-0.009712599
-0.009693869
-0.009675139
-0.009656409
-0.009637678
-0.009618948
-0.009600218
-0.009581488
-0.009562758
-0.009544028
-0.009525298
-0.009506568
-0.009487837
-0.009469107
-0.009450377
-0.009431647
-0.009412917
-0.009394187
-0.009375457
-0.009356727
-0.009337996
-0.009319266
-0.009300536
-0.009281806
-0.009263076
-0.009244346
-0.009225616
-0.009206885
-0.009188155
-0.009169425
-0.009150695
-0.009131965
-0.009113235
-0.009094505
-0.009075775
-0.009057044
-0.009038314
-0.009019584
-0.009000854
-0.008982124
-0.008963394
-0.008944664
-0.008925934
-0.008907203
-0.008888473
-0.008869743
-0.008851013
-0.008832283
-0.008813553
-0.008794823
-0.008776093
-0.008757362
-0.008738632
-0.008719902
-0.008701172
-0.008682442
-0.008663712
-0.008644982
-0.008626251
-0.008607521
-0.008588791
-0.008570061
-0.008551331
-0.008532601
-0.008513871
-0.008495141
-0.00847641
-0.00845768
-0.00843895
-0.00842022
-0.00840149
-0.00838276
-0.00836403
-0.0083453
-0.008326569
-0.008307839
-0.008289109
-0.008270379
-0.008251649
-0.008232919
-0.008214189
-0.008195459
-0.008176728
-0.008157998
-0.008139268
-0.008120538
-0.008101808
-0.008083078
-0.008064348
-0.008045617
-0.008026887
-0.008008157
-0.007989427
-0.007970697
-0.007951967
-0.007933237
-0.007914507
-0.007895776
-0.007877046
-0.007858316
-0.007839586
-0.007820856
-0.007802126
-0.007783396
-0.007764666
-0.007745935
-0.007727205
-0.007708475
-0.007689745
-0.007671015
-0.007652285
-0.007633555
-0.007614825
-0.007596094
-0.007577364
-0.007558634
-0.007539904
-0.007521174
-0.007502444
-0.007483714
-0.007464983
-0.007446253
-0.007427523
-0.007408793
-0.007390063
-0.007371333
-0.007352603
-0.007333873
-0.007315142
-0.007296412
-0.007277682
-0.007258952
-0.007240222
-0.007221492
-0.007202762
-0.007184032
-0.007165301
-0.007146571
-0.007127841
-0.007109111
-0.007090381
-0.007071651
-0.007052921
-0.007034191
-0.00701546
-0.00699673
-0.006978
-0.00695927
-0.00694054
-0.00692181
-0.00690308
-0.006884349
-0.006865619
-0.006846889
-0.006828159
-0.006809429
-0.006790699
-0.006771969
-0.006753239
-0.006734508
-0.006715778
-0.006697048
-0.006678318
-0.006659588
-0.006640858
-0.006622128
-0.006603398
-0.006584667
-0.006565937
-0.006547207
-0.006528477
-0.006509747
-0.006491017
-0.006472287
-0.006453557
-0.006434826
-0.006416096
-0.006397366
-0.006378636
-0.006359906
-0.006341176
-0.006322446
-0.006303715
-0.006284985
-0.006266255
-0.006247525
-0.006228795
-0.006210065
-0.006191335
-0.006172605
-0.006153874
-0.006135144
-0.006116414
-0.006097684
-0.006078954
-0.006060224
-0.006041494
-0.006022764
-0.006004033
-0.005985303
-0.005966573
-0.005947843
-0.005929113
-0.005910383
-0.005891653
-0.005872923
-0.005854192
-0.005835462
-0.005816732
-0.005798002
-0.005779272
-0.005760542
-0.005741812
-0.005723081
-0.005704351
-0.005685621
-0.005666891
-0.005648161
-0.005629431
-0.005610701
-0.005591971
-0.00557324
-0.00555451
-0.00553578
-0.00551705
-0.00549832
-0.00547959
-0.00546086
-0.00544213
-0.005423399
-0.005404669
-0.005385939
-0.005367209
-0.005348479
-0.005329749
-0.005311019
-0.005292289
-0.005273558
-0.005254828
-0.005236098
-0.005217368
-0.005198638
-0.005179908
-0.005161178
-0.005142447
-0.005123717
-0.005104987
-0.005086257
-0.005067527
-0.005048797
-0.005030067
-0.005011337
-0.004992606
-0.004973876
-0.004955146
-0.004936416
-0.004917686
-0.004898956
-0.004880226
-0.004861496
-0.004842765
-0.004824035
-0.004805305
-0.004786575
-0.004767845
-0.004749115
-0.004730385
-0.004711655
-0.004692924
-0.004674194
-0.004655464
-0.004636734
-0.004618004
-0.004599274
-0.004580544
-0.004561813
-0.004543083
-0.004524353
-0.004505623
-0.004486893
-0.004468163
-0.004449433
-0.004430703
-0.004411972
-0.004393242
-0.004374512
-0.004355782
-0.004337052
-0.004318322
-0.004299592
-0.004280862
-0.004262131
-0.004243401
-0.004224671
-0.004205941
-0.004187211
-0.004168481
-0.004149751
-0.00413102
-0.00411229
-0.00409356
-0.00407483
-0.0040561
-0.00403737
-0.00401864
-0.00399991
-0.003981179
-0.003962449
-0.003943719
-0.003924989
-0.003906259
-0.003887529
-0.003868799
-0.003850069
-0.003831338
-0.003812608
-0.003793878
-0.003775148
-0.003756418
-0.003737688
-0.003718958
-0.003700228
-0.003681497
-0.003662767
-0.003644037
-0.003625307
-0.003606577
-0.003587847
-0.003569117
-0.003550386
-0.003531656
-0.003512926
-0.003494196
-0.003475466
-0.003456736
-0.003438006
-0.003419276
-0.003400545
-0.003381815
-0.003363085
-0.003344355
-0.003325625
-0.003306895
-0.003288165
-0.003269435
-0.003250704
-0.003231974
-0.003213244
-0.003194514
-0.003175784
-0.003157054
-0.003138324
-0.003119594
-0.003100863
-0.003082133
-0.003063403
-0.003044673
-0.003025943
-0.003007213
-0.002988483
-0.002969752
-0.002951022
-0.002932292
-0.002913562
-0.002894832
-0.002876102
-0.002857372
-0.002838642
-0.002819911
-0.002801181
-0.002782451
-0.002763721
-0.002744991
-0.002726261
-0.002707531
-0.002688801
-0.00267007
-0.00265134
-0.00263261
-0.00261388
-0.00259515
-0.00257642
-0.00255769
-0.00253896
-0.002520229
-0.002501499
-0.002482769
-0.002464039
-0.002445309
-0.002426579
-0.002407849
-0.002389118
-0.002370388
-0.002351658
-0.002332928
-0.002314198
-0.002295468
-0.002276738
-0.002258008
-0.002239277
-0.002220547
-0.002201817
-0.002183087
-0.002164357
-0.002145627
-0.002126897
-0.002108167
-0.002089436
-0.002070706
-0.002051976
-0.002033246
-0.002014516
-0.001995786
-0.001977056
-0.001958326
-0.001939595
-0.001920865
-0.001902135
-0.001883405
-0.001864675
-0.001845945
-0.001827215
-0.001808484
-0.001789754
-0.001771024
-0.001752294
-0.001733564
-0.001714834
-0.001696104
-0.001677374
-0.001658643
-0.001639913
-0.001621183
-0.001602453
-0.001583723
-0.001564993
-0.001546263
-0.001527533
-0.001508802
-0.001490072
-0.001471342
-0.001452612
-0.001433882
-0.001415152
-0.001396422
-0.001377692
-0.001358961
-0.001340231
-0.001321501
-0.001302771
-0.001284041
-0.001265311
-0.001246581
-0.00122785
-0.00120912
-0.00119039
-0.00117166
-0.00115293
-0.0011342
-0.00111547
-0.00109674
-0.001078009
-0.001059279
-0.001040549
-0.001021819
-0.001003089
-0.000984359
-0.000965629
-0.000946899
-0.000928168
-0.000909438
-0.000890708
-0.000871978
-0.000853248
-0.000834518
-0.000815788
-0.000797058
-0.000778327
-0.000759597
-0.000740867
-0.000722137
-0.000703407
-0.000684677
-0.000665947
-0.000647216
-0.000628486
-0.000609756
-0.000591026
-0.000572296
-0.000553566
-0.000534836
-0.000516106
-0.000497375
-0.000478645
-0.000459915
-0.000441185
-0.000422455
-0.000403725
-0.000384995
-0.000366265
-0.000347534
-0.000328804
-0.000310074
-0.000291344
-0.000272614
-0.000253884
-0.000235154
-0.000216424
-0.000197693
-0.000178963
-0.000160233
-0.000141503
-0.000122773
-0.000104043
-8.5313e-05
-6.6582e-05
-4.7852e-05
-2.9122e-05
-1.0392e-05
8.338e-06
2.7068e-05
4.5798e-05
6.4528e-05
8.3259e-05
0.000101989
0.000120719
0.000139449
0.000158179
0.000176909
0.000195639
0.000214369
0.0002331
0.00025183
0.00027056
0.00028929
0.00030802
0.00032675
0.00034548
0.00036421
0.000382941
0.000401671
0.000420401
0.000439131
0.000457861
0.000476591
0.000495321
0.000514052
0.000532782
0.000551512
0.000570242
0.000588972
0.000607702
0.000626432
0.000645162
0.000663893
0.000682623
0.000701353
0.000720083
0.000738813
0.000757543
0.000776273
0.000795003
0.000813734
0.000832464
0.000851194
0.000869924
0.000888654
0.00090809
0.000927565
0.00094707
0.000966605
0.00098617
0.001005766
0.001025392
0.001045048
0.001064735
0.001084452
0.0011042
0.001123979
0.001143788
0.001163628
0.001183498
0.001203399
0.001223331
0.001243294
0.001263288
0.001283313
0.001303368
0.001323455
0.001343573
0.001363722
0.001383903
0.001404114
0.001424357
0.001444631
0.001464937
0.001485274
0.001505642
0.001526042
0.001546474
0.001566937
0.001587432
0.001607959
0.001628517
0.001649107
0.001669729
0.001690384
0.00171107
0.001731788
0.001752538
0.00177332
0.001794135
0.001814982
0.001835861
0.001856772
0.001877716
0.001898692
0.0019197
0.001940741
0.001961815
0.001982922
0.002004061
0.002025232
0.002046437
0.002067674
0.002088945
0.002110248
0.002131584
0.002152953
0.002174356
0.002195791
0.00221726
0.002238762
0.002260297
0.002281865
0.002303467
0.002325103
0.002346772
0.002368474
0.00239021
0.00241198
0.002433783
0.00245562
0.002477491
0.002499396
0.002521335
0.002543308
0.002565314
0.002587355
0.00260943
0.002631539
0.002653683
0.00267586
0.002698072
0.002720319
0.0027426
0.002764915
0.002787265
0.002809649
0.002832068
0.002854522
0.002877011
0.002899534
0.002922093
0.002944686
0.002967314
0.002989977
0.003012676
0.003035409
0.003058178
0.003080982
0.003103821
0.003126696
0.003149606
0.003172552
0.003195533
0.003218549
0.003241602
0.00326469
0.003287813
0.003310973
0.003334168
0.0033574
0.003380667
0.00340397
0.00342731
0.003450685
0.003474097
0.003497545
0.003521029
0.00354455
0.003568107
0.003591701
0.003615331
0.003638997
0.003662701
0.003686441
0.003710217
0.003734031
0.003757882
0.003781769
0.003805693
0.003829655
0.003853653
0.003877689
0.003901762
0.003925872
0.00395002
0.003974205
0.003998427
0.004022687
0.004046984
0.004071319
0.004095692
0.004120102
0.004144551
0.004169037
0.004193561
0.004218123
0.004242723
0.004267361
0.004292037
0.004316752
0.004341505
0.004366296
0.004391125
0.004415993
0.0044409
0.004465845
0.004490828
0.00451585
0.004540912
0.004566011
0.00459115
0.004616328
0.004641544
0.0046668
0.004692095
0.004717429
0.004742802
0.004768214
0.004793666
0.004819157
0.004844688
0.004870258
0.004895868
0.004921518
0.004947207
0.004972936
0.004998705
0.005024513
0.005050362
0.005076251
0.005102179
0.005128148
0.005154157
0.005180207
0.005206297
0.005232427
0.005258597
0.005284808
0.00531106
0.005337352
0.005363686
0.005390059
0.005416474
0.00544293
0.005469426
0.005495964
0.005522542
0.005549162
0.005575823
0.005602526
0.005629269
0.005656054
0.005682881
0.005709749
0.005736659
0.00576361
0.005790603
0.005817638
0.005844715
0.005871833
0.005898994
0.005926197
0.005953442
0.005980729
0.006008058
0.006035429
0.006062843
0.0060903
0.006117799
0.00614534
0.006172924
0.006200551
0.006228221
0.006255933
0.006283689
0.006311487
0.006339329
0.006367213
0.006395141
0.006423112
0.006451126
0.006479184
0.006507285
0.006535429
0.006563618
0.006591849
0.006620125
0.006648444
0.006676807
0.006705214
0.006733666
0.006762161
0.0067907
0.006819283
0.006847911
0.006876583
0.006905299
0.00693406
0.006962866
0.006991716
0.00702061
0.00704955
0.007078534
0.007107563
0.007136637
0.007165756
0.007194921
0.00722413
0.007253384
0.007282684
0.00731203
0.00734142
0.007370856
0.007400338
0.007429866
0.007459439
0.007489058
0.007518722
0.007548433
0.00757819
0.007607993
0.007637842
0.007667737
0.007697678
0.007727666
0.0077577
0.007787781
0.007817908
0.007848082
0.007878303
0.00790857
0.007938885
0.007969246
0.007999654
0.00803011
0.008060612
0.008091162
0.008121759
0.008152404
0.008183095
0.008213835
0.008244622
0.008275457
0.008306339
0.008337269
0.008368247
0.008399274
0.008430348
0.00846147
0.008492641
0.008523859
0.008555126
0.008586442
0.008617806
0.008649218
0.008680679
0.008712189
0.008743748
0.008775356
0.008807012
0.008838718
0.008870472
0.008902276
0.008934129
0.008966031
0.008997983
0.009029984
0.009062035
0.009094135
0.009126285
0.009158485
0.009190735
0.009223035
0.009255384
0.009287784
0.009320234
0.009352734
0.009385285
0.009417886
0.009450537
0.009483239
0.009515992
0.009548795
0.009581649
0.009614554
0.00964751
0.009680517
0.009713575
0.009746684
0.009779845
0.009813056
0.00984632
0.009879634
0.009913001
0.009946419
0.009979889
0.01001341
0.010046984
0.010080609
0.010114287
0.010148016
0.010181798
0.010215633
0.010249519
0.010283458
0.01031745
0.010351494
0.010385591
0.010419741
0.010453944
0.010488199
0.010522508
0.01055687
0.010591285
