OpenDRT_v1.0-2.0_full-config_v2/transfer_functions/oetf_filmlight_tlog_to_linear.spi1d
Version 1
From -0.15 1.2
Length 8192
Components 1
{
-0.013902296
-0.013892113
-0.013881929
-0.013871746
-0.013861562
-0.013851379
-0.013841195
-0.013831011
-0.013820828
-0.013810644
-0.013800461
-0.013790277
-0.013780093
-0.01376991
-0.013759726
-0.013749543
-0.013739359
-0.013729175
-0.013718992
-0.013708808
-0.013698625
-0.013688441
-0.013678257
-0.013668074
-0.01365789
-0.013647707
-0.013637523
-0.01362734
-0.013617156
-0.013606972
-0.013596789
-0.013586605
-0.013576422
-0.013566238
-0.013556054
-0.013545871
-0.013535687
-0.013525504
-0.01351532
-0.013505136
-0.013494953
-0.013484769
-0.013474586
-0.013464402
-0.013454219
-0.013444035
-0.013433851
-0.013423668
-0.013413484
-0.013403301
-0.013393117
-0.013382933
-0.01337275
-0.013362566
-0.013352383
-0.013342199
-0.013332015
-0.013321832
-0.013311648
-0.013301465
-0.013291281
-0.013281098
-0.013270914
-0.01326073
-0.013250547
-0.013240363
-0.01323018
-0.013219996
-0.013209812
-0.013199629
-0.013189445
-0.013179262
-0.013169078
-0.013158894
-0.013148711
-0.013138527
-0.013128344
-0.01311816
-0.013107977
-0.013097793
-0.013087609
-0.013077426
-0.013067242
-0.013057059
-0.013046875
-0.013036691
-0.013026508
-0.013016324
-0.013006141
-0.012995957
-0.012985773
-0.01297559
-0.012965406
-0.012955223
-0.012945039
-0.012934855
-0.012924672
-0.012914488
-0.012904305
-0.012894121
-0.012883938
-0.012873754
-0.01286357
-0.012853387
-0.012843203
-0.01283302
-0.012822836
-0.012812652
-0.012802469
-0.012792285
-0.012782102
-0.012771918
-0.012761734
-0.012751551
-0.012741367
-0.012731184
-0.012721
-0.012710817
-0.012700633
-0.012690449
-0.012680266
-0.012670082
-0.012659899
-0.012649715
-0.012639531
-0.012629348
-0.012619164
-0.012608981
-0.012598797
-0.012588613
-0.01257843
-0.012568246
-0.012558063
-0.012547879
-0.012537696
-0.012527512
-0.012517328
-0.012507145
-0.012496961
-0.012486778
-0.012476594
-0.01246641
-0.012456227
-0.012446043
-0.01243586
-0.012425676
-0.012415492
-0.012405309
-0.012395125
-0.012384942
-0.012374758
-0.012364574
-0.012354391
-0.012344207
-0.012334024
-0.01232384
-0.012313657
-0.012303473
-0.012293289
-0.012283106
-0.012272922
-0.012262739
-0.012252555
-0.012242371
-0.012232188
-0.012222004
-0.012211821
-0.012201637
-0.012191453
-0.01218127
-0.012171086
-0.012160903
-0.012150719
-0.012140536
-0.012130352
-0.012120168
-0.012109985
-0.012099801
-0.012089618
-0.012079434
-0.01206925
-0.012059067
-0.012048883
-0.0120387
-0.012028516
-0.012018332
-0.012008149
-0.011997965
-0.011987782
-0.011977598
-0.011967415
-0.011957231
-0.011947047
-0.011936864
-0.01192668
-0.011916497
-0.011906313
-0.011896129
-0.011885946
-0.011875762
-0.011865579
-0.011855395
-0.011845211
-0.011835028
-0.011824844
-0.011814661
-0.011804477
-0.011794294
-0.01178411
-0.011773926
-0.011763743
-0.011753559
-0.011743376
-0.011733192
-0.011723008
-0.011712825
-0.011702641
-0.011692458
-0.011682274
-0.01167209
-0.011661907
-0.011651723
-0.01164154
-0.011631356
-0.011621172
-0.011610989
-0.011600805
-0.011590622
-0.011580438
-0.011570255
-0.011560071
-0.011549887
-0.011539704
-0.01152952
-0.011519337
-0.011509153
-0.011498969
-0.011488786
-0.011478602
-0.011468419
-0.011458235
-0.011448051
-0.011437868
-0.011427684
-0.011417501
-0.011407317
-0.011397134
-0.01138695
-0.011376766
-0.011366583
-0.011356399
-0.011346216
-0.011336032
-0.011325848
-0.011315665
-0.011305481
-0.011295298
-0.011285114
-0.01127493
-0.011264747
-0.011254563
-0.01124438
-0.011234196
-0.011224013
-0.011213829
-0.011203645
-0.011193462
-0.011183278
-0.011173095
-0.011162911
-0.011152727
-0.011142544
-0.01113236
-0.011122177
-0.011111993
-0.011101809
-0.011091626
-0.011081442
-0.011071259
-0.011061075
-0.011050891
-0.011040708
-0.011030524
-0.011020341
-0.011010157
-0.010999974
-0.01098979
-0.010979606
-0.010969423
-0.010959239
-0.010949056
-0.010938872
-0.010928688
-0.010918505
-0.010908321
-0.010898138
-0.010887954
-0.01087777
-0.010867587
-0.010857403
-0.01084722
-0.010837036
-0.010826853
-0.010816669
-0.010806485
-0.010796302
-0.010786118
-0.010775935
-0.010765751
-0.010755567
-0.010745384
-0.0107352
-0.010725017
-0.010714833
-0.010704649
-0.010694466
-0.010684282
-0.010674099
-0.010663915
-0.010653732
-0.010643548
-0.010633364
-0.010623181
-0.010612997
-0.010602814
-0.01059263
-0.010582446
-0.010572263
-0.010562079
-0.010551896
-0.010541712
-0.010531528
-0.010521345
-0.010511161
-0.010500978
-0.010490794
-0.010480611
-0.010470427
-0.010460243
-0.01045006
-0.010439876
-0.010429693
-0.010419509
-0.010409325
-0.010399142
-0.010388958
-0.010378775
-0.010368591
-0.010358407
-0.010348224
-0.01033804
-0.010327857
-0.010317673
-0.010307489
-0.010297306
-0.010287122
-0.010276939
-0.010266755
-0.010256572
-0.010246388
-0.010236204
-0.010226021
-0.010215837
-0.010205654
-0.01019547
-0.010185286
-0.010175103
-0.010164919
-0.010154736
-0.010144552
-0.010134368
-0.010124185
-0.010114001
-0.010103818
-0.010093634
-0.010083451
-0.010073267
-0.010063083
-0.0100529
-0.010042716
-0.010032533
-0.010022349
-0.010012165
-0.010001982
-0.009991798
-0.009981615
-0.009971431
-0.009961247
-0.009951064
-0.00994088
-0.009930697
-0.009920513
-0.00991033
-0.009900146
-0.009889962
-0.009879779
-0.009869595
-0.009859412
-0.009849228
-0.009839044
-0.009828861
-0.009818677
-0.009808494
-0.00979831
-0.009788126
-0.009777943
-0.009767759
-0.009757576
-0.009747392
-0.009737208
-0.009727025
-0.009716841
-0.009706658
-0.009696474
-0.009686291
-0.009676107
-0.009665923
-0.00965574
-0.009645556
-0.009635373
-0.009625189
-0.009615005
-0.009604822
-0.009594638
-0.009584455
-0.009574271
-0.009564087
-0.009553904
-0.00954372
-0.009533537
-0.009523353
-0.00951317
-0.009502986
-0.009492802
-0.009482619
-0.009472435
-0.009462252
-0.009452068
-0.009441884
-0.009431701
-0.009421517
-0.009411334
-0.00940115
-0.009390966
-0.009380783
-0.009370599
-0.009360416
-0.009350232
-0.009340049
-0.009329865
-0.009319681
-0.009309498
-0.009299314
-0.009289131
-0.009278947
-0.009268763
-0.00925858
-0.009248396
-0.009238213
-0.009228029
-0.009217845
-0.009207662
-0.009197478
-0.009187295
-0.009177111
-0.009166928
-0.009156744
-0.00914656
-0.009136377
-0.009126193
-0.00911601
-0.009105826
-0.009095642
-0.009085459
-0.009075275
-0.009065092
-0.009054908
-0.009044724
-0.009034541
-0.009024357
-0.009014174
-0.00900399
-0.008993806
-0.008983623
-0.008973439
-0.008963256
-0.008953072
-0.008942889
-0.008932705
-0.008922521
-0.008912338
-0.008902154
-0.008891971
-0.008881787
-0.008871603
-0.00886142
-0.008851236
-0.008841053
-0.008830869
-0.008820685
-0.008810502
-0.008800318
-0.008790135
-0.008779951
-0.008769768
-0.008759584
-0.0087494
-0.008739217
-0.008729033
-0.00871885
-0.008708666
-0.008698482
-0.008688299
-0.008678115
-0.008667932
-0.008657748
-0.008647564
-0.008637381
-0.008627197
-0.008617014
-0.00860683
-0.008596647
-0.008586463
-0.008576279
-0.008566096
-0.008555912
-0.008545729
-0.008535545
-0.008525361
-0.008515178
-0.008504994
-0.008494811
-0.008484627
-0.008474443
-0.00846426
-0.008454076
-0.008443893
-0.008433709
-0.008423525
-0.008413342
-0.008403158
-0.008392975
-0.008382791
-0.008372608
-0.008362424
-0.00835224
-0.008342057
-0.008331873
-0.00832169
-0.008311506
-0.008301322
-0.008291139
-0.008280955
-0.008270772
-0.008260588
-0.008250404
-0.008240221
-0.008230037
-0.008219854
-0.00820967
-0.008199487
-0.008189303
-0.008179119
-0.008168936
-0.008158752
-0.008148569
-0.008138385
-0.008128201
-0.008118018
-0.008107834
-0.008097651
-0.008087467
-0.008077283
-0.0080671
-0.008056916
-0.008046733
-0.008036549
-0.008026366
-0.008016182
-0.008005998
-0.007995815
-0.007985631
-0.007975448
-0.007965264
-0.00795508
-0.007944897
-0.007934713
-0.00792453
-0.007914346
-0.007904162
-0.007893979
-0.007883795
-0.007873612
-0.007863428
-0.007853245
-0.007843061
-0.007832877
-0.007822694
-0.00781251
-0.007802327
-0.007792143
-0.007781959
-0.007771776
-0.007761592
-0.007751409
-0.007741225
-0.007731041
-0.007720858
-0.007710674
-0.007700491
-0.007690307
-0.007680123
-0.00766994
-0.007659756
-0.007649573
-0.007639389
-0.007629206
-0.007619022
-0.007608838
-0.007598655
-0.007588471
-0.007578288
-0.007568104
-0.00755792
-0.007547737
-0.007537553
-0.00752737
-0.007517186
-0.007507002
-0.007496819
-0.007486635
-0.007476452
-0.007466268
-0.007456085
-0.007445901
-0.007435717
-0.007425534
-0.00741535
-0.007405167
-0.007394983
-0.007384799
-0.007374616
-0.007364432
-0.007354249
-0.007344065
-0.007333881
-0.007323698
-0.007313514
-0.007303331
-0.007293147
-0.007282964
-0.00727278
-0.007262596
-0.007252413
-0.007242229
-0.007232046
-0.007221862
-0.007211678
-0.007201495
-0.007191311
-0.007181128
-0.007170944
-0.00716076
-0.007150577
-0.007140393
-0.00713021
-0.007120026
-0.007109842
-0.007099659
-0.007089475
-0.007079292
-0.007069108
-0.007058925
-0.007048741
-0.007038557
-0.007028374
-0.00701819
-0.007008007
-0.006997823
-0.006987639
-0.006977456
-0.006967272
-0.006957089
-0.006946905
-0.006936721
-0.006926538
-0.006916354
-0.006906171
-0.006895987
-0.006885804
-0.00687562
-0.006865436
-0.006855253
-0.006845069
-0.006834886
-0.006824702
-0.006814518
-0.006804335
-0.006794151
-0.006783968
-0.006773784
-0.0067636
-0.006753417
-0.006743233
-0.00673305
-0.006722866
-0.006712683
-0.006702499
-0.006692315
-0.006682132
-0.006671948
-0.006661765
-0.006651581
-0.006641397
-0.006631214
-0.00662103
-0.006610847
-0.006600663
-0.006590479
-0.006580296
-0.006570112
-0.006559929
-0.006549745
-0.006539562
-0.006529378
-0.006519194
-0.006509011
-0.006498827
-0.006488644
-0.00647846
-0.006468276
-0.006458093
-0.006447909
-0.006437726
-0.006427542
-0.006417358
-0.006407175
-0.006396991
-0.006386808
-0.006376624
-0.00636644
-0.006356257
-0.006346073
-0.00633589
-0.006325706
-0.006315523
-0.006305339
-0.006295155
-0.006284972
-0.006274788
-0.006264605
-0.006254421
-0.006244237
-0.006234054
-0.00622387
-0.006213687
-0.006203503
-0.006193319
-0.006183136
-0.006172952
-0.006162769
-0.006152585
-0.006142402
-0.006132218
-0.006122034
-0.006111851
-0.006101667
-0.006091484
-0.0060813
-0.006071116
-0.006060933
-0.006050749
-0.006040566
-0.006030382
-0.006020198
-0.006010015
-0.005999831
-0.005989648
-0.005979464
-0.005969281
-0.005959097
-0.005948913
-0.00593873
-0.005928546
-0.005918363
-0.005908179
-0.005897995
-0.005887812
-0.005877628
-0.005867445
-0.005857261
-0.005847077
-0.005836894
-0.00582671
-0.005816527
-0.005806343
-0.005796159
-0.005785976
-0.005775792
-0.005765609
-0.005755425
-0.005745242
-0.005735058
-0.005724874
-0.005714691
-0.005704507
-0.005694324
-0.00568414
-0.005673956
-0.005663773
-0.005653589
-0.005643406
-0.005633222
-0.005623038
-0.005612855
-0.005602671
-0.005592488
-0.005582304
-0.005572121
-0.005561937
-0.005551753
-0.00554157
-0.005531386
-0.005521203
-0.005511019
-0.005500835
-0.005490652
-0.005480468
-0.005470285
-0.005460101
-0.005449917
-0.005439734
-0.00542955
-0.005419367
-0.005409183
-0.005399
-0.005388816
-0.005378632
-0.005368449
-0.005358265
-0.005348082
-0.005337898
-0.005327714
-0.005317531
-0.005307347
-0.005297164
-0.00528698
-0.005276796
-0.005266613
-0.005256429
-0.005246246
-0.005236062
-0.005225879
-0.005215695
-0.005205511
-0.005195328
-0.005185144
-0.005174961
-0.005164777
-0.005154593
-0.00514441
-0.005134226
-0.005124043
-0.005113859
-0.005103675
-0.005093492
-0.005083308
-0.005073125
-0.005062941
-0.005052757
-0.005042574
-0.00503239
-0.005022207
-0.005012023
-0.00500184
-0.004991656
-0.004981472
-0.004971289
-0.004961105
-0.004950922
-0.004940738
-0.004930554
-0.004920371
-0.004910187
-0.004900004
-0.00488982
-0.004879636
-0.004869453
-0.004859269
-0.004849086
-0.004838902
-0.004828719
-0.004818535
-0.004808351
-0.004798168
-0.004787984
-0.004777801
-0.004767617
-0.004757433
-0.00474725
-0.004737066
-0.004726883
-0.004716699
-0.004706515
-0.004696332
-0.004686148
-0.004675965
-0.004665781
-0.004655598
-0.004645414
-0.00463523
-0.004625047
-0.004614863
-0.00460468
-0.004594496
-0.004584312
-0.004574129
-0.004563945
-0.004553762
-0.004543578
-0.004533394
-0.004523211
-0.004513027
-0.004502844
-0.00449266
-0.004482476
-0.004472293
-0.004462109
-0.004451926
-0.004441742
-0.004431559
-0.004421375
-0.004411191
-0.004401008
-0.004390824
-0.004380641
-0.004370457
-0.004360273
-0.00435009
-0.004339906
-0.004329723
-0.004319539
-0.004309355
-0.004299172
-0.004288988
-0.004278805
-0.004268621
-0.004258438
-0.004248254
-0.00423807
-0.004227887
-0.004217703
-0.00420752
-0.004197336
-0.004187152
-0.004176969
-0.004166785
-0.004156602
-0.004146418
-0.004136234
-0.004126051
-0.004115867
-0.004105684
-0.0040955
-0.004085317
-0.004075133
-0.004064949
-0.004054766
-0.004044582
-0.004034399
-0.004024215
-0.004014031
-0.004003848
-0.003993664
-0.003983481
-0.003973297
-0.003963113
-0.00395293
-0.003942746
-0.003932563
-0.003922379
-0.003912196
-0.003902012
-0.003891828
-0.003881645
-0.003871461
-0.003861278
-0.003851094
-0.00384091
-0.003830727
-0.003820543
-0.00381036
-0.003800176
-0.003789992
-0.003779809
-0.003769625
-0.003759442
-0.003749258
-0.003739074
-0.003728891
-0.003718707
-0.003708524
-0.00369834
-0.003688157
-0.003677973
-0.003667789
-0.003657606
-0.003647422
-0.003637239
-0.003627055
-0.003616871
-0.003606688
-0.003596504
-0.003586321
-0.003576137
-0.003565953
-0.00355577
-0.003545586
-0.003535403
-0.003525219
-0.003515036
-0.003504852
-0.003494668
-0.003484485
-0.003474301
-0.003464118
-0.003453934
-0.00344375
-0.003433567
-0.003423383
-0.0034132
-0.003403016
-0.003392832
-0.003382649
-0.003372465
-0.003362282
-0.003352098
-0.003341915
-0.003331731
-0.003321547
-0.003311364
-0.00330118
-0.003290997
-0.003280813
-0.003270629
-0.003260446
-0.003250262
-0.003240079
-0.003229895
-0.003219711
-0.003209528
-0.003199344
-0.003189161
-0.003178977
-0.003168793
-0.00315861
-0.003148426
-0.003138243
-0.003128059
-0.003117876
-0.003107692
-0.003097508
-0.003087325
-0.003077141
-0.003066958
-0.003056774
-0.00304659
-0.003036407
-0.003026223
-0.00301604
-0.003005856
-0.002995672
-0.002985489
-0.002975305
-0.002965122
-0.002954938
-0.002944755
-0.002934571
-0.002924387
-0.002914204
-0.00290402
-0.002893837
-0.002883653
-0.002873469
-0.002863286
-0.002853102
-0.002842919
-0.002832735
-0.002822551
-0.002812368
-0.002802184
-0.002792001
-0.002781817
-0.002771634
-0.00276145
-0.002751266
-0.002741083
-0.002730899
-0.002720716
-0.002710532
-0.002700348
-0.002690165
-0.002679981
-0.002669798
-0.002659614
-0.00264943
-0.002639247
-0.002629063
-0.00261888
-0.002608696
-0.002598512
-0.002588329
-0.002578145
-0.002567962
-0.002557778
-0.002547595
-0.002537411
-0.002527227
-0.002517044
-0.00250686
-0.002496677
-0.002486493
-0.002476309
-0.002466126
-0.002455942
-0.002445759
-0.002435575
-0.002425391
-0.002415208
-0.002405024
-0.002394841
-0.002384657
-0.002374474
-0.00236429
-0.002354106
-0.002343923
-0.002333739
-0.002323556
-0.002313372
-0.002303188
-0.002293005
-0.002282821
-0.002272638
-0.002262454
-0.00225227
-0.002242087
-0.002231903
-0.00222172
-0.002211536
-0.002201353
-0.002191169
-0.002180985
-0.002170802
-0.002160618
-0.002150435
-0.002140251
-0.002130067
-0.002119884
-0.0021097
-0.002099517
-0.002089333
-0.002079149
-0.002068966
-0.002058782
-0.002048599
-0.002038415
-0.002028232
-0.002018048
-0.002007864
-0.001997681
-0.001987497
-0.001977314
-0.00196713
-0.001956946
-0.001946763
-0.001936579
-0.001926396
-0.001916212
-0.001906028
-0.001895845
-0.001885661
-0.001875478
-0.001865294
-0.00185511
-0.001844927
-0.001834743
-0.00182456
-0.001814376
-0.001804193
-0.001794009
-0.001783825
-0.001773642
-0.001763458
-0.001753275
-0.001743091
-0.001732907
-0.001722724
-0.00171254
-0.001702357
-0.001692173
-0.001681989
-0.001671806
-0.001661622
-0.001651439
-0.001641255
-0.001631072
-0.001620888
-0.001610704
-0.001600521
-0.001590337
-0.001580154
-0.00156997
-0.001559786
-0.001549603
-0.001539419
-0.001529236
-0.001519052
-0.001508868
-0.001498685
-0.001488501
-0.001478318
-0.001468134
-0.001457951
-0.001447767
-0.001437583
-0.0014274
-0.001417216
-0.001407033
-0.001396849
-0.001386665
-0.001376482
-0.001366298
-0.001356115
-0.001345931
-0.001335747
-0.001325564
-0.00131538
-0.001305197
-0.001295013
-0.001284829
-0.001274646
-0.001264462
-0.001254279
-0.001244095
-0.001233912
-0.001223728
-0.001213544
-0.001203361
-0.001193177
-0.001182994
-0.00117281
-0.001162626
-0.001152443
-0.001142259
-0.001132076
-0.001121892
-0.001111708
-0.001101525
-0.001091341
-0.001081158
-0.001070974
-0.001060791
-0.001050607
-0.001040423
-0.00103024
-0.001020056
-0.001009873
-0.000999689
-0.000989505
-0.000979322
-0.000969138
-0.000958955
-0.000948771
-0.000938587
-0.000928404
-0.00091822
-0.000908037
-0.000897853
-0.00088767
-0.000877486
-0.000867302
-0.000857119
-0.000846935
-0.000836752
-0.000826568
-0.000816384
-0.000806201
-0.000796017
-0.000785834
-0.00077565
-0.000765466
-0.000755283
-0.000745099
-0.000734916
-0.000724732
-0.000714549
-0.000704365
-0.000694181
-0.000683998
-0.000673814
-0.000663631
-0.000653447
-0.000643263
-0.00063308
-0.000622896
-0.000612713
-0.000602529
-0.000592345
-0.000582162
-0.000571978
-0.000561795
-0.000551611
-0.000541427
-0.000531244
-0.00052106
-0.000510877
-0.000500693
-0.00049051
-0.000480326
-0.000470142
-0.000459959
-0.000449775
-0.000439592
-0.000429408
-0.000419224
-0.000409041
-0.000398857
-0.000388674
-0.00037849
-0.000368306
-0.000358123
-0.000347939
-0.000337756
-0.000327572
-0.000317389
-0.000307205
-0.000297021
-0.000286838
-0.000276654
-0.000266471
-0.000256287
-0.000246103
-0.00023592
-0.000225736
-0.000215553
-0.000205369
-0.000195185
-0.000185002
-0.000174818
-0.000164635
-0.000154451
-0.000144268
-0.000134084
-0.0001239
-0.000113717
-0.000103533
-9.335e-05
-8.3166e-05
-7.2982e-05
-6.2799e-05
-5.2615e-05
-4.2432e-05
-3.2248e-05
-2.2064e-05
-1.1881e-05
-1.697e-06
8.493e-06
1.87e-05
2.8927e-05
3.9171e-05
4.9434e-05
5.9715e-05
7.0014e-05
8.0332e-05
9.0668e-05
0.000101023
0.000111396
0.000121788
0.000132198
0.000142627
0.000153074
0.00016354
0.000174025
0.000184529
0.000195051
0.000205592
0.000216152
0.000226731
0.000237329
0.000247946
0.000258582
0.000269236
0.00027991
0.000290603
0.000301315
0.000312046
0.000322796
0.000333565
0.000344354
0.000355162
0.000365989
0.000376836
0.000387702
0.000398587
0.000409492
0.000420416
0.00043136
0.000442323
0.000453306
0.000464309
0.000475331
0.000486373
0.000497435
0.000508516
0.000519618
0.000530739
0.00054188
0.00055304
0.000564221
0.000575422
0.000586643
0.000597884
0.000609144
0.000620426
0.000631727
0.000643048
0.00065439
0.000665752
0.000677134
0.000688536
0.000699959
0.000711402
0.000722866
0.00073435
0.000745855
0.00075738
0.000768926
0.000780493
0.00079208
0.000803688
0.000815316
0.000826966
0.000838636
0.000850327
0.000862039
0.000873772
0.000885526
0.000897301
0.000909096
0.000920913
0.000932751
0.000944611
0.000956491
0.000968393
0.000980316
0.00099226
0.001004225
0.001016212
0.00102822
0.00104025
0.001052302
0.001064374
0.001076469
0.001088585
0.001100722
0.001112882
0.001125063
0.001137266
0.00114949
0.001161737
0.001174005
0.001186295
0.001198607
0.001210942
0.001223298
0.001235676
0.001248077
0.001260499
0.001272944
0.001285411
0.0012979
0.001310412
0.001322946
0.001335502
0.001348081
0.001360682
0.001373306
0.001385952
0.001398621
0.001411313
0.001424027
0.001436764
0.001449524
0.001462306
0.001475112
0.00148794
0.001500791
0.001513665
0.001526562
0.001539483
0.001552426
0.001565392
0.001578382
0.001591394
0.00160443
0.00161749
0.001630572
0.001643678
0.001656808
0.001669961
0.001683137
0.001696337
0.00170956
0.001722807
0.001736078
0.001749373
0.001762691
0.001776033
0.001789399
0.001802789
0.001816202
0.00182964
0.001843102
0.001856587
0.001870097
0.001883631
0.001897189
0.001910772
0.001924378
0.001938009
0.001951664
0.001965344
0.001979048
0.001992777
0.00200653
0.002020308
0.00203411
0.002047937
0.002061789
0.002075665
0.002089566
0.002103492
0.002117443
0.002131419
0.00214542
0.002159446
0.002173497
0.002187573
0.002201674
0.0022158
0.002229952
0.002244129
0.002258331
0.002272559
0.002286812
0.00230109
0.002315394
0.002329724
0.002344079
0.00235846
0.002372866
0.002387298
0.002401756
0.00241624
0.00243075
0.002445286
0.002459847
0.002474435
0.002489049
0.002503688
0.002518354
0.002533047
0.002547765
0.00256251
0.002577281
0.002592078
0.002606902
0.002621753
0.002636629
0.002651533
0.002666463
0.00268142
0.002696403
0.002711414
0.002726451
0.002741515
0.002756606
0.002771723
0.002786868
0.00280204
0.002817239
0.002832465
0.002847719
0.002862999
0.002878307
0.002893643
0.002909005
0.002924396
0.002939813
0.002955258
0.002970731
0.002986232
0.00300176
0.003017316
0.003032899
0.003048511
0.00306415
0.003079817
0.003095513
0.003111236
0.003126988
0.003142767
0.003158575
0.003174411
0.003190275
0.003206168
0.003222089
0.003238039
0.003254017
0.003270023
0.003286058
0.003302122
0.003318215
0.003334336
0.003350486
0.003366665
0.003382873
0.00339911
0.003415375
0.00343167
0.003447994
0.003464347
0.00348073
0.003497141
0.003513582
0.003530053
0.003546552
0.003563082
0.00357964
0.003596229
0.003612847
0.003629494
0.003646172
0.003662879
0.003679616
0.003696383
0.00371318
0.003730007
0.003746864
0.003763751
0.003780668
0.003797616
0.003814594
0.003831602
0.00384864
0.003865709
0.003882809
0.003899939
0.003917099
0.003934291
0.003951513
0.003968765
0.003986049
0.004003363
0.004020709
0.004038085
0.004055493
0.004072931
0.004090401
0.004107902
0.004125434
0.004142998
0.004160592
0.004178219
0.004195877
0.004213566
0.004231287
0.00424904
0.004266824
0.00428464
0.004302488
0.004320368
0.00433828
0.004356223
0.004374199
0.004392207
0.004410247
0.00442832
0.004446424
0.004464561
0.004482731
0.004500933
0.004519167
0.004537434
0.004555734
0.004574066
0.004592431
0.004610829
0.00462926
0.004647723
0.00466622
0.00468475
0.004703313
0.004721909
0.004740538
0.0047592
0.004777896
0.004796625
0.004815388
0.004834184
0.004853014
0.004871878
0.004890775
0.004909706
0.00492867
0.004947669
0.004966702
0.004985768
0.005004869
0.005024004
0.005043173
0.005062376
0.005081613
0.005100885
0.005120192
0.005139532
0.005158908
0.005178318
0.005197762
0.005217242
0.005236756
0.005256305
0.005275889
0.005295508
0.005315162
0.005334851
0.005354576
0.005374335
0.00539413
0.00541396
0.005433826
0.005453727
0.005473664
0.005493636
0.005513644
0.005533688
0.005553768
0.005573883
0.005594035
0.005614222
0.005634446
0.005654705
0.005675001
0.005695333
0.005715702
0.005736106
0.005756548
0.005777025
0.00579754
0.005818091
0.005838678
0.005859303
0.005879964
0.005900663
0.005921398
0.00594217
0.00596298
0.005983826
0.00600471
0.006025631
0.00604659
0.006067586
0.006088619
0.00610969
0.006130799
0.006151946
0.00617313
0.006194352
0.006215612
0.00623691
0.006258246
0.00627962
0.006301032
0.006322483
0.006343972
0.006365499
0.006387065
0.006408669
0.006430312
0.006451994
0.006473714
0.006495473
0.006517271
0.006539108
0.006560984
0.006582899
0.006604853
0.006626847
0.00664888
0.006670952
0.006693063
0.006715214
0.006737405
0.006759635
0.006781905
0.006804215
0.006826564
0.006848954
0.006871384
0.006893853
0.006916363
0.006938913
0.006961503
0.006984134
0.007006805
0.007029517
0.007052269
0.007075062
0.007097895
0.007120769
0.007143685
0.007166641
0.007189638
0.007212676
0.007235756
0.007258876
0.007282038
0.007305242
0.007328486
0.007351773
0.007375101
0.00739847
0.007421882
0.007445335
0.00746883
0.007492367
0.007515946
0.007539567
0.007563231
0.007586937
0.007610685
0.007634475
0.007658308
0.007682184
0.007706102
0.007730063
0.007754067
0.007778114
0.007802203
0.007826336
0.007850512
0.007874731
0.007898993
0.007923299
0.007947648
0.00797204
0.007996477
0.008020956
0.00804548
0.008070047
0.008094659
0.008119314
0.008144013
0.008168757
0.008193544
0.008218376
0.008243252
0.008268173
0.008293138
0.008318148
0.008343203
0.008368302
0.008393446
0.008418635
0.008443869
0.008469148
0.008494473
0.008519842
0.008545257
0.008570718
0.008596223
0.008621775
0.008647372
0.008673014
0.008698703
0.008724438
0.008750218
0.008776044
0.008801917
0.008827836
0.008853801
0.008879813
0.008905871
0.008931975
0.008958127
0.008984325
0.009010569
0.009036861
0.0090632
0.009089585
0.009116018
0.009142498
