OpenDRT_v1.0-2.0_full-config_v2/transfer_functions/oetf_dji_dlog_to_linear.spi1d
Version 1
From -0.15 1.2
Length 8192
Components 1
{
-0.040315353
-0.040287998
-0.040260642
-0.040233287
-0.040205932
-0.040178577
-0.040151222
-0.040123866
-0.040096511
-0.040069156
-0.040041801
-0.040014446
-0.03998709
-0.039959735
-0.03993238
-0.039905025
-0.03987767
-0.039850314
-0.039822959
-0.039795604
-0.039768249
-0.039740894
-0.039713538
-0.039686183
-0.039658828
-0.039631473
-0.039604118
-0.039576762
-0.039549407
-0.039522052
-0.039494697
-0.039467342
-0.039439987
-0.039412631
-0.039385276
-0.039357921
-0.039330566
-0.039303211
-0.039275855
-0.0392485
-0.039221145
-0.03919379
-0.039166435
-0.039139079
-0.039111724
-0.039084369
-0.039057014
-0.039029659
-0.039002303
-0.038974948
-0.038947593
-0.038920238
-0.038892883
-0.038865527
-0.038838172
-0.038810817
-0.038783462
-0.038756107
-0.038728751
-0.038701396
-0.038674041
-0.038646686
-0.038619331
-0.038591976
-0.03856462
-0.038537265
-0.03850991
-0.038482555
-0.0384552
-0.038427844
-0.038400489
-0.038373134
-0.038345779
-0.038318424
-0.038291068
-0.038263713
-0.038236358
-0.038209003
-0.038181648
-0.038154292
-0.038126937
-0.038099582
-0.038072227
-0.038044872
-0.038017516
-0.037990161
-0.037962806
-0.037935451
-0.037908096
-0.03788074
-0.037853385
-0.03782603
-0.037798675
-0.03777132
-0.037743965
-0.037716609
-0.037689254
-0.037661899
-0.037634544
-0.037607189
-0.037579833
-0.037552478
-0.037525123
-0.037497768
-0.037470413
-0.037443057
-0.037415702
-0.037388347
-0.037360992
-0.037333637
-0.037306281
-0.037278926
-0.037251571
-0.037224216
-0.037196861
-0.037169505
-0.03714215
-0.037114795
-0.03708744
-0.037060085
-0.037032729
-0.037005374
-0.036978019
-0.036950664
-0.036923309
-0.036895954
-0.036868598
-0.036841243
-0.036813888
-0.036786533
-0.036759178
-0.036731822
-0.036704467
-0.036677112
-0.036649757
-0.036622402
-0.036595046
-0.036567691
-0.036540336
-0.036512981
-0.036485626
-0.03645827
-0.036430915
-0.03640356
-0.036376205
-0.03634885
-0.036321494
-0.036294139
-0.036266784
-0.036239429
-0.036212074
-0.036184718
-0.036157363
-0.036130008
-0.036102653
-0.036075298
-0.036047943
-0.036020587
-0.035993232
-0.035965877
-0.035938522
-0.035911167
-0.035883811
-0.035856456
-0.035829101
-0.035801746
-0.035774391
-0.035747035
-0.03571968
-0.035692325
-0.03566497
-0.035637615
-0.035610259
-0.035582904
-0.035555549
-0.035528194
-0.035500839
-0.035473483
-0.035446128
-0.035418773
-0.035391418
-0.035364063
-0.035336707
-0.035309352
-0.035281997
-0.035254642
-0.035227287
-0.035199932
-0.035172576
-0.035145221
-0.035117866
-0.035090511
-0.035063156
-0.0350358
-0.035008445
-0.03498109
-0.034953735
-0.03492638
-0.034899024
-0.034871669
-0.034844314
-0.034816959
-0.034789604
-0.034762248
-0.034734893
-0.034707538
-0.034680183
-0.034652828
-0.034625472
-0.034598117
-0.034570762
-0.034543407
-0.034516052
-0.034488696
-0.034461341
-0.034433986
-0.034406631
-0.034379276
-0.034351921
-0.034324565
-0.03429721
-0.034269855
-0.0342425
-0.034215145
-0.034187789
-0.034160434
-0.034133079
-0.034105724
-0.034078369
-0.034051013
-0.034023658
-0.033996303
-0.033968948
-0.033941593
-0.033914237
-0.033886882
-0.033859527
-0.033832172
-0.033804817
-0.033777461
-0.033750106
-0.033722751
-0.033695396
-0.033668041
-0.033640685
-0.03361333
-0.033585975
-0.03355862
-0.033531265
-0.03350391
-0.033476554
-0.033449199
-0.033421844
-0.033394489
-0.033367134
-0.033339778
-0.033312423
-0.033285068
-0.033257713
-0.033230358
-0.033203002
-0.033175647
-0.033148292
-0.033120937
-0.033093582
-0.033066226
-0.033038871
-0.033011516
-0.032984161
-0.032956806
-0.03292945
-0.032902095
-0.03287474
-0.032847385
-0.03282003
-0.032792674
-0.032765319
-0.032737964
-0.032710609
-0.032683254
-0.032655899
-0.032628543
-0.032601188
-0.032573833
-0.032546478
-0.032519123
-0.032491767
-0.032464412
-0.032437057
-0.032409702
-0.032382347
-0.032354991
-0.032327636
-0.032300281
-0.032272926
-0.032245571
-0.032218215
-0.03219086
-0.032163505
-0.03213615
-0.032108795
-0.032081439
-0.032054084
-0.032026729
-0.031999374
-0.031972019
-0.031944663
-0.031917308
-0.031889953
-0.031862598
-0.031835243
-0.031807888
-0.031780532
-0.031753177
-0.031725822
-0.031698467
-0.031671112
-0.031643756
-0.031616401
-0.031589046
-0.031561691
-0.031534336
-0.03150698
-0.031479625
-0.03145227
-0.031424915
-0.03139756
-0.031370204
-0.031342849
-0.031315494
-0.031288139
-0.031260784
-0.031233428
-0.031206073
-0.031178718
-0.031151363
-0.031124008
-0.031096652
-0.031069297
-0.031041942
-0.031014587
-0.030987232
-0.030959877
-0.030932521
-0.030905166
-0.030877811
-0.030850456
-0.030823101
-0.030795745
-0.03076839
-0.030741035
-0.03071368
-0.030686325
-0.030658969
-0.030631614
-0.030604259
-0.030576904
-0.030549549
-0.030522193
-0.030494838
-0.030467483
-0.030440128
-0.030412773
-0.030385417
-0.030358062
-0.030330707
-0.030303352
-0.030275997
-0.030248641
-0.030221286
-0.030193931
-0.030166576
-0.030139221
-0.030111866
-0.03008451
-0.030057155
-0.0300298
-0.030002445
-0.02997509
-0.029947734
-0.029920379
-0.029893024
-0.029865669
-0.029838314
-0.029810958
-0.029783603
-0.029756248
-0.029728893
-0.029701538
-0.029674182
-0.029646827
-0.029619472
-0.029592117
-0.029564762
-0.029537406
-0.029510051
-0.029482696
-0.029455341
-0.029427986
-0.02940063
-0.029373275
-0.02934592
-0.029318565
-0.02929121
-0.029263855
-0.029236499
-0.029209144
-0.029181789
-0.029154434
-0.029127079
-0.029099723
-0.029072368
-0.029045013
-0.029017658
-0.028990303
-0.028962947
-0.028935592
-0.028908237
-0.028880882
-0.028853527
-0.028826171
-0.028798816
-0.028771461
-0.028744106
-0.028716751
-0.028689395
-0.02866204
-0.028634685
-0.02860733
-0.028579975
-0.028552619
-0.028525264
-0.028497909
-0.028470554
-0.028443199
-0.028415844
-0.028388488
-0.028361133
-0.028333778
-0.028306423
-0.028279068
-0.028251712
-0.028224357
-0.028197002
-0.028169647
-0.028142292
-0.028114936
-0.028087581
-0.028060226
-0.028032871
-0.028005516
-0.02797816
-0.027950805
-0.02792345
-0.027896095
-0.02786874
-0.027841384
-0.027814029
-0.027786674
-0.027759319
-0.027731964
-0.027704608
-0.027677253
-0.027649898
-0.027622543
-0.027595188
-0.027567833
-0.027540477
-0.027513122
-0.027485767
-0.027458412
-0.027431057
-0.027403701
-0.027376346
-0.027348991
-0.027321636
-0.027294281
-0.027266925
-0.02723957
-0.027212215
-0.02718486
-0.027157505
-0.027130149
-0.027102794
-0.027075439
-0.027048084
-0.027020729
-0.026993373
-0.026966018
-0.026938663
-0.026911308
-0.026883953
-0.026856597
-0.026829242
-0.026801887
-0.026774532
-0.026747177
-0.026719822
-0.026692466
-0.026665111
-0.026637756
-0.026610401
-0.026583046
-0.02655569
-0.026528335
-0.02650098
-0.026473625
-0.02644627
-0.026418914
-0.026391559
-0.026364204
-0.026336849
-0.026309494
-0.026282138
-0.026254783
-0.026227428
-0.026200073
-0.026172718
-0.026145362
-0.026118007
-0.026090652
-0.026063297
-0.026035942
-0.026008586
-0.025981231
-0.025953876
-0.025926521
-0.025899166
-0.025871811
-0.025844455
-0.0258171
-0.025789745
-0.02576239
-0.025735035
-0.025707679
-0.025680324
-0.025652969
-0.025625614
-0.025598259
-0.025570903
-0.025543548
-0.025516193
-0.025488838
-0.025461483
-0.025434127
-0.025406772
-0.025379417
-0.025352062
-0.025324707
-0.025297351
-0.025269996
-0.025242641
-0.025215286
-0.025187931
-0.025160575
-0.02513322
-0.025105865
-0.02507851
-0.025051155
-0.0250238
-0.024996444
-0.024969089
-0.024941734
-0.024914379
-0.024887024
-0.024859668
-0.024832313
-0.024804958
-0.024777603
-0.024750248
-0.024722892
-0.024695537
-0.024668182
-0.024640827
-0.024613472
-0.024586116
-0.024558761
-0.024531406
-0.024504051
-0.024476696
-0.02444934
-0.024421985
-0.02439463
-0.024367275
-0.02433992
-0.024312564
-0.024285209
-0.024257854
-0.024230499
-0.024203144
-0.024175789
-0.024148433
-0.024121078
-0.024093723
-0.024066368
-0.024039013
-0.024011657
-0.023984302
-0.023956947
-0.023929592
-0.023902237
-0.023874881
-0.023847526
-0.023820171
-0.023792816
-0.023765461
-0.023738105
-0.02371075
-0.023683395
-0.02365604
-0.023628685
-0.023601329
-0.023573974
-0.023546619
-0.023519264
-0.023491909
-0.023464553
-0.023437198
-0.023409843
-0.023382488
-0.023355133
-0.023327778
-0.023300422
-0.023273067
-0.023245712
-0.023218357
-0.023191002
-0.023163646
-0.023136291
-0.023108936
-0.023081581
-0.023054226
-0.02302687
-0.022999515
-0.02297216
-0.022944805
-0.02291745
-0.022890094
-0.022862739
-0.022835384
-0.022808029
-0.022780674
-0.022753318
-0.022725963
-0.022698608
-0.022671253
-0.022643898
-0.022616542
-0.022589187
-0.022561832
-0.022534477
-0.022507122
-0.022479767
-0.022452411
-0.022425056
-0.022397701
-0.022370346
-0.022342991
-0.022315635
-0.02228828
-0.022260925
-0.02223357
-0.022206215
-0.022178859
-0.022151504
-0.022124149
-0.022096794
-0.022069439
-0.022042083
-0.022014728
-0.021987373
-0.021960018
-0.021932663
-0.021905307
-0.021877952
-0.021850597
-0.021823242
-0.021795887
-0.021768531
-0.021741176
-0.021713821
-0.021686466
-0.021659111
-0.021631756
-0.0216044
-0.021577045
-0.02154969
-0.021522335
-0.02149498
-0.021467624
-0.021440269
-0.021412914
-0.021385559
-0.021358204
-0.021330848
-0.021303493
-0.021276138
-0.021248783
-0.021221428
-0.021194072
-0.021166717
-0.021139362
-0.021112007
-0.021084652
-0.021057296
-0.021029941
-0.021002586
-0.020975231
-0.020947876
-0.02092052
-0.020893165
-0.02086581
-0.020838455
-0.0208111
-0.020783745
-0.020756389
-0.020729034
-0.020701679
-0.020674324
-0.020646969
-0.020619613
-0.020592258
-0.020564903
-0.020537548
-0.020510193
-0.020482837
-0.020455482
-0.020428127
-0.020400772
-0.020373417
-0.020346061
-0.020318706
-0.020291351
-0.020263996
-0.020236641
-0.020209285
-0.02018193
-0.020154575
-0.02012722
-0.020099865
-0.020072509
-0.020045154
-0.020017799
-0.019990444
-0.019963089
-0.019935734
-0.019908378
-0.019881023
-0.019853668
-0.019826313
-0.019798958
-0.019771602
-0.019744247
-0.019716892
-0.019689537
-0.019662182
-0.019634826
-0.019607471
-0.019580116
-0.019552761
-0.019525406
-0.01949805
-0.019470695
-0.01944334
-0.019415985
-0.01938863
-0.019361274
-0.019333919
-0.019306564
-0.019279209
-0.019251854
-0.019224499
-0.019197143
-0.019169788
-0.019142433
-0.019115078
-0.019087723
-0.019060367
-0.019033012
-0.019005657
-0.018978302
-0.018950947
-0.018923591
-0.018896236
-0.018868881
-0.018841526
-0.018814171
-0.018786815
-0.01875946
-0.018732105
-0.01870475
-0.018677395
-0.018650039
-0.018622684
-0.018595329
-0.018567974
-0.018540619
-0.018513263
-0.018485908
-0.018458553
-0.018431198
-0.018403843
-0.018376488
-0.018349132
-0.018321777
-0.018294422
-0.018267067
-0.018239712
-0.018212356
-0.018185001
-0.018157646
-0.018130291
-0.018102936
-0.01807558
-0.018048225
-0.01802087
-0.017993515
-0.01796616
-0.017938804
-0.017911449
-0.017884094
-0.017856739
-0.017829384
-0.017802028
-0.017774673
-0.017747318
-0.017719963
-0.017692608
-0.017665252
-0.017637897
-0.017610542
-0.017583187
-0.017555832
-0.017528477
-0.017501121
-0.017473766
-0.017446411
-0.017419056
-0.017391701
-0.017364345
-0.01733699
-0.017309635
-0.01728228
-0.017254925
-0.017227569
-0.017200214
-0.017172859
-0.017145504
-0.017118149
-0.017090793
-0.017063438
-0.017036083
-0.017008728
-0.016981373
-0.016954017
-0.016926662
-0.016899307
-0.016871952
-0.016844597
-0.016817241
-0.016789886
-0.016762531
-0.016735176
-0.016707821
-0.016680466
-0.01665311
-0.016625755
-0.0165984
-0.016571045
-0.01654369
-0.016516334
-0.016488979
-0.016461624
-0.016434269
-0.016406914
-0.016379558
-0.016352203
-0.016324848
-0.016297493
-0.016270138
-0.016242782
-0.016215427
-0.016188072
-0.016160717
-0.016133362
-0.016106006
-0.016078651
-0.016051296
-0.016023941
-0.015996586
-0.01596923
-0.015941875
-0.01591452
-0.015887165
-0.01585981
-0.015832455
-0.015805099
-0.015777744
-0.015750389
-0.015723034
-0.015695679
-0.015668323
-0.015640968
-0.015613613
-0.015586258
-0.015558903
-0.015531547
-0.015504192
-0.015476837
-0.015449482
-0.015422127
-0.015394771
-0.015367416
-0.015340061
-0.015312706
-0.015285351
-0.015257995
-0.01523064
-0.015203285
-0.01517593
-0.015148575
-0.015121219
-0.015093864
-0.015066509
-0.015039154
-0.015011799
-0.014984444
-0.014957088
-0.014929733
-0.014902378
-0.014875023
-0.014847668
-0.014820312
-0.014792957
-0.014765602
-0.014738247
-0.014710892
-0.014683536
-0.014656181
-0.014628826
-0.014601471
-0.014574116
-0.01454676
-0.014519405
-0.01449205
-0.014464695
-0.01443734
-0.014409984
-0.014382629
-0.014355274
-0.014327919
-0.014300564
-0.014273208
-0.014245853
-0.014218498
-0.014191143
-0.014163788
-0.014136433
-0.014109077
-0.014081722
-0.014054367
-0.014027012
-0.013999657
-0.013972301
-0.013944946
-0.013917591
-0.013890236
-0.013862881
-0.013835525
-0.01380817
-0.013780815
-0.01375346
-0.013726105
-0.013698749
-0.013671394
-0.013644039
-0.013616684
-0.013589329
-0.013561973
-0.013534618
-0.013507263
-0.013479908
-0.013452553
-0.013425197
-0.013397842
-0.013370487
-0.013343132
-0.013315777
-0.013288422
-0.013261066
-0.013233711
-0.013206356
-0.013179001
-0.013151646
-0.01312429
-0.013096935
-0.01306958
-0.013042225
-0.01301487
-0.012987514
-0.012960159
-0.012932804
-0.012905449
-0.012878094
-0.012850738
-0.012823383
-0.012796028
-0.012768673
-0.012741318
-0.012713962
-0.012686607
-0.012659252
-0.012631897
-0.012604542
-0.012577186
-0.012549831
-0.012522476
-0.012495121
-0.012467766
-0.012440411
-0.012413055
-0.0123857
-0.012358345
-0.01233099
-0.012303635
-0.012276279
-0.012248924
-0.012221569
-0.012194214
-0.012166859
-0.012139503
-0.012112148
-0.012084793
-0.012057438
-0.012030083
-0.012002727
-0.011975372
-0.011948017
-0.011920662
-0.011893307
-0.011865951
-0.011838596
-0.011811241
-0.011783886
-0.011756531
-0.011729175
-0.01170182
-0.011674465
-0.01164711
-0.011619755
-0.0115924
-0.011565044
-0.011537689
-0.011510334
-0.011482979
-0.011455624
-0.011428268
-0.011400913
-0.011373558
-0.011346203
-0.011318848
-0.011291492
-0.011264137
-0.011236782
-0.011209427
-0.011182072
-0.011154716
-0.011127361
-0.011100006
-0.011072651
-0.011045296
-0.01101794
-0.010990585
-0.01096323
-0.010935875
-0.01090852
-0.010881164
-0.010853809
-0.010826454
-0.010799099
-0.010771744
-0.010744389
-0.010717033
-0.010689678
-0.010662323
-0.010634968
-0.010607613
-0.010580257
-0.010552902
-0.010525547
-0.010498192
-0.010470837
-0.010443481
-0.010416126
-0.010388771
-0.010361416
-0.010334061
-0.010306705
-0.01027935
-0.010251995
-0.01022464
-0.010197285
-0.010169929
-0.010142574
-0.010115219
-0.010087864
-0.010060509
-0.010033153
-0.010005798
-0.009978443
-0.009951088
-0.009923733
-0.009896378
-0.009869022
-0.009841667
-0.009814312
-0.009786957
-0.009759602
-0.009732246
-0.009704891
-0.009677536
-0.009650181
-0.009622826
-0.00959547
-0.009568115
-0.00954076
-0.009513405
-0.00948605
-0.009458694
-0.009431339
-0.009403984
-0.009376629
-0.009349274
-0.009321918
-0.009294563
-0.009267208
-0.009239853
-0.009212498
-0.009185142
-0.009157787
-0.009130432
-0.009103077
-0.009075722
-0.009048367
-0.009021011
-0.008993656
-0.008966301
-0.008938946
-0.008911591
-0.008884235
-0.00885688
-0.008829525
-0.00880217
-0.008774815
-0.008747459
-0.008720104
-0.008692749
-0.008665394
-0.008638039
-0.008610683
-0.008583328
-0.008555973
-0.008528618
-0.008501263
-0.008473907
-0.008446552
-0.008419197
-0.008391842
-0.008364487
-0.008337131
-0.008309776
-0.008282421
-0.008255066
-0.008227711
-0.008200356
-0.008173
-0.008145645
-0.00811829
-0.008090935
-0.00806358
-0.008036224
-0.008008869
-0.007981514
-0.007954159
-0.007926804
-0.007899448
-0.007872093
-0.007844738
-0.007817383
-0.007790028
-0.007762672
-0.007735317
-0.007707962
-0.007680607
-0.007653252
-0.007625896
-0.007598541
-0.007571186
-0.007543831
-0.007516476
-0.00748912
-0.007461765
-0.00743441
-0.007407055
-0.0073797
-0.007352345
-0.007324989
-0.007297634
-0.007270279
-0.007242924
-0.007215569
-0.007188213
-0.007160858
-0.007133503
-0.007106148
-0.007078793
-0.007051437
-0.007024082
-0.006996727
-0.006969372
-0.006942017
-0.006914661
-0.006887306
-0.006859951
-0.006832596
-0.006805241
-0.006777885
-0.00675053
-0.006723175
-0.00669582
-0.006668465
-0.006641109
-0.006613754
-0.006586399
-0.006559044
-0.006531689
-0.006504334
-0.006476978
-0.006449623
-0.006422268
-0.006394913
-0.006367558
-0.006340202
-0.006312847
-0.006285492
-0.006258137
-0.006230782
-0.006203426
-0.006176071
-0.006148716
-0.006121361
-0.006094006
-0.00606665
-0.006039295
-0.00601194
-0.005984585
-0.00595723
-0.005929874
-0.005902519
-0.005875164
-0.005847809
-0.005820454
-0.005793098
-0.005765743
-0.005738388
-0.005711033
-0.005683678
-0.005656323
-0.005628967
-0.005601612
-0.005574257
-0.005546902
-0.005519547
-0.005492191
-0.005464836
-0.005437481
-0.005410126
-0.005382771
-0.005355415
-0.00532806
-0.005300705
-0.00527335
-0.005245995
-0.005218639
-0.005191284
-0.005163929
-0.005136574
-0.005109219
-0.005081863
-0.005054508
-0.005027153
-0.004999798
-0.004972443
-0.004945087
-0.004917732
-0.004890377
-0.004863022
-0.004835667
-0.004808312
-0.004780956
-0.004753601
-0.004726246
-0.004698891
-0.004671536
-0.00464418
-0.004616825
-0.00458947
-0.004562115
-0.00453476
-0.004507404
-0.004480049
-0.004452694
-0.004425339
-0.004397984
-0.004370628
-0.004343273
-0.004315918
-0.004288563
-0.004261208
-0.004233852
-0.004206497
-0.004179142
-0.004151787
-0.004124432
-0.004097076
-0.004069721
-0.004042366
-0.004015011
-0.003987656
-0.003960301
-0.003932945
-0.00390559
-0.003878235
-0.00385088
-0.003823525
-0.003796169
-0.003768814
-0.003741459
-0.003714104
-0.003686749
-0.003659393
-0.003632038
-0.003604683
-0.003577328
-0.003549973
-0.003522617
-0.003495262
-0.003467907
-0.003440552
-0.003413197
-0.003385841
-0.003358486
-0.003331131
-0.003303776
-0.003276421
-0.003249065
-0.00322171
-0.003194355
-0.003167
-0.003139645
-0.00311229
-0.003084934
-0.003057579
-0.003030224
-0.003002869
-0.002975514
-0.002948158
-0.002920803
-0.002893448
-0.002866093
-0.002838738
-0.002811382
-0.002784027
-0.002756672
-0.002729317
-0.002701962
-0.002674606
-0.002647251
-0.002619896
-0.002592541
-0.002565186
-0.00253783
-0.002510475
-0.00248312
-0.002455765
-0.00242841
-0.002401054
-0.002373699
-0.002346344
-0.002318989
-0.002291634
-0.002264279
-0.002236923
-0.002209568
-0.002182213
-0.002154858
-0.002127503
-0.002100147
-0.002072792
-0.002045437
-0.002018082
-0.001990727
-0.001963371
-0.001936016
-0.001908661
-0.001881306
-0.001853951
-0.001826595
-0.00179924
-0.001771885
-0.00174453
-0.001717175
-0.001689819
-0.001662464
-0.001635109
-0.001607754
-0.001580399
-0.001553043
-0.001525688
-0.001498333
-0.001470978
-0.001443623
-0.001416268
-0.001388912
-0.001361557
-0.001334202
-0.001306847
-0.001279492
-0.001252136
-0.001224781
-0.001197426
-0.001170071
-0.001142716
-0.00111536
-0.001088005
-0.00106065
-0.001033295
-0.00100594
-0.000978584
-0.000951229
-0.000923874
-0.000896519
-0.000869164
-0.000841808
-0.000814453
-0.000787098
-0.000759743
-0.000732388
-0.000705032
-0.000677677
-0.000650322
-0.000622967
-0.000595612
-0.000568257
-0.000540901
-0.000513546
-0.000486191
-0.000458836
-0.000431481
-0.000404125
-0.00037677
-0.000349415
-0.00032206
-0.000294705
-0.000267349
-0.000239994
-0.000212639
-0.000185284
-0.000157929
-0.000130573
-0.000103218
-7.5863e-05
-4.8508e-05
-2.1153e-05
6.203e-06
3.3558e-05
6.0913e-05
8.8268e-05
0.000115623
0.000142979
0.000170334
0.000197689
0.000225044
0.000252399
0.000279754
0.00030711
0.000334465
0.00036182
0.000389175
0.00041653
0.000443886
0.000471241
0.000498596
0.000525951
0.000553306
0.000580662
0.000608017
0.000635372
0.000662727
0.000690082
0.000717438
0.000744793
0.000772148
0.000799503
0.000826858
0.000854214
0.000881569
0.000908924
0.000936279
0.000963634
0.00099099
0.001018345
0.0010457
0.001073055
0.00110041
0.001127765
0.001155121
0.001182476
0.001209831
0.001237186
0.001264541
0.001291897
0.001319252
0.001346607
0.001373962
0.001401317
0.001428673
0.001456028
0.001483383
0.001510738
0.001538093
0.001565449
0.001592804
0.001620159
0.001647514
0.001674869
0.001702225
0.00172958
0.001756935
0.00178429
0.001811645
0.001839001
0.001866356
0.001893711
0.001921066
0.001948421
0.001975776
0.002003132
0.002030487
0.002057842
0.002085197
0.002112552
0.002139908
0.002167263
0.002194618
0.002221973
0.002249328
0.002276684
0.002304039
0.002331394
0.002358749
0.002386104
0.00241346
0.002440815
0.00246817
0.002495525
0.00252288
0.002550236
0.002577591
0.002604946
0.002632301
0.002659656
0.002687012
0.002714367
0.002741722
0.002769077
0.002796432
0.002823787
0.002851143
0.002878498
0.002905853
0.002933208
0.002960563
0.002987919
0.003015274
0.003042629
0.003069984
0.003097339
0.003124695
0.00315205
0.003179405
0.00320676
0.003234115
0.003261471
0.003288826
0.003316181
0.003343536
0.003370891
0.003398247
0.003425602
0.003452957
0.003480312
0.003507667
0.003535022
0.003562378
0.003589733
0.003617088
0.003644443
0.003671798
0.003699154
0.003726509
0.003753864
0.003781219
0.003808574
0.00383593
0.003863285
0.00389064
0.003917995
0.00394535
0.003972706
0.004000061
0.004027416
0.004054771
0.004082126
0.004109482
0.004136837
0.004164192
0.004191547
0.004218902
0.004246258
0.004273613
0.004300968
0.004328323
0.004355678
0.004383033
0.004410389
0.004437744
0.004465099
0.004492454
0.004519809
0.004547165
0.00457452
0.004601875
0.00462923
0.004656585
0.004683941
0.004711296
0.004738651
0.004766006
0.004793361
0.004820717
0.004848072
0.004875427
0.004902782
0.004930137
0.004957493
0.004984848
0.005012203
0.005039558
0.005066913
0.005094269
0.005121624
0.005148979
0.005176334
0.005203689
0.005231044
0.0052584
0.005285755
0.00531311
0.005340465
0.00536782
0.005395176
0.005422531
0.005449886
0.005477241
0.005504596
0.005531952
0.005559307
0.005586662
0.005614017
0.005641372
0.005668728
0.005696083
0.005723438
0.005750793
0.005778148
0.005805504
0.005832859
0.005860214
0.005887569
0.005914924
0.00594228
0.005969635
0.00599699
0.006024345
0.0060517
0.006079055
0.006106411
0.006133766
0.006161121
0.006188476
0.006215831
0.006243187
0.006270542
0.006297897
0.006325252
0.006352607
0.006379963
0.006407318
0.006434673
0.006462028
0.006489383
0.006516739
0.006544094
0.006571449
0.006598804
0.006626159
0.006653515
0.00668087
0.006708225
0.00673558
0.006762935
0.006790291
0.006817646
0.006845001
0.006872356
0.006899711
0.006927066
0.006954422
0.006981777
0.007009132
0.007036487
0.007063842
0.007091198
0.007118553
0.007145908
0.007173263
0.007200618
0.007227974
0.007255329
0.007282684
0.007310039
0.007337394
0.00736475
0.007392105
0.00741946
0.007446815
0.00747417
0.007501526
0.007528881
0.007556236
0.007583591
0.007610946
0.007638302
0.007665657
0.007693012
0.007720367
0.007747722
0.007775077
0.007802433
0.007829806
0.007857547
0.007885329
0.007913152
0.007941016
0.007968921
0.007996868
0.008024856
0.008052885
0.008080956
0.008109068
0.008137222
0.008165418
0.008193656
0.008221935
0.008250256
0.008278619
0.008307024
0.00833547
0.008363959
0.008392491
0.008421064
0.00844968
0.008478338
0.008507038
0.008535781
0.008564566
0.008593394
0.008622265
0.008651179
0.008680135
0.008709134
0.008738176
0.008767261
0.008796388
0.008825559
0.008854774
0.008884031
0.008913332
0.008942676
0.008972063
0.009001494
0.009030969
0.009060487
0.009090049
0.009119654
0.009149304
0.009178997
0.009208734
0.009238515
0.009268341
0.00929821
0.009328124
0.009358081
0.009388084
0.00941813
0.009448221
0.009478357
0.009508537
0.009538762
0.009569031
0.009599345
0.009629705
0.009660109
0.009690558
0.009721052
0.009751591
0.009782176
0.009812805
0.00984348
0.009874201
0.009904967
0.009935778
0.009966635
0.009997538
0.010028486
0.01005948
0.01009052
0.010121606
0.010152738
0.010183916
0.01021514
0.01024641
0.010277727
0.01030909
0.010340499
0.010371955
0.010403458
0.010435007
0.010466602
0.010498245
0.010529934
0.01056167
0.010593453
0.010625283
0.010657161
0.010689085
0.010721057
0.010753076
0.010785142
0.010817256
0.010849417
0.010881626
0.010913882
0.010946187
0.010978539
0.011010939
0.011043387
0.011075882
0.011108426
0.011141019
0.011173659
0.011206348
0.011239085
0.01127187
0.011304704
0.011337587
0.011370518
0.011403498
0.011436526
0.011469604
0.011502731
0.011535906
0.011569131
0.011602405
0.011635728
0.0116691
0.011702522
0.011735993
0.011769514
0.011803084
