OpenDRT_v1.0-2.0_full-config_v2/transfer_functions/oetf_blackmagic_bmdfilmgen5_to_linear.spi1d
Version 1
From -0.15 1.2
Length 8192
Components 1
{
-0.029270556
-0.02925066
-0.029230763
-0.029210867
-0.02919097
-0.029171074
-0.029151177
-0.029131281
-0.029111384
-0.029091487
-0.029071591
-0.029051694
-0.029031798
-0.029011901
-0.028992005
-0.028972108
-0.028952212
-0.028932315
-0.028912419
-0.028892522
-0.028872626
-0.028852729
-0.028832833
-0.028812936
-0.028793039
-0.028773143
-0.028753246
-0.02873335
-0.028713453
-0.028693557
-0.02867366
-0.028653764
-0.028633867
-0.028613971
-0.028594074
-0.028574178
-0.028554281
-0.028534385
-0.028514488
-0.028494591
-0.028474695
-0.028454798
-0.028434902
-0.028415005
-0.028395109
-0.028375212
-0.028355316
-0.028335419
-0.028315523
-0.028295626
-0.02827573
-0.028255833
-0.028235937
-0.02821604
-0.028196143
-0.028176247
-0.02815635
-0.028136454
-0.028116557
-0.028096661
-0.028076764
-0.028056868
-0.028036971
-0.028017075
-0.027997178
-0.027977282
-0.027957385
-0.027937489
-0.027917592
-0.027897695
-0.027877799
-0.027857902
-0.027838006
-0.027818109
-0.027798213
-0.027778316
-0.02775842
-0.027738523
-0.027718627
-0.02769873
-0.027678834
-0.027658937
-0.027639041
-0.027619144
-0.027599247
-0.027579351
-0.027559454
-0.027539558
-0.027519661
-0.027499765
-0.027479868
-0.027459972
-0.027440075
-0.027420179
-0.027400282
-0.027380386
-0.027360489
-0.027340593
-0.027320696
-0.027300799
-0.027280903
-0.027261006
-0.02724111
-0.027221213
-0.027201317
-0.02718142
-0.027161524
-0.027141627
-0.027121731
-0.027101834
-0.027081938
-0.027062041
-0.027042145
-0.027022248
-0.027002351
-0.026982455
-0.026962558
-0.026942662
-0.026922765
-0.026902869
-0.026882972
-0.026863076
-0.026843179
-0.026823283
-0.026803386
-0.02678349
-0.026763593
-0.026743697
-0.0267238
-0.026703903
-0.026684007
-0.02666411
-0.026644214
-0.026624317
-0.026604421
-0.026584524
-0.026564628
-0.026544731
-0.026524835
-0.026504938
-0.026485042
-0.026465145
-0.026445249
-0.026425352
-0.026405455
-0.026385559
-0.026365662
-0.026345766
-0.026325869
-0.026305973
-0.026286076
-0.02626618
-0.026246283
-0.026226387
-0.02620649
-0.026186594
-0.026166697
-0.026146801
-0.026126904
-0.026107007
-0.026087111
-0.026067214
-0.026047318
-0.026027421
-0.026007525
-0.025987628
-0.025967732
-0.025947835
-0.025927939
-0.025908042
-0.025888146
-0.025868249
-0.025848353
-0.025828456
-0.025808559
-0.025788663
-0.025768766
-0.02574887
-0.025728973
-0.025709077
-0.02568918
-0.025669284
-0.025649387
-0.025629491
-0.025609594
-0.025589698
-0.025569801
-0.025549905
-0.025530008
-0.025510111
-0.025490215
-0.025470318
-0.025450422
-0.025430525
-0.025410629
-0.025390732
-0.025370836
-0.025350939
-0.025331043
-0.025311146
-0.02529125
-0.025271353
-0.025251457
-0.02523156
-0.025211663
-0.025191767
-0.02517187
-0.025151974
-0.025132077
-0.025112181
-0.025092284
-0.025072388
-0.025052491
-0.025032595
-0.025012698
-0.024992802
-0.024972905
-0.024953009
-0.024933112
-0.024913215
-0.024893319
-0.024873422
-0.024853526
-0.024833629
-0.024813733
-0.024793836
-0.02477394
-0.024754043
-0.024734147
-0.02471425
-0.024694354
-0.024674457
-0.024654561
-0.024634664
-0.024614767
-0.024594871
-0.024574974
-0.024555078
-0.024535181
-0.024515285
-0.024495388
-0.024475492
-0.024455595
-0.024435699
-0.024415802
-0.024395906
-0.024376009
-0.024356113
-0.024336216
-0.024316319
-0.024296423
-0.024276526
-0.02425663
-0.024236733
-0.024216837
-0.02419694
-0.024177044
-0.024157147
-0.024137251
-0.024117354
-0.024097458
-0.024077561
-0.024057665
-0.024037768
-0.024017871
-0.023997975
-0.023978078
-0.023958182
-0.023938285
-0.023918389
-0.023898492
-0.023878596
-0.023858699
-0.023838803
-0.023818906
-0.02379901
-0.023779113
-0.023759217
-0.02373932
-0.023719423
-0.023699527
-0.02367963
-0.023659734
-0.023639837
-0.023619941
-0.023600044
-0.023580148
-0.023560251
-0.023540355
-0.023520458
-0.023500562
-0.023480665
-0.023460769
-0.023440872
-0.023420975
-0.023401079
-0.023381182
-0.023361286
-0.023341389
-0.023321493
-0.023301596
-0.0232817
-0.023261803
-0.023241907
-0.02322201
-0.023202114
-0.023182217
-0.023162321
-0.023142424
-0.023122527
-0.023102631
-0.023082734
-0.023062838
-0.023042941
-0.023023045
-0.023003148
-0.022983252
-0.022963355
-0.022943459
-0.022923562
-0.022903666
-0.022883769
-0.022863873
-0.022843976
-0.022824079
-0.022804183
-0.022784286
-0.02276439
-0.022744493
-0.022724597
-0.0227047
-0.022684804
-0.022664907
-0.022645011
-0.022625114
-0.022605218
-0.022585321
-0.022565425
-0.022545528
-0.022525631
-0.022505735
-0.022485838
-0.022465942
-0.022446045
-0.022426149
-0.022406252
-0.022386356
-0.022366459
-0.022346563
-0.022326666
-0.02230677
-0.022286873
-0.022266977
-0.02224708
-0.022227183
-0.022207287
-0.02218739
-0.022167494
-0.022147597
-0.022127701
-0.022107804
-0.022087908
-0.022068011
-0.022048115
-0.022028218
-0.022008322
-0.021988425
-0.021968529
-0.021948632
-0.021928735
-0.021908839
-0.021888942
-0.021869046
-0.021849149
-0.021829253
-0.021809356
-0.02178946
-0.021769563
-0.021749667
-0.02172977
-0.021709874
-0.021689977
-0.021670081
-0.021650184
-0.021630287
-0.021610391
-0.021590494
-0.021570598
-0.021550701
-0.021530805
-0.021510908
-0.021491012
-0.021471115
-0.021451219
-0.021431322
-0.021411426
-0.021391529
-0.021371633
-0.021351736
-0.021331839
-0.021311943
-0.021292046
-0.02127215
-0.021252253
-0.021232357
-0.02121246
-0.021192564
-0.021172667
-0.021152771
-0.021132874
-0.021112978
-0.021093081
-0.021073185
-0.021053288
-0.021033391
-0.021013495
-0.020993598
-0.020973702
-0.020953805
-0.020933909
-0.020914012
-0.020894116
-0.020874219
-0.020854323
-0.020834426
-0.02081453
-0.020794633
-0.020774737
-0.02075484
-0.020734943
-0.020715047
-0.02069515
-0.020675254
-0.020655357
-0.020635461
-0.020615564
-0.020595668
-0.020575771
-0.020555875
-0.020535978
-0.020516082
-0.020496185
-0.020476289
-0.020456392
-0.020436495
-0.020416599
-0.020396702
-0.020376806
-0.020356909
-0.020337013
-0.020317116
-0.02029722
-0.020277323
-0.020257427
-0.02023753
-0.020217634
-0.020197737
-0.020177841
-0.020157944
-0.020138047
-0.020118151
-0.020098254
-0.020078358
-0.020058461
-0.020038565
-0.020018668
-0.019998772
-0.019978875
-0.019958979
-0.019939082
-0.019919186
-0.019899289
-0.019879393
-0.019859496
-0.019839599
-0.019819703
-0.019799806
-0.01977991
-0.019760013
-0.019740117
-0.01972022
-0.019700324
-0.019680427
-0.019660531
-0.019640634
-0.019620738
-0.019600841
-0.019580945
-0.019561048
-0.019541151
-0.019521255
-0.019501358
-0.019481462
-0.019461565
-0.019441669
-0.019421772
-0.019401876
-0.019381979
-0.019362083
-0.019342186
-0.01932229
-0.019302393
-0.019282497
-0.0192626
-0.019242703
-0.019222807
-0.01920291
-0.019183014
-0.019163117
-0.019143221
-0.019123324
-0.019103428
-0.019083531
-0.019063635
-0.019043738
-0.019023842
-0.019003945
-0.018984049
-0.018964152
-0.018944255
-0.018924359
-0.018904462
-0.018884566
-0.018864669
-0.018844773
-0.018824876
-0.01880498
-0.018785083
-0.018765187
-0.01874529
-0.018725394
-0.018705497
-0.018685601
-0.018665704
-0.018645807
-0.018625911
-0.018606014
-0.018586118
-0.018566221
-0.018546325
-0.018526428
-0.018506532
-0.018486635
-0.018466739
-0.018446842
-0.018426946
-0.018407049
-0.018387153
-0.018367256
-0.018347359
-0.018327463
-0.018307566
-0.01828767
-0.018267773
-0.018247877
-0.01822798
-0.018208084
-0.018188187
-0.018168291
-0.018148394
-0.018128498
-0.018108601
-0.018088705
-0.018068808
-0.018048911
-0.018029015
-0.018009118
-0.017989222
-0.017969325
-0.017949429
-0.017929532
-0.017909636
-0.017889739
-0.017869843
-0.017849946
-0.01783005
-0.017810153
-0.017790257
-0.01777036
-0.017750463
-0.017730567
-0.01771067
-0.017690774
-0.017670877
-0.017650981
-0.017631084
-0.017611188
-0.017591291
-0.017571395
-0.017551498
-0.017531602
-0.017511705
-0.017491809
-0.017471912
-0.017452016
-0.017432119
-0.017412222
-0.017392326
-0.017372429
-0.017352533
-0.017332636
-0.01731274
-0.017292843
-0.017272947
-0.01725305
-0.017233154
-0.017213257
-0.017193361
-0.017173464
-0.017153568
-0.017133671
-0.017113774
-0.017093878
-0.017073981
-0.017054085
-0.017034188
-0.017014292
-0.016994395
-0.016974499
-0.016954602
-0.016934706
-0.016914809
-0.016894913
-0.016875016
-0.01685512
-0.016835223
-0.016815326
-0.01679543
-0.016775533
-0.016755637
-0.01673574
-0.016715844
-0.016695947
-0.016676051
-0.016656154
-0.016636258
-0.016616361
-0.016596465
-0.016576568
-0.016556672
-0.016536775
-0.016516878
-0.016496982
-0.016477085
-0.016457189
-0.016437292
-0.016417396
-0.016397499
-0.016377603
-0.016357706
-0.01633781
-0.016317913
-0.016298017
-0.01627812
-0.016258224
-0.016238327
-0.01621843
-0.016198534
-0.016178637
-0.016158741
-0.016138844
-0.016118948
-0.016099051
-0.016079155
-0.016059258
-0.016039362
-0.016019465
-0.015999569
-0.015979672
-0.015959776
-0.015939879
-0.015919982
-0.015900086
-0.015880189
-0.015860293
-0.015840396
-0.0158205
-0.015800603
-0.015780707
-0.01576081
-0.015740914
-0.015721017
-0.015701121
-0.015681224
-0.015661328
-0.015641431
-0.015621534
-0.015601638
-0.015581741
-0.015561845
-0.015541948
-0.015522052
-0.015502155
-0.015482259
-0.015462362
-0.015442466
-0.015422569
-0.015402673
-0.015382776
-0.01536288
-0.015342983
-0.015323086
-0.01530319
-0.015283293
-0.015263397
-0.0152435
-0.015223604
-0.015203707
-0.015183811
-0.015163914
-0.015144018
-0.015124121
-0.015104225
-0.015084328
-0.015064432
-0.015044535
-0.015024638
-0.015004742
-0.014984845
-0.014964949
-0.014945052
-0.014925156
-0.014905259
-0.014885363
-0.014865466
-0.01484557
-0.014825673
-0.014805777
-0.01478588
-0.014765984
-0.014746087
-0.01472619
-0.014706294
-0.014686397
-0.014666501
-0.014646604
-0.014626708
-0.014606811
-0.014586915
-0.014567018
-0.014547122
-0.014527225
-0.014507329
-0.014487432
-0.014467536
-0.014447639
-0.014427742
-0.014407846
-0.014387949
-0.014368053
-0.014348156
-0.01432826
-0.014308363
-0.014288467
-0.01426857
-0.014248674
-0.014228777
-0.014208881
-0.014188984
-0.014169088
-0.014149191
-0.014129294
-0.014109398
-0.014089501
-0.014069605
-0.014049708
-0.014029812
-0.014009915
-0.013990019
-0.013970122
-0.013950226
-0.013930329
-0.013910433
-0.013890536
-0.01387064
-0.013850743
-0.013830846
-0.01381095
-0.013791053
-0.013771157
-0.01375126
-0.013731364
-0.013711467
-0.013691571
-0.013671674
-0.013651778
-0.013631881
-0.013611985
-0.013592088
-0.013572192
-0.013552295
-0.013532398
-0.013512502
-0.013492605
-0.013472709
-0.013452812
-0.013432916
-0.013413019
-0.013393123
-0.013373226
-0.01335333
-0.013333433
-0.013313537
-0.01329364
-0.013273744
-0.013253847
-0.01323395
-0.013214054
-0.013194157
-0.013174261
-0.013154364
-0.013134468
-0.013114571
-0.013094675
-0.013074778
-0.013054882
-0.013034985
-0.013015089
-0.012995192
-0.012975296
-0.012955399
-0.012935502
-0.012915606
-0.012895709
-0.012875813
-0.012855916
-0.01283602
-0.012816123
-0.012796227
-0.01277633
-0.012756434
-0.012736537
-0.012716641
-0.012696744
-0.012676848
-0.012656951
-0.012637054
-0.012617158
-0.012597261
-0.012577365
-0.012557468
-0.012537572
-0.012517675
-0.012497779
-0.012477882
-0.012457986
-0.012438089
-0.012418193
-0.012398296
-0.0123784
-0.012358503
-0.012338606
-0.01231871
-0.012298813
-0.012278917
-0.01225902
-0.012239124
-0.012219227
-0.012199331
-0.012179434
-0.012159538
-0.012139641
-0.012119745
-0.012099848
-0.012079952
-0.012060055
-0.012040158
-0.012020262
-0.012000365
-0.011980469
-0.011960572
-0.011940676
-0.011920779
-0.011900883
-0.011880986
-0.01186109
-0.011841193
-0.011821297
-0.0118014
-0.011781504
-0.011761607
-0.01174171
-0.011721814
-0.011701917
-0.011682021
-0.011662124
-0.011642228
-0.011622331
-0.011602435
-0.011582538
-0.011562642
-0.011542745
-0.011522849
-0.011502952
-0.011483056
-0.011463159
-0.011443262
-0.011423366
-0.011403469
-0.011383573
-0.011363676
-0.01134378
-0.011323883
-0.011303987
-0.01128409
-0.011264194
-0.011244297
-0.011224401
-0.011204504
-0.011184608
-0.011164711
-0.011144814
-0.011124918
-0.011105021
-0.011085125
-0.011065228
-0.011045332
-0.011025435
-0.011005539
-0.010985642
-0.010965746
-0.010945849
-0.010925953
-0.010906056
-0.01088616
-0.010866263
-0.010846366
-0.01082647
-0.010806573
-0.010786677
-0.01076678
-0.010746884
-0.010726987
-0.010707091
-0.010687194
-0.010667298
-0.010647401
-0.010627505
-0.010607608
-0.010587712
-0.010567815
-0.010547918
-0.010528022
-0.010508125
-0.010488229
-0.010468332
-0.010448436
-0.010428539
-0.010408643
-0.010388746
-0.01036885
-0.010348953
-0.010329057
-0.01030916
-0.010289264
-0.010269367
-0.01024947
-0.010229574
-0.010209677
-0.010189781
-0.010169884
-0.010149988
-0.010130091
-0.010110195
-0.010090298
-0.010070402
-0.010050505
-0.010030609
-0.010010712
-0.009990816
-0.009970919
-0.009951022
-0.009931126
-0.009911229
-0.009891333
-0.009871436
-0.00985154
-0.009831643
-0.009811747
-0.00979185
-0.009771954
-0.009752057
-0.009732161
-0.009712264
-0.009692368
-0.009672471
-0.009652574
-0.009632678
-0.009612781
-0.009592885
-0.009572988
-0.009553092
-0.009533195
-0.009513299
-0.009493402
-0.009473506
-0.009453609
-0.009433713
-0.009413816
-0.00939392
-0.009374023
-0.009354126
-0.00933423
-0.009314333
-0.009294437
-0.00927454
-0.009254644
-0.009234747
-0.009214851
-0.009194954
-0.009175058
-0.009155161
-0.009135265
-0.009115368
-0.009095472
-0.009075575
-0.009055678
-0.009035782
-0.009015885
-0.008995989
-0.008976092
-0.008956196
-0.008936299
-0.008916403
-0.008896506
-0.00887661
-0.008856713
-0.008836817
-0.00881692
-0.008797024
-0.008777127
-0.00875723
-0.008737334
-0.008717437
-0.008697541
-0.008677644
-0.008657748
-0.008637851
-0.008617955
-0.008598058
-0.008578162
-0.008558265
-0.008538369
-0.008518472
-0.008498576
-0.008478679
-0.008458782
-0.008438886
-0.008418989
-0.008399093
-0.008379196
-0.0083593
-0.008339403
-0.008319507
-0.00829961
-0.008279714
-0.008259817
-0.008239921
-0.008220024
-0.008200128
-0.008180231
-0.008160334
-0.008140438
-0.008120541
-0.008100645
-0.008080748
-0.008060852
-0.008040955
-0.008021059
-0.008001162
-0.007981266
-0.007961369
-0.007941473
-0.007921576
-0.00790168
-0.007881783
-0.007861886
-0.00784199
-0.007822093
-0.007802197
-0.0077823
-0.007762404
-0.007742507
-0.007722611
-0.007702714
-0.007682818
-0.007662921
-0.007643025
-0.007623128
-0.007603232
-0.007583335
-0.007563438
-0.007543542
-0.007523645
-0.007503749
-0.007483852
-0.007463956
-0.007444059
-0.007424163
-0.007404266
-0.00738437
-0.007364473
-0.007344577
-0.00732468
-0.007304784
-0.007284887
-0.00726499
-0.007245094
-0.007225197
-0.007205301
-0.007185404
-0.007165508
-0.007145611
-0.007125715
-0.007105818
-0.007085922
-0.007066025
-0.007046129
-0.007026232
-0.007006336
-0.006986439
-0.006966542
-0.006946646
-0.006926749
-0.006906853
-0.006886956
-0.00686706
-0.006847163
-0.006827267
-0.00680737
-0.006787474
-0.006767577
-0.006747681
-0.006727784
-0.006707888
-0.006687991
-0.006668094
-0.006648198
-0.006628301
-0.006608405
-0.006588508
-0.006568612
-0.006548715
-0.006528819
-0.006508922
-0.006489026
-0.006469129
-0.006449233
-0.006429336
-0.00640944
-0.006389543
-0.006369646
-0.00634975
-0.006329853
-0.006309957
-0.00629006
-0.006270164
-0.006250267
-0.006230371
-0.006210474
-0.006190578
-0.006170681
-0.006150785
-0.006130888
-0.006110992
-0.006091095
-0.006071198
-0.006051302
-0.006031405
-0.006011509
-0.005991612
-0.005971716
-0.005951819
-0.005931923
-0.005912026
-0.00589213
-0.005872233
-0.005852337
-0.00583244
-0.005812544
-0.005792647
-0.00577275
-0.005752854
-0.005732957
-0.005713061
-0.005693164
-0.005673268
-0.005653371
-0.005633475
-0.005613578
-0.005593682
-0.005573785
-0.005553889
-0.005533992
-0.005514096
-0.005494199
-0.005474302
-0.005454406
-0.005434509
-0.005414613
-0.005394716
-0.00537482
-0.005354923
-0.005335027
-0.00531513
-0.005295234
-0.005275337
-0.005255441
-0.005235544
-0.005215648
-0.005195751
-0.005175854
-0.005155958
-0.005136061
-0.005116165
-0.005096268
-0.005076372
-0.005056475
-0.005036579
-0.005016682
-0.004996786
-0.004976889
-0.004956993
-0.004937096
-0.0049172
-0.004897303
-0.004877406
-0.00485751
-0.004837613
-0.004817717
-0.00479782
-0.004777924
-0.004758027
-0.004738131
-0.004718234
-0.004698338
-0.004678441
-0.004658545
-0.004638648
-0.004618752
-0.004598855
-0.004578958
-0.004559062
-0.004539165
-0.004519269
-0.004499372
-0.004479476
-0.004459579
-0.004439683
-0.004419786
-0.00439989
-0.004379993
-0.004360097
-0.0043402
-0.004320304
-0.004300407
-0.00428051
-0.004260614
-0.004240717
-0.004220821
-0.004200924
-0.004181028
-0.004161131
-0.004141235
-0.004121338
-0.004101442
-0.004081545
-0.004061649
-0.004041752
-0.004021856
-0.004001959
-0.003982062
-0.003962166
-0.003942269
-0.003922373
-0.003902476
-0.00388258
-0.003862683
-0.003842787
-0.00382289
-0.003802994
-0.003783097
-0.003763201
-0.003743304
-0.003723408
-0.003703511
-0.003683614
-0.003663718
-0.003643821
-0.003623925
-0.003604028
-0.003584132
-0.003564235
-0.003544339
-0.003524442
-0.003504546
-0.003484649
-0.003464753
-0.003444856
-0.00342496
-0.003405063
-0.003385166
-0.00336527
-0.003345373
-0.003325477
-0.00330558
-0.003285684
-0.003265787
-0.003245891
-0.003225994
-0.003206098
-0.003186201
-0.003166305
-0.003146408
-0.003126512
-0.003106615
-0.003086718
-0.003066822
-0.003046925
-0.003027029
-0.003007132
-0.002987236
-0.002967339
-0.002947443
-0.002927546
-0.00290765
-0.002887753
-0.002867857
-0.00284796
-0.002828064
-0.002808167
-0.00278827
-0.002768374
-0.002748477
-0.002728581
-0.002708684
-0.002688788
-0.002668891
-0.002648995
-0.002629098
-0.002609202
-0.002589305
-0.002569409
-0.002549512
-0.002529616
-0.002509719
-0.002489822
-0.002469926
-0.002450029
-0.002430133
-0.002410236
-0.00239034
-0.002370443
-0.002350547
-0.00233065
-0.002310754
-0.002290857
-0.002270961
-0.002251064
-0.002231168
-0.002211271
-0.002191374
-0.002171478
-0.002151581
-0.002131685
-0.002111788
-0.002091892
-0.002071995
-0.002052099
-0.002032202
-0.002012306
-0.001992409
-0.001972513
-0.001952616
-0.00193272
-0.001912823
-0.001892926
-0.00187303
-0.001853133
-0.001833237
-0.00181334
-0.001793444
-0.001773547
-0.001753651
-0.001733754
-0.001713858
-0.001693961
-0.001674065
-0.001654168
-0.001634272
-0.001614375
-0.001594478
-0.001574582
-0.001554685
-0.001534789
-0.001514892
-0.001494996
-0.001475099
-0.001455203
-0.001435306
-0.00141541
-0.001395513
-0.001375617
-0.00135572
-0.001335824
-0.001315927
-0.00129603
-0.001276134
-0.001256237
-0.001236341
-0.001216444
-0.001196548
-0.001176651
-0.001156755
-0.001136858
-0.001116962
-0.001097065
-0.001077169
-0.001057272
-0.001037376
-0.001017479
-0.000997582
-0.000977686
-0.000957789
-0.000937893
-0.000917996
-0.0008981
-0.000878203
-0.000858307
-0.00083841
-0.000818514
-0.000798617
-0.000778721
-0.000758824
-0.000738928
-0.000719031
-0.000699135
-0.000679238
-0.000659341
-0.000639445
-0.000619548
-0.000599652
-0.000579755
-0.000559859
-0.000539962
-0.000520066
-0.000500169
-0.000480273
-0.000460376
-0.00044048
-0.000420583
-0.000400687
-0.00038079
-0.000360893
-0.000340997
-0.0003211
-0.000301204
-0.000281307
-0.000261411
-0.000241514
-0.000221618
-0.000201721
-0.000181825
-0.000161928
-0.000142032
-0.000122135
-0.000102239
-8.2342e-05
-6.2445e-05
-4.2549e-05
-2.2652e-05
-2.756e-06
1.7141e-05
3.7037e-05
5.6934e-05
7.683e-05
9.6727e-05
0.000116623
0.00013652
0.000156416
0.000176313
0.000196209
0.000216106
0.000236003
0.000255899
0.000275796
0.000295692
0.000315589
0.000335485
0.000355382
0.000375278
0.000395175
0.000415071
0.000434968
0.000454864
0.000474761
0.000494657
0.000514554
0.000534451
0.000554347
0.000574244
0.00059414
0.000614037
0.000633933
0.00065383
0.000673726
0.000693623
0.000713519
0.000733416
0.000753312
0.000773209
0.000793105
0.000813002
0.000832899
0.000852795
0.000872692
0.000892588
0.000912485
0.000932381
0.000952278
0.000972174
0.000992071
0.001011967
0.001031864
0.00105176
0.001071657
0.001091553
0.00111145
0.001131347
0.001151243
0.00117114
0.001191036
0.001210933
0.001230829
0.001250726
0.001270622
0.001290519
0.001310415
0.001330312
0.001350208
0.001370105
0.001390001
0.001409898
0.001429795
0.001449691
0.001469588
0.001489484
0.001509381
0.001529277
0.001549174
0.00156907
0.001588967
0.001608863
0.00162876
0.001648656
0.001668553
0.001688449
0.001708346
0.001728243
0.001748139
0.001768036
0.001787932
0.001807829
0.001827725
0.001847622
0.001867518
0.001887415
0.001907311
0.001927208
0.001947104
0.001967001
0.001986897
0.002006794
0.002026691
0.002046587
0.002066484
0.00208638
0.002106277
0.002126173
0.00214607
0.002165966
0.002185863
0.002205759
0.002225656
0.002245552
0.002265449
0.002285345
0.002305242
0.002325139
0.002345035
0.002364932
0.002384828
0.002404725
0.002424621
0.002444518
0.002464414
0.002484311
0.002504207
0.002524104
0.002544
0.002563897
0.002583793
0.00260369
0.002623587
0.002643483
0.00266338
0.002683276
0.002703173
0.002723069
0.002742966
0.002762862
0.002782759
0.002802655
0.002822552
0.002842448
0.002862345
0.002882241
0.002902138
0.002922035
0.002941931
0.002961828
0.002981724
0.003001621
0.003021517
0.003041414
0.00306131
0.003081207
0.003101103
0.003121
0.003140896
0.003160793
0.003180689
0.003200586
0.003220483
0.003240379
0.003260276
0.003280172
0.003300069
0.003319965
0.003339862
0.003359758
0.003379655
0.003399551
0.003419448
0.003439344
0.003459241
0.003479137
0.003499034
0.003518931
0.003538827
0.003558724
0.00357862
0.003598517
0.003618413
0.00363831
0.003658206
0.003678103
0.003697999
0.003717896
0.003737792
0.003757689
0.003777585
0.003797482
0.003817379
0.003837275
0.003857172
0.003877068
0.003896965
0.003916861
0.003936758
0.003956654
0.003976551
0.003996447
0.004016344
0.00403624
0.004056137
0.004076033
0.00409593
0.004115827
0.004135723
0.00415562
0.004175516
0.004195413
0.004215309
0.004235206
0.004255102
0.004274999
0.004294895
0.004314792
0.004334688
0.004354585
0.004374481
0.004394378
0.004414275
0.004434171
0.004454068
0.004473964
0.004493861
0.004513757
0.004533654
0.00455355
0.004573447
0.004593343
0.00461324
0.004633136
0.004653033
0.004672929
0.004692826
0.004712723
0.004732619
0.004752516
0.004772412
0.004792309
0.004812205
0.004832102
0.004851998
0.004871895
0.004891791
0.004911688
0.004931584
0.004951481
0.004971377
0.004991274
0.005011176
0.005031113
0.005051088
0.0050711
0.00509115
0.005111239
0.005131365
0.00515153
0.005171733
0.005191974
0.005212254
0.005232572
0.005252929
0.005273324
0.005293758
0.005314231
0.005334743
0.005355294
0.005375883
0.005396512
0.00541718
0.005437887
0.005458634
0.005479419
0.005500245
0.005521109
0.005542014
0.005562958
0.005583942
0.005604965
0.005626029
0.005647132
0.005668276
0.005689459
0.005710683
0.005731947
0.005753252
0.005774597
0.005795982
0.005817408
0.005838875
0.005860382
0.00588193
0.005903519
0.00592515
0.005946821
0.005968533
0.005990286
0.006012081
0.006033917
0.006055795
0.006077714
0.006099675
0.006121677
0.006143721
0.006165807
0.006187935
0.006210105
0.006232317
0.006254571
0.006276867
0.006299206
0.006321587
0.00634401
0.006366476
0.006388985
0.006411536
0.00643413
0.006456767
0.006479447
0.00650217
0.006524937
0.006547746
0.006570599
0.006593495
0.006616434
0.006639417
0.006662444
0.006685514
0.006708628
0.006731786
0.006754988
0.006778234
0.006801525
0.006824859
0.006848237
0.00687166
0.006895128
0.00691864
0.006942196
0.006965797
0.006989444
0.007013134
0.00703687
0.007060651
0.007084477
0.007108349
0.007132265
0.007156227
0.007180235
0.007204288
0.007228386
0.007252531
0.007276721
0.007300957
0.007325239
0.007349567
0.007373942
0.007398362
0.007422829
0.007447343
0.007471903
0.007496509
0.007521162
0.007545862
0.007570609
0.007595403
0.007620244
0.007645132
0.007670067
0.00769505
0.00772008
0.007745157
0.007770282
0.007795455
0.007820676
0.007845944
0.007871261
0.007896625
0.007922038
0.007947498
0.007973007
0.007998565
0.008024171
0.008049826
0.008075529
0.008101281
0.008127082
0.008152932
0.008178831
0.008204779
0.008230776
0.008256823
0.008282919
0.008309065
0.00833526
0.008361505
0.0083878
0.008414145
0.008440539
0.008466984
0.008493479
0.008520024
0.00854662
0.008573266
0.008599963
0.00862671
0.008653508
0.008680357
0.008707257
0.008734208
0.00876121
0.008788263
0.008815368
0.008842524
0.008869732
0.008896991
0.008924302
