OpenDRT_v1.0-2.0_full-config_v2/transfer_functions/oetf_arri_logc4_to_linear.spi1d
Version 1
From -0.15 1.2
Length 8192
Components 1
{
-0.035096577
-0.035077855
-0.035059132
-0.03504041
-0.035021687
-0.035002965
-0.034984242
-0.03496552
-0.034946797
-0.034928075
-0.034909352
-0.03489063
-0.034871907
-0.034853185
-0.034834462
-0.034815739
-0.034797017
-0.034778294
-0.034759572
-0.034740849
-0.034722127
-0.034703404
-0.034684682
-0.034665959
-0.034647237
-0.034628514
-0.034609792
-0.034591069
-0.034572347
-0.034553624
-0.034534902
-0.034516179
-0.034497456
-0.034478734
-0.034460011
-0.034441289
-0.034422566
-0.034403844
-0.034385121
-0.034366399
-0.034347676
-0.034328954
-0.034310231
-0.034291509
-0.034272786
-0.034254064
-0.034235341
-0.034216619
-0.034197896
-0.034179174
-0.034160451
-0.034141728
-0.034123006
-0.034104283
-0.034085561
-0.034066838
-0.034048116
-0.034029393
-0.034010671
-0.033991948
-0.033973226
-0.033954503
-0.033935781
-0.033917058
-0.033898336
-0.033879613
-0.033860891
-0.033842168
-0.033823445
-0.033804723
-0.033786
-0.033767278
-0.033748555
-0.033729833
-0.03371111
-0.033692388
-0.033673665
-0.033654943
-0.03363622
-0.033617498
-0.033598775
-0.033580053
-0.03356133
-0.033542608
-0.033523885
-0.033505162
-0.03348644
-0.033467717
-0.033448995
-0.033430272
-0.03341155
-0.033392827
-0.033374105
-0.033355382
-0.03333666
-0.033317937
-0.033299215
-0.033280492
-0.03326177
-0.033243047
-0.033224325
-0.033205602
-0.033186879
-0.033168157
-0.033149434
-0.033130712
-0.033111989
-0.033093267
-0.033074544
-0.033055822
-0.033037099
-0.033018377
-0.032999654
-0.032980932
-0.032962209
-0.032943487
-0.032924764
-0.032906042
-0.032887319
-0.032868597
-0.032849874
-0.032831151
-0.032812429
-0.032793706
-0.032774984
-0.032756261
-0.032737539
-0.032718816
-0.032700094
-0.032681371
-0.032662649
-0.032643926
-0.032625204
-0.032606481
-0.032587759
-0.032569036
-0.032550314
-0.032531591
-0.032512868
-0.032494146
-0.032475423
-0.032456701
-0.032437978
-0.032419256
-0.032400533
-0.032381811
-0.032363088
-0.032344366
-0.032325643
-0.032306921
-0.032288198
-0.032269476
-0.032250753
-0.032232031
-0.032213308
-0.032194585
-0.032175863
-0.03215714
-0.032138418
-0.032119695
-0.032100973
-0.03208225
-0.032063528
-0.032044805
-0.032026083
-0.03200736
-0.031988638
-0.031969915
-0.031951193
-0.03193247
-0.031913748
-0.031895025
-0.031876302
-0.03185758
-0.031838857
-0.031820135
-0.031801412
-0.03178269
-0.031763967
-0.031745245
-0.031726522
-0.0317078
-0.031689077
-0.031670355
-0.031651632
-0.03163291
-0.031614187
-0.031595465
-0.031576742
-0.03155802
-0.031539297
-0.031520574
-0.031501852
-0.031483129
-0.031464407
-0.031445684
-0.031426962
-0.031408239
-0.031389517
-0.031370794
-0.031352072
-0.031333349
-0.031314627
-0.031295904
-0.031277182
-0.031258459
-0.031239737
-0.031221014
-0.031202291
-0.031183569
-0.031164846
-0.031146124
-0.031127401
-0.031108679
-0.031089956
-0.031071234
-0.031052511
-0.031033789
-0.031015066
-0.030996344
-0.030977621
-0.030958899
-0.030940176
-0.030921454
-0.030902731
-0.030884008
-0.030865286
-0.030846563
-0.030827841
-0.030809118
-0.030790396
-0.030771673
-0.030752951
-0.030734228
-0.030715506
-0.030696783
-0.030678061
-0.030659338
-0.030640616
-0.030621893
-0.030603171
-0.030584448
-0.030565725
-0.030547003
-0.03052828
-0.030509558
-0.030490835
-0.030472113
-0.03045339
-0.030434668
-0.030415945
-0.030397223
-0.0303785
-0.030359778
-0.030341055
-0.030322333
-0.03030361
-0.030284888
-0.030266165
-0.030247443
-0.03022872
-0.030209997
-0.030191275
-0.030172552
-0.03015383
-0.030135107
-0.030116385
-0.030097662
-0.03007894
-0.030060217
-0.030041495
-0.030022772
-0.03000405
-0.029985327
-0.029966605
-0.029947882
-0.02992916
-0.029910437
-0.029891714
-0.029872992
-0.029854269
-0.029835547
-0.029816824
-0.029798102
-0.029779379
-0.029760657
-0.029741934
-0.029723212
-0.029704489
-0.029685767
-0.029667044
-0.029648322
-0.029629599
-0.029610877
-0.029592154
-0.029573431
-0.029554709
-0.029535986
-0.029517264
-0.029498541
-0.029479819
-0.029461096
-0.029442374
-0.029423651
-0.029404929
-0.029386206
-0.029367484
-0.029348761
-0.029330039
-0.029311316
-0.029292594
-0.029273871
-0.029255148
-0.029236426
-0.029217703
-0.029198981
-0.029180258
-0.029161536
-0.029142813
-0.029124091
-0.029105368
-0.029086646
-0.029067923
-0.029049201
-0.029030478
-0.029011756
-0.028993033
-0.028974311
-0.028955588
-0.028936866
-0.028918143
-0.02889942
-0.028880698
-0.028861975
-0.028843253
-0.02882453
-0.028805808
-0.028787085
-0.028768363
-0.02874964
-0.028730918
-0.028712195
-0.028693473
-0.02867475
-0.028656028
-0.028637305
-0.028618583
-0.02859986
-0.028581137
-0.028562415
-0.028543692
-0.02852497
-0.028506247
-0.028487525
-0.028468802
-0.02845008
-0.028431357
-0.028412635
-0.028393912
-0.02837519
-0.028356467
-0.028337745
-0.028319022
-0.0283003
-0.028281577
-0.028262854
-0.028244132
-0.028225409
-0.028206687
-0.028187964
-0.028169242
-0.028150519
-0.028131797
-0.028113074
-0.028094352
-0.028075629
-0.028056907
-0.028038184
-0.028019462
-0.028000739
-0.027982017
-0.027963294
-0.027944571
-0.027925849
-0.027907126
-0.027888404
-0.027869681
-0.027850959
-0.027832236
-0.027813514
-0.027794791
-0.027776069
-0.027757346
-0.027738624
-0.027719901
-0.027701179
-0.027682456
-0.027663734
-0.027645011
-0.027626289
-0.027607566
-0.027588843
-0.027570121
-0.027551398
-0.027532676
-0.027513953
-0.027495231
-0.027476508
-0.027457786
-0.027439063
-0.027420341
-0.027401618
-0.027382896
-0.027364173
-0.027345451
-0.027326728
-0.027308006
-0.027289283
-0.02727056
-0.027251838
-0.027233115
-0.027214393
-0.02719567
-0.027176948
-0.027158225
-0.027139503
-0.02712078
-0.027102058
-0.027083335
-0.027064613
-0.02704589
-0.027027168
-0.027008445
-0.026989723
-0.026971
-0.026952277
-0.026933555
-0.026914832
-0.02689611
-0.026877387
-0.026858665
-0.026839942
-0.02682122
-0.026802497
-0.026783775
-0.026765052
-0.02674633
-0.026727607
-0.026708885
-0.026690162
-0.02667144
-0.026652717
-0.026633994
-0.026615272
-0.026596549
-0.026577827
-0.026559104
-0.026540382
-0.026521659
-0.026502937
-0.026484214
-0.026465492
-0.026446769
-0.026428047
-0.026409324
-0.026390602
-0.026371879
-0.026353157
-0.026334434
-0.026315712
-0.026296989
-0.026278266
-0.026259544
-0.026240821
-0.026222099
-0.026203376
-0.026184654
-0.026165931
-0.026147209
-0.026128486
-0.026109764
-0.026091041
-0.026072319
-0.026053596
-0.026034874
-0.026016151
-0.025997429
-0.025978706
-0.025959983
-0.025941261
-0.025922538
-0.025903816
-0.025885093
-0.025866371
-0.025847648
-0.025828926
-0.025810203
-0.025791481
-0.025772758
-0.025754036
-0.025735313
-0.025716591
-0.025697868
-0.025679146
-0.025660423
-0.0256417
-0.025622978
-0.025604255
-0.025585533
-0.02556681
-0.025548088
-0.025529365
-0.025510643
-0.02549192
-0.025473198
-0.025454475
-0.025435753
-0.02541703
-0.025398308
-0.025379585
-0.025360863
-0.02534214
-0.025323417
-0.025304695
-0.025285972
-0.02526725
-0.025248527
-0.025229805
-0.025211082
-0.02519236
-0.025173637
-0.025154915
-0.025136192
-0.02511747
-0.025098747
-0.025080025
-0.025061302
-0.02504258
-0.025023857
-0.025005135
-0.024986412
-0.024967689
-0.024948967
-0.024930244
-0.024911522
-0.024892799
-0.024874077
-0.024855354
-0.024836632
-0.024817909
-0.024799187
-0.024780464
-0.024761742
-0.024743019
-0.024724297
-0.024705574
-0.024686852
-0.024668129
-0.024649406
-0.024630684
-0.024611961
-0.024593239
-0.024574516
-0.024555794
-0.024537071
-0.024518349
-0.024499626
-0.024480904
-0.024462181
-0.024443459
-0.024424736
-0.024406014
-0.024387291
-0.024368569
-0.024349846
-0.024331123
-0.024312401
-0.024293678
-0.024274956
-0.024256233
-0.024237511
-0.024218788
-0.024200066
-0.024181343
-0.024162621
-0.024143898
-0.024125176
-0.024106453
-0.024087731
-0.024069008
-0.024050286
-0.024031563
-0.02401284
-0.023994118
-0.023975395
-0.023956673
-0.02393795
-0.023919228
-0.023900505
-0.023881783
-0.02386306
-0.023844338
-0.023825615
-0.023806893
-0.02378817
-0.023769448
-0.023750725
-0.023732003
-0.02371328
-0.023694558
-0.023675835
-0.023657112
-0.02363839
-0.023619667
-0.023600945
-0.023582222
-0.0235635
-0.023544777
-0.023526055
-0.023507332
-0.02348861
-0.023469887
-0.023451165
-0.023432442
-0.02341372
-0.023394997
-0.023376275
-0.023357552
-0.023338829
-0.023320107
-0.023301384
-0.023282662
-0.023263939
-0.023245217
-0.023226494
-0.023207772
-0.023189049
-0.023170327
-0.023151604
-0.023132882
-0.023114159
-0.023095437
-0.023076714
-0.023057992
-0.023039269
-0.023020546
-0.023001824
-0.022983101
-0.022964379
-0.022945656
-0.022926934
-0.022908211
-0.022889489
-0.022870766
-0.022852044
-0.022833321
-0.022814599
-0.022795876
-0.022777154
-0.022758431
-0.022739709
-0.022720986
-0.022702263
-0.022683541
-0.022664818
-0.022646096
-0.022627373
-0.022608651
-0.022589928
-0.022571206
-0.022552483
-0.022533761
-0.022515038
-0.022496316
-0.022477593
-0.022458871
-0.022440148
-0.022421426
-0.022402703
-0.022383981
-0.022365258
-0.022346535
-0.022327813
-0.02230909
-0.022290368
-0.022271645
-0.022252923
-0.0222342
-0.022215478
-0.022196755
-0.022178033
-0.02215931
-0.022140588
-0.022121865
-0.022103143
-0.02208442
-0.022065698
-0.022046975
-0.022028252
-0.02200953
-0.021990807
-0.021972085
-0.021953362
-0.02193464
-0.021915917
-0.021897195
-0.021878472
-0.02185975
-0.021841027
-0.021822305
-0.021803582
-0.02178486
-0.021766137
-0.021747415
-0.021728692
-0.021709969
-0.021691247
-0.021672524
-0.021653802
-0.021635079
-0.021616357
-0.021597634
-0.021578912
-0.021560189
-0.021541467
-0.021522744
-0.021504022
-0.021485299
-0.021466577
-0.021447854
-0.021429132
-0.021410409
-0.021391686
-0.021372964
-0.021354241
-0.021335519
-0.021316796
-0.021298074
-0.021279351
-0.021260629
-0.021241906
-0.021223184
-0.021204461
-0.021185739
-0.021167016
-0.021148294
-0.021129571
-0.021110849
-0.021092126
-0.021073404
-0.021054681
-0.021035958
-0.021017236
-0.020998513
-0.020979791
-0.020961068
-0.020942346
-0.020923623
-0.020904901
-0.020886178
-0.020867456
-0.020848733
-0.020830011
-0.020811288
-0.020792566
-0.020773843
-0.020755121
-0.020736398
-0.020717675
-0.020698953
-0.02068023
-0.020661508
-0.020642785
-0.020624063
-0.02060534
-0.020586618
-0.020567895
-0.020549173
-0.02053045
-0.020511728
-0.020493005
-0.020474283
-0.02045556
-0.020436838
-0.020418115
-0.020399392
-0.02038067
-0.020361947
-0.020343225
-0.020324502
-0.02030578
-0.020287057
-0.020268335
-0.020249612
-0.02023089
-0.020212167
-0.020193445
-0.020174722
-0.020156
-0.020137277
-0.020118555
-0.019915354
-0.019899895
-0.019884408
-0.019868893
-0.019853352
-0.019837783
-0.019822186
-0.019806562
-0.01979091
-0.019775231
-0.019759524
-0.019743789
-0.019728027
-0.019712237
-0.019696419
-0.019680573
-0.019664699
-0.019648797
-0.019632867
-0.019616908
-0.019600922
-0.019584908
-0.019568865
-0.019552794
-0.019536694
-0.019520566
-0.01950441
-0.019488225
-0.019472012
-0.01945577
-0.019439499
-0.0194232
-0.019406871
-0.019390514
-0.019374129
-0.019357714
-0.01934127
-0.019324797
-0.019308296
-0.019291765
-0.019275205
-0.019258615
-0.019241997
-0.019225349
-0.019208671
-0.019191965
-0.019175228
-0.019158463
-0.019141667
-0.019124842
-0.019107988
-0.019091103
-0.019074189
-0.019057245
-0.019040271
-0.019023267
-0.019006233
-0.018989169
-0.018972075
-0.018954951
-0.018937797
-0.018920612
-0.018903397
-0.018886151
-0.018868876
-0.018851569
-0.018834232
-0.018816865
-0.018799467
-0.018782038
-0.018764578
-0.018747088
-0.018729567
-0.018712014
-0.018694431
-0.018676817
-0.018659172
-0.018641495
-0.018623788
-0.018606049
-0.018588279
-0.018570477
-0.018552644
-0.01853478
-0.018516884
-0.018498957
-0.018480997
-0.018463007
-0.018444984
-0.01842693
-0.018408843
-0.018390725
-0.018372575
-0.018354393
-0.018336179
-0.018317932
-0.018299654
-0.018281343
-0.018263
-0.018244624
-0.018226216
-0.018207776
-0.018189303
-0.018170797
-0.018152259
-0.018133688
-0.018115085
-0.018096448
-0.018077779
-0.018059076
-0.018040341
-0.018021572
-0.018002771
-0.017983936
-0.017965068
-0.017946167
-0.017927232
-0.017908264
-0.017889263
-0.017870228
-0.017851159
-0.017832057
-0.017812921
-0.017793751
-0.017774547
-0.01775531
-0.017736039
-0.017716733
-0.017697394
-0.01767802
-0.017658612
-0.01763917
-0.017619694
-0.017600183
-0.017580638
-0.017561058
-0.017541444
-0.017521795
-0.017502112
-0.017482394
-0.017462641
-0.017442853
-0.01742303
-0.017403172
-0.017383279
-0.017363351
-0.017343388
-0.01732339
-0.017303356
-0.017283287
-0.017263183
-0.017243043
-0.017222868
-0.017202657
-0.01718241
-0.017162128
-0.017141809
-0.017121455
-0.017101065
-0.01708064
-0.017060178
-0.017039679
-0.017019145
-0.016998575
-0.016977968
-0.016957325
-0.016936645
-0.016915929
-0.016895176
-0.016874387
-0.016853561
-0.016832699
-0.016811799
-0.016790863
-0.016769889
-0.016748879
-0.016727832
-0.016706747
-0.016685625
-0.016664466
-0.01664327
-0.016622036
-0.016600765
-0.016579456
-0.01655811
-0.016536725
-0.016515304
-0.016493844
-0.016472347
-0.016450811
-0.016429238
-0.016407626
-0.016385977
-0.016364289
-0.016342563
-0.016320798
-0.016298995
-0.016277154
-0.016255274
-0.016233356
-0.016211399
-0.016189403
-0.016167368
-0.016145294
-0.016123182
-0.01610103
-0.01607884
-0.01605661
-0.016034341
-0.016012033
-0.015989685
-0.015967298
-0.015944871
-0.015922405
-0.015899899
-0.015877353
-0.015854768
-0.015832143
-0.015809478
-0.015786772
-0.015764027
-0.015741242
-0.015718416
-0.01569555
-0.015672644
-0.015649698
-0.015626711
-0.015603683
-0.015580615
-0.015557506
-0.015534356
-0.015511165
-0.015487934
-0.015464661
-0.015441347
-0.015417993
-0.015394597
-0.015371159
-0.015347681
-0.015324161
-0.015300599
-0.015276996
-0.015253351
-0.015229665
-0.015205936
-0.015182166
-0.015158354
-0.0151345
-0.015110604
-0.015086665
-0.015062684
-0.015038661
-0.015014596
-0.014990488
-0.014966338
-0.014942145
-0.014917909
-0.014893631
-0.014869309
-0.014844945
-0.014820538
-0.014796088
-0.014771594
-0.014747058
-0.014722478
-0.014697854
-0.014673188
-0.014648477
-0.014623723
-0.014598926
-0.014574084
-0.014549199
-0.01452427
-0.014499297
-0.01447428
-0.014449218
-0.014424113
-0.014398963
-0.014373769
-0.01434853
-0.014323247
-0.014297919
-0.014272547
-0.014247129
-0.014221667
-0.01419616
-0.014170608
-0.014145011
-0.014119368
-0.014093681
-0.014067948
-0.014042169
-0.014016346
-0.013990476
-0.013964561
-0.0139386
-0.013912594
-0.013886541
-0.013860443
-0.013834298
-0.013808107
-0.013781871
-0.013755587
-0.013729258
-0.013702882
-0.013676459
-0.01364999
-0.013623474
-0.013596911
-0.013570302
-0.013543645
-0.013516942
-0.013490191
-0.013463393
-0.013436548
-0.013409655
-0.013382715
-0.013355728
-0.013328693
-0.01330161
-0.013274479
-0.013247301
-0.013220074
-0.013192799
-0.013165477
-0.013138106
-0.013110687
-0.013083219
-0.013055703
-0.013028138
-0.013000525
-0.012972863
-0.012945152
-0.012917393
-0.012889584
-0.012861726
-0.012833819
-0.012805863
-0.012777858
-0.012749803
-0.012721698
-0.012693544
-0.01266534
-0.012637087
-0.012608784
-0.01258043
-0.012552027
-0.012523574
-0.01249507
-0.012466516
-0.012437912
-0.012409257
-0.012380551
-0.012351795
-0.012322989
-0.012294131
-0.012265222
-0.012236263
-0.012207252
-0.01217819
-0.012149077
-0.012119913
-0.012090697
-0.012061429
-0.01203211
-0.012002739
-0.011973316
-0.011943842
-0.011914315
-0.011884736
-0.011855105
-0.011825422
-0.011795686
-0.011765898
-0.011736058
-0.011706164
-0.011676218
-0.011646219
-0.011616167
-0.011586062
-0.011555904
-0.011525693
-0.011495429
-0.011465111
-0.011434739
-0.011404314
-0.011373835
-0.011343303
-0.011312716
-0.011282076
-0.011251381
-0.011220633
-0.01118983
-0.011158973
-0.011128061
-0.011097095
-0.011066074
-0.011034998
-0.011003868
-0.010972682
-0.010941442
-0.010910146
-0.010878795
-0.010847389
-0.010815928
-0.010784411
-0.010752838
-0.01072121
-0.010689525
-0.010657785
-0.010625989
-0.010594137
-0.010562229
-0.010530264
-0.010498243
-0.010466165
-0.010434031
-0.01040184
-0.010369592
-0.010337287
-0.010304925
-0.010272507
-0.010240031
-0.010207497
-0.010174907
-0.010142258
-0.010109552
-0.010076789
-0.010043968
-0.010011088
-0.009978151
-0.009945155
-0.009912102
-0.00987899
-0.009845819
-0.00981259
-0.009779303
-0.009745956
-0.009712551
-0.009679087
-0.009645564
-0.009611981
-0.00957834
-0.009544639
-0.009510878
-0.009477058
-0.009443179
-0.009409239
-0.00937524
-0.00934118
-0.009307061
-0.009272881
-0.009238641
-0.009204341
-0.00916998
-0.009135558
-0.009101076
-0.009066533
-0.009031929
-0.008997263
-0.008962537
-0.008927749
-0.0088929
-0.00885799
-0.008823017
-0.008787984
-0.008752888
-0.00871773
-0.008682511
-0.008647229
-0.008611885
-0.008576478
-0.008541009
-0.008505478
-0.008469884
-0.008434227
-0.008398507
-0.008362724
-0.008326877
-0.008290968
-0.008254995
-0.008218959
-0.008182859
-0.008146696
-0.008110468
-0.008074177
-0.008037822
-0.008001402
-0.007964919
-0.00792837
-0.007891758
-0.007855081
-0.007818339
-0.007781532
-0.00774466
-0.007707723
-0.007670721
-0.007633654
-0.007596521
-0.007559323
-0.007522059
-0.00748473
-0.007447334
-0.007409873
-0.007372345
-0.007334751
-0.007297091
-0.007259365
-0.007221571
-0.007183711
-0.007145785
-0.007107791
-0.007069731
-0.007031603
-0.006993408
-0.006955145
-0.006916815
-0.006878417
-0.006839952
-0.006801419
-0.006762817
-0.006724148
-0.00668541
-0.006646604
-0.00660773
-0.006568787
-0.006529775
-0.006490694
-0.006451545
-0.006412326
-0.006373038
-0.006333681
-0.006294254
-0.006254758
-0.006215192
-0.006175556
-0.00613585
-0.006096074
-0.006056228
-0.006016312
-0.005976325
-0.005936268
-0.00589614
-0.005855941
-0.005815671
-0.005775331
-0.005734919
-0.005694435
-0.005653881
-0.005613254
-0.005572556
-0.005531786
-0.005490945
-0.005450031
-0.005409045
-0.005367986
-0.005326856
-0.005285652
-0.005244376
-0.005203027
-0.005161605
-0.00512011
-0.005078542
-0.0050369
-0.004995185
-0.004953397
-0.004911534
-0.004869598
-0.004827587
-0.004785503
-0.004743344
-0.004701111
-0.004658804
-0.004616421
-0.004573964
-0.004531432
-0.004488825
-0.004446143
-0.004403385
-0.004360552
-0.004317644
-0.004274659
-0.004231599
-0.004188463
-0.004145251
-0.004101962
-0.004058597
-0.004015156
-0.003971638
-0.003928043
-0.003884371
-0.003840622
-0.003796796
-0.003752893
-0.003708912
-0.003664853
-0.003620717
-0.003576503
-0.003532211
-0.00348784
-0.003443392
-0.003398864
-0.003354259
-0.003309574
-0.003264811
-0.003219969
-0.003175048
-0.003130047
-0.003084967
-0.003039807
-0.002994568
-0.002949249
-0.00290385
-0.002858371
-0.002812811
-0.002767172
-0.002721451
-0.00267565
-0.002629768
-0.002583805
-0.002537761
-0.002491636
-0.00244543
-0.002399141
-0.002352772
-0.00230632
-0.002259786
-0.002213171
-0.002166473
-0.002119692
-0.002072829
-0.002025884
-0.001978855
-0.001931744
-0.001884549
-0.001837271
-0.00178991
-0.001742465
-0.001694936
-0.001647324
-0.001599627
-0.001551846
-0.001503981
-0.001456032
-0.001407998
-0.001359879
-0.001311675
-0.001263386
-0.001215012
-0.001166553
-0.001118008
-0.001069377
-0.001020661
-0.000971859
-0.00092297
-0.000873995
-0.000824934
-0.000775786
-0.000726552
-0.000677231
-0.000627822
-0.000578327
-0.000528744
-0.000479073
-0.000429315
-0.000379469
-0.000329535
-0.000279513
-0.000229403
-0.000179204
-0.000128917
-7.8541e-05
-2.8076e-05
2.2478e-05
7.3121e-05
0.000123853
0.000174675
0.000225587
0.000276589
0.00032768
0.000378862
0.000430134
0.000481497
0.00053295
0.000584494
0.000636129
0.000687855
0.000739672
0.000791581
0.000843581
0.000895673
0.000947857
0.001000133
0.001052502
0.001104963
0.001157516
0.001210162
0.001262901
0.001315733
0.001368658
0.001421677
0.001474789
0.001527995
0.001581295
0.001634689
0.001688177
0.00174176
0.001795437
0.001849209
0.001903076
0.001957037
0.002011094
0.002065247
0.002119495
0.002173838
0.002228278
0.002282814
0.002337446
0.002392174
0.002446999
0.00250192
0.002556939
0.002612054
0.002667267
0.002722578
0.002777986
0.002833491
0.002889095
0.002944797
0.003000597
0.003056495
0.003112492
0.003168588
0.003224783
0.003281077
0.003337471
0.003393964
0.003450557
0.003507249
0.003564042
0.003620935
0.003677928
0.003735022
0.003792216
0.003849512
0.003906908
0.003964406
0.004022005
0.004079706
0.004137509
0.004195414
0.004253421
0.00431153
0.004369742
0.004428057
0.004486474
0.004544995
0.004603619
0.004662346
0.004721177
0.004780112
0.00483915
0.004898293
0.004957541
0.005016892
0.005076349
0.005135911
0.005195577
0.005255349
0.005315227
0.00537521
0.005435298
0.005495493
0.005555795
0.005616202
0.005676716
0.005737337
0.005798065
0.0058589
0.005919843
0.005980893
0.006042051
0.006103316
0.00616469
0.006226172
0.006287763
0.006349462
0.00641127
0.006473187
0.006535214
0.00659735
0.006659595
0.006721951
0.006784416
0.006846992
0.006909678
0.006972474
0.007035382
0.007098401
0.00716153
0.007224771
0.007288124
0.007351589
0.007415165
0.007478854
0.007542655
0.007606569
0.007670595
0.007734735
0.007798987
0.007863354
0.007927833
0.007992427
0.008057134
0.008121956
0.008186892
0.008251942
0.008317107
0.008382388
0.008447783
0.008513294
0.008578921
0.008644663
0.008710522
0.008776496
0.008842587
0.008908795
0.008975119
0.009041561
0.00910812
0.009174796
0.00924159
0.009308502
0.009375531
0.009442679
0.009509946
0.009577331
0.009644836
0.009712459
0.009780202
0.009848064
0.009916046
0.009984148
0.01005237
0.010120712
0.010189175
0.010257759
0.010326464
0.010395291
0.010464238
0.010533307
0.010602499
0.010671812
0.010741248
0.010810806
0.010880487
0.01095029
0.011020217
0.011090268
0.011160442
0.01123074
0.011301162
0.011371708
0.011442379
0.011513174
0.011584094
0.01165514
0.011726311
0.011797607
0.011869029
0.011940578
0.012012252
0.012084053
0.012155981
0.012228036
0.012300217
0.012372527
0.012444963
0.012517528
0.012590221
0.012663042
0.012735991
0.012809069
0.012882276
0.012955613
0.013029078
0.013102674
0.013176399
0.013250254
0.01332424
0.013398356
0.013472603
0.013546981
0.013621491
0.013696131
0.013770904
0.013845808
0.013920845
0.013996014
0.014071316
0.01414675
0.014222318
0.014298019
0.014373854
0.014449822
0.014525925
0.014602161
0.014678533
0.014755039
0.01483168
0.014908456
0.014985368
0.015062416
0.015139599
0.015216919
0.015294375
0.015371968
0.015449698
0.015527565
0.015605569
0.015683711
0.015761991
0.015840409
0.015918965
0.015997661
0.016076494
0.016155467
0.01623458
0.016313832
0.016393224
0.016472756
0.016552428
0.016632241
0.016712195
0.016792289
0.016872526
0.016952903
0.017033423
0.017114085
0.017194889
0.017275835
0.017356925
0.017438157
0.017519533
0.017601053
0.017682716
0.017764523
0.017846475
0.017928572
0.018010813
0.018093199
0.018175731
0.018258409
0.018341232
0.018424202
0.018507318
0.01859058
0.01867399
0.018757546
0.018841251
0.018925103
0.019009102
0.01909325
0.019177547
0.019261992
0.019346587
0.01943133
0.019516224
0.019601266
0.01968646
0.019771803
0.019857297
0.019942942
0.020028738
0.020114685
0.020200784
0.020287035
0.020373438
0.020459994
0.020546703
0.020633564
0.020720579
0.020807747
0.020895069
0.020982545
0.021070176
0.021157961
0.021245901
0.021333996
0.021422247
0.021510653
0.021599216
0.021687935
0.02177681
0.021865842
0.021955031
0.022044378
0.022133882
0.022223545
0.022313365
0.022403344
0.022493482
0.022583779
0.022674235
0.022764851
0.022855626
0.022946562
0.023037659
0.023128916
0.023220334
0.023311913
0.023403654
0.023495557
0.023587622
0.02367985
0.02377224
0.023864794
0.023957511
0.024050391
0.024143435
0.024236644
0.024330017
0.024423554
0.024517257
0.024611125
0.024705159
0.024799358
0.024893724
0.024988257
0.025082956
0.025177822
0.025272856
0.025368058
0.025463427
0.025558965
0.025654671
0.025750547
0.025846591
0.025942805
0.026039189
0.026135742
0.026232467
0.026329361
0.026426427
0.026523664
0.026621073
0.026718654
0.026816407
0.026914332
0.02701243
0.027110701
0.027209146
0.027307764
0.027406557
0.027505523
0.027604665
0.027703981
0.027803473
0.02790314
0.028002983
0.028103002
0.028203198
0.02830357
0.02840412
0.028504847
0.028605752
0.028706835
0.028808096
0.028909536
0.029011155
0.029112953
0.029214931
0.029317089
0.029419427
0.029521946
0.029624646
0.029727527
0.029830589
0.029933834
0.03003726
0.030140869
0.030244661
0.030348636
0.030452794
0.030557137
0.030661663
0.030766374
0.03087127
