OpenDRT_v1.0-2.0_full-config_v2/transfer_functions/oetf_nikon_nlog_to_linear.spi1d
Version 1
From -0.15 1.2
Length 8192
Components 1
{
0.0
0.0
0.0
0.0
0.0
0.0
0.0
0.0
0.0
0.0
0.0
0.0
0.0
0.0
0.0
0.0
0.0
0.0
0.0
0.0
0.0
0.0
0.0
0.0
0.0
0.0
0.0
0.0
0.0
0.0
0.0
0.0
0.0
0.0
0.0
0.0
0.0
0.0
0.0
0.0
0.0
0.0
0.0
0.0
0.0
0.0
0.0
0.0
0.0
0.0
0.0
0.0
0.0
0.0
0.0
0.0
0.0
0.0
0.0
0.0
0.0
0.0
0.0
0.0
0.0
0.0
0.0
0.0
0.0
0.0
0.0
0.0
0.0
0.0
0.0
0.0
0.0
0.0
0.0
0.0
0.0
0.0
0.0
0.0
0.0
0.0
0.0
0.0
0.0
0.0
0.0
0.0
0.0
0.0
0.0
0.0
0.0
0.0
0.0
0.0
0.0
0.0
0.0
0.0
0.0
0.0
0.0
0.0
0.0
0.0
0.0
0.0
0.0
0.0
0.0
0.0
0.0
0.0
0.0
0.0
0.0
0.0
0.0
0.0
0.0
0.0
0.0
0.0
0.0
0.0
0.0
0.0
0.0
0.0
0.0
0.0
0.0
0.0
0.0
0.0
0.0
0.0
0.0
0.0
0.0
0.0
0.0
0.0
0.0
0.0
0.0
0.0
0.0
0.0
0.0
0.0
0.0
0.0
0.0
0.0
0.0
0.0
0.0
0.0
0.0
0.0
0.0
0.0
0.0
0.0
0.0
0.0
0.0
0.0
0.0
0.0
0.0
0.0
0.0
0.0
0.0
0.0
0.0
0.0
0.0
0.0
0.0
0.0
0.0
0.0
0.0
0.0
0.0
0.0
0.0
0.0
0.0
0.0
0.0
0.0
0.0
0.0
0.0
0.0
0.0
0.0
0.0
0.0
0.0
0.0
0.0
0.0
0.0
0.0
0.0
0.0
0.0
0.0
0.0
0.0
0.0
0.0
0.0
0.0
0.0
0.0
0.0
0.0
0.0
0.0
0.0
0.0
0.0
0.0
0.0
0.0
0.0
0.0
0.0
0.0
0.0
0.0
0.0
0.0
0.0
0.0
0.0
0.0
0.0
0.0
0.0
0.0
0.0
0.0
0.0
0.0
0.0
0.0
0.0
0.0
0.0
0.0
0.0
0.0
0.0
0.0
0.0
0.0
0.0
0.0
0.0
0.0
0.0
0.0
0.0
0.0
0.0
0.0
0.0
0.0
0.0
0.0
0.0
0.0
0.0
0.0
0.0
0.0
0.0
0.0
0.0
0.0
0.0
0.0
0.0
0.0
0.0
0.0
0.0
0.0
0.0
0.0
0.0
0.0
0.0
0.0
0.0
0.0
0.0
0.0
0.0
0.0
0.0
0.0
0.0
0.0
0.0
0.0
0.0
0.0
0.0
0.0
0.0
0.0
0.0
0.0
0.0
0.0
0.0
0.0
0.0
0.0
0.0
0.0
0.0
0.0
0.0
0.0
0.0
0.0
0.0
0.0
0.0
0.0
0.0
0.0
0.0
0.0
0.0
0.0
0.0
0.0
0.0
0.0
0.0
0.0
0.0
0.0
0.0
0.0
0.0
0.0
0.0
0.0
0.0
0.0
0.0
0.0
0.0
0.0
0.0
0.0
0.0
0.0
0.0
0.0
0.0
0.0
0.0
0.0
0.0
0.0
0.0
0.0
0.0
0.0
0.0
0.0
0.0
0.0
0.0
0.0
0.0
0.0
0.0
0.0
0.0
0.0
0.0
0.0
0.0
0.0
0.0
0.0
0.0
0.0
0.0
0.0
0.0
0.0
0.0
0.0
0.0
0.0
0.0
0.0
0.0
0.0
0.0
0.0
0.0
0.0
0.0
0.0
0.0
0.0
0.0
0.0
0.0
0.0
0.0
0.0
0.0
0.0
0.0
0.0
0.0
0.0
0.0
0.0
0.0
0.0
0.0
0.0
0.0
0.0
0.0
0.0
0.0
0.0
0.0
0.0
0.0
0.0
0.0
0.0
0.0
0.0
0.0
0.0
0.0
0.0
0.0
0.0
0.0
0.0
0.0
0.0
0.0
0.0
0.0
0.0
0.0
0.0
0.0
0.0
0.0
0.0
0.0
0.0
0.0
0.0
0.0
0.0
0.0
0.0
0.0
0.0
0.0
0.0
0.0
0.0
0.0
0.0
0.0
0.0
0.0
0.0
0.0
0.0
0.0
0.0
0.0
0.0
0.0
0.0
0.0
0.0
0.0
0.0
0.0
0.0
0.0
0.0
0.0
0.0
0.0
0.0
0.0
0.0
0.0
0.0
0.0
0.0
0.0
0.0
0.0
0.0
0.0
0.0
0.0
0.0
0.0
0.0
0.0
0.0
0.0
0.0
0.0
0.0
0.0
0.0
0.0
0.0
0.0
0.0
0.0
0.0
0.0
0.0
0.0
0.0
0.0
0.0
0.0
0.0
0.0
0.0
0.0
0.0
0.0
0.0
0.0
0.0
0.0
0.0
0.0
0.0
0.0
0.0
0.0
0.0
0.0
0.0
0.0
0.0
0.0
0.0
0.0
0.0
0.0
0.0
0.0
0.0
0.0
0.0
0.0
0.0
0.0
0.0
0.0
0.0
0.0
0.0
0.0
0.0
0.0
0.0
0.0
0.0
0.0
0.0
0.0
0.0
0.0
0.0
0.0
0.0
0.0
0.0
0.0
0.0
0.0
0.0
0.0
0.0
0.0
0.0
0.0
0.0
0.0
0.0
0.0
0.0
0.0
0.0
0.0
0.0
0.0
0.0
0.0
0.0
0.0
0.0
0.0
0.0
0.0
0.0
0.0
0.0
0.0
0.0
0.0
0.0
0.0
0.0
0.0
0.0
0.0
0.0
0.0
0.0
0.0
0.0
0.0
0.0
0.0
0.0
0.0
0.0
0.0
0.0
0.0
0.0
0.0
0.0
0.0
0.0
0.0
0.0
0.0
0.0
0.0
0.0
0.0
0.0
0.0
0.0
0.0
0.0
0.0
0.0
0.0
0.0
0.0
0.0
0.0
0.0
0.0
0.0
0.0
0.0
0.0
0.0
0.0
0.0
0.0
0.0
0.0
0.0
0.0
0.0
0.0
0.0
0.0
0.0
0.0
0.0
0.0
0.0
0.0
0.0
0.0
0.0
0.0
0.0
0.0
0.0
0.0
0.0
0.0
0.0
0.0
0.0
0.0
0.0
0.0
0.0
0.0
0.0
0.0
0.0
0.0
0.0
0.0
0.0
0.0
0.0
0.0
0.0
0.0
0.0
0.0
0.0
0.0
0.0
0.0
0.0
0.0
0.0
0.0
0.0
0.0
0.0
0.0
0.0
0.0
0.0
0.0
0.0
0.0
0.0
0.0
0.0
0.0
0.0
0.0
0.0
0.0
0.0
0.0
0.0
0.0
0.0
0.0
0.0
0.0
0.0
0.0
0.0
0.0
0.0
0.0
0.0
0.0
0.0
0.0
0.0
0.0
0.0
0.0
0.0
0.0
0.0
0.0
0.0
0.0
0.0
0.0
0.0
0.0
0.0
0.0
0.0
0.0
0.0
0.0
0.0
0.0
0.0
0.0
0.0
0.0
0.0
0.0
0.0
0.0
0.0
0.0
0.0
0.0
0.0
0.0
0.0
0.0
0.0
0.0
0.0
0.0
0.0
0.0
0.0
0.0
0.0
0.0
0.0
0.0
0.0
0.0
0.0
0.0
0.0
0.0
0.0
0.0
0.0
0.0
0.0
0.0
0.0
0.0
0.0
0.0
0.0
0.0
0.0
0.0
0.0
0.0
0.0
0.0
0.0
0.0
0.0
0.0
0.0
0.0
0.0
0.0
0.0
0.0
0.0
0.0
0.0
0.0
0.0
0.0
0.0
0.0
0.0
0.0
0.0
0.0
0.0
0.0
0.0
0.0
0.0
0.0
0.0
0.0
0.0
0.0
0.0
0.0
0.0
0.0
0.0
0.0
0.0
0.0
0.0
0.0
0.0
0.0
0.0
0.0
0.0
0.0
0.0
0.0
-0.0075
-0.0075
-0.0075
-0.007499999
-0.007499998
-0.007499996
-0.007499994
-0.007499991
-0.007499988
-0.007499983
-0.007499977
-0.007499971
-0.007499963
-0.007499953
-0.007499942
-0.00749993
-0.007499916
-0.0074999
-0.007499882
-0.007499863
-0.007499841
-0.007499817
-0.007499791
-0.007499762
-0.007499731
-0.007499697
-0.007499661
-0.007499621
-0.007499579
-0.007499534
-0.007499486
-0.007499434
-0.007499379
-0.007499321
-0.007499259
-0.007499193
-0.007499124
-0.007499051
-0.007498974
-0.007498892
-0.007498807
-0.007498717
-0.007498623
-0.007498524
-0.007498421
-0.007498313
-0.007498201
-0.007498083
-0.007497961
-0.007497833
-0.0074977
-0.007497562
-0.007497418
-0.007497269
-0.007497114
-0.007496953
-0.007496787
-0.007496614
-0.007496436
-0.007496251
-0.00749606
-0.007495863
-0.007495659
-0.007495449
-0.007495231
-0.007495008
-0.007494777
-0.007494539
-0.007494294
-0.007494042
-0.007493783
-0.007493516
-0.007493241
-0.007492959
-0.00749267
-0.007492372
-0.007492066
-0.007491753
-0.007491431
-0.007491101
-0.007490763
-0.007490416
-0.00749006
-0.007489696
-0.007489323
-0.007488942
-0.007488551
-0.007488151
-0.007487742
-0.007487324
-0.007486896
-0.007486459
-0.007486012
-0.007485555
-0.007485088
-0.007484612
-0.007484126
-0.007483629
-0.007483122
-0.007482605
-0.007482077
-0.007481539
-0.00748099
-0.00748043
-0.00747986
-0.007479278
-0.007478686
-0.007478082
-0.007477467
-0.00747684
-0.007476202
-0.007475552
-0.007474891
-0.007474218
-0.007473533
-0.007472835
-0.007472126
-0.007471405
-0.007470671
-0.007469924
-0.007469166
-0.007468394
-0.00746761
-0.007466813
-0.007466002
-0.007465179
-0.007464343
-0.007463493
-0.00746263
-0.007461753
-0.007460863
-0.007459959
-0.007459042
-0.00745811
-0.007457164
-0.007456205
-0.007455231
-0.007454242
-0.007453239
-0.007452222
-0.00745119
-0.007450143
-0.007449082
-0.007448005
-0.007446914
-0.007445807
-0.007444685
-0.007443547
-0.007442394
-0.007441226
-0.007440042
-0.007438842
-0.007437626
-0.007436394
-0.007435146
-0.007433882
-0.007432601
-0.007431304
-0.00742999
-0.00742866
-0.007427313
-0.007425949
-0.007424569
-0.007423171
-0.007421756
-0.007420324
-0.007418874
-0.007417407
-0.007415922
-0.00741442
-0.0074129
-0.007411362
-0.007409806
-0.007408232
-0.007406639
-0.007405029
-0.0074034
-0.007401752
-0.007400086
-0.007398401
-0.007396697
-0.007394974
-0.007393232
-0.007391471
-0.007389691
-0.007387892
-0.007386073
-0.007384234
-0.007382376
-0.007380498
-0.0073786
-0.007376682
-0.007374744
-0.007372786
-0.007370807
-0.007368808
-0.007366789
-0.007364749
-0.007362688
-0.007360606
-0.007358504
-0.00735638
-0.007354235
-0.007352069
-0.007349882
-0.007347673
-0.007345443
-0.007343191
-0.007340917
-0.007338621
-0.007336304
-0.007333964
-0.007331602
-0.007329218
-0.007326811
-0.007324382
-0.007321931
-0.007319456
-0.007316959
-0.007314439
-0.007311896
-0.007309329
-0.00730674
-0.007304127
-0.00730149
-0.007298831
-0.007296147
-0.00729344
-0.007290709
-0.007287953
-0.007285174
-0.007282371
-0.007279543
-0.007276691
-0.007273814
-0.007270913
-0.007267987
-0.007265037
-0.007262061
-0.007259061
-0.007256035
-0.007252984
-0.007249908
-0.007246806
-0.007243679
-0.007240526
-0.007237347
-0.007234143
-0.007230912
-0.007227656
-0.007224373
-0.007221064
-0.007217729
-0.007214367
-0.007210979
-0.007207563
-0.007204122
-0.007200653
-0.007197157
-0.007193634
-0.007190084
-0.007186506
-0.007182902
-0.007179269
-0.007175609
-0.007171921
-0.007168206
-0.007164462
-0.007160691
-0.007156891
-0.007153063
-0.007149206
-0.007145321
-0.007141408
-0.007137466
-0.007133495
-0.007129495
-0.007125466
-0.007121408
-0.007117321
-0.007113205
-0.007109059
-0.007104884
-0.007100679
-0.007096444
-0.007092179
-0.007087885
-0.00708356
-0.007079206
-0.007074821
-0.007070405
-0.00706596
-0.007061483
-0.007056976
-0.007052439
-0.00704787
-0.00704327
-0.00703864
-0.007033978
-0.007029285
-0.00702456
-0.007019804
-0.007015016
-0.007010197
-0.007005345
-0.007000462
-0.006995547
-0.006990599
-0.00698562
-0.006980608
-0.006975563
-0.006970486
-0.006965377
-0.006960234
-0.006955059
-0.006949851
-0.00694461
-0.006939335
-0.006934027
-0.006928686
-0.006923311
-0.006917903
-0.006912461
-0.006906985
-0.006901475
-0.006895932
-0.006890354
-0.006884742
-0.006879095
-0.006873414
-0.006867699
-0.006861949
-0.006856164
-0.006850344
-0.00684449
-0.0068386
-0.006832675
-0.006826715
-0.006820719
-0.006814688
-0.006808621
-0.006802519
-0.006796381
-0.006790207
-0.006783997
-0.006777751
-0.006771468
-0.006765149
-0.006758794
-0.006752403
-0.006745974
-0.006739509
-0.006733007
-0.006726468
-0.006719892
-0.006713279
-0.006706629
-0.006699941
-0.006693216
-0.006686453
-0.006679652
-0.006672814
-0.006665938
-0.006659024
-0.006652071
-0.006645081
-0.006638052
-0.006630985
-0.006623879
-0.006616735
-0.006609551
-0.006602329
-0.006595069
-0.006587769
-0.006580429
-0.006573051
-0.006565633
-0.006558176
-0.006550679
-0.006543143
-0.006535567
-0.00652795
-0.006520294
-0.006512598
-0.006504862
-0.006497085
-0.006489268
-0.00648141
-0.006473512
-0.006465573
-0.006457593
-0.006449572
-0.00644151
-0.006433407
-0.006425263
-0.006417078
-0.006408851
-0.006400582
-0.006392272
-0.00638392
-0.006375526
-0.00636709
-0.006358612
-0.006350092
-0.00634153
-0.006332925
-0.006324277
-0.006315587
-0.006306855
-0.006298079
-0.006289261
-0.0062804
-0.006271495
-0.006262547
-0.006253556
-0.006244521
-0.006235443
-0.006226321
-0.006217156
-0.006207946
-0.006198693
-0.006189396
-0.006180054
-0.006170668
-0.006161238
-0.006151763
-0.006142243
-0.006132679
-0.00612307
-0.006113417
-0.006103718
-0.006093974
-0.006084184
-0.00607435
-0.00606447
-0.006054544
-0.006044573
-0.006034556
-0.006024494
-0.006014385
-0.00600423
-0.005994029
-0.005983782
-0.005973488
-0.005963148
-0.005952761
-0.005942328
-0.005931848
-0.005921321
-0.005910747
-0.005900125
-0.005889457
-0.005878741
-0.005867978
-0.005857167
-0.005846309
-0.005835403
-0.005824449
-0.005813447
-0.005802397
-0.005791299
-0.005780153
-0.005768958
-0.005757715
-0.005746423
-0.005735082
-0.005723693
-0.005712255
-0.005700768
-0.005689232
-0.005677646
-0.005666011
-0.005654327
-0.005642594
-0.00563081
-0.005618977
-0.005607094
-0.005595162
-0.005583179
-0.005571146
-0.005559062
-0.005546929
-0.005534745
-0.00552251
-0.005510225
-0.005497888
-0.005485501
-0.005473064
-0.005460574
-0.005448034
-0.005435443
-0.0054228
-0.005410105
-0.005397359
-0.005384561
-0.005371712
-0.00535881
-0.005345856
-0.005332851
-0.005319793
-0.005306682
-0.005293519
-0.005280304
-0.005267036
-0.005253715
-0.005240342
-0.005226915
-0.005213435
-0.005199902
-0.005186316
-0.005172677
-0.005158984
-0.005145237
-0.005131436
-0.005117582
-0.005103674
-0.005089712
-0.005075696
-0.005061625
-0.0050475
-0.005033321
-0.005019087
-0.005004799
-0.004990455
-0.004976057
-0.004961604
-0.004947096
-0.004932533
-0.004917914
-0.00490324
-0.004888511
-0.004873726
-0.004858885
-0.004843988
-0.004829036
-0.004814027
-0.004798963
-0.004783842
-0.004768665
-0.004753431
-0.004738141
-0.004722794
-0.00470739
-0.00469193
-0.004676413
-0.004660838
-0.004645207
-0.004629518
-0.004613772
-0.004597968
-0.004582107
-0.004566188
-0.004550211
-0.004534176
-0.004518084
-0.004501933
-0.004485724
-0.004469457
-0.004453131
-0.004436747
-0.004420304
-0.004403802
-0.004387242
-0.004370622
-0.004353944
-0.004337206
-0.004320409
-0.004303553
-0.004286638
-0.004269662
-0.004252627
-0.004235533
-0.004218378
-0.004201163
-0.004183889
-0.004166554
-0.004149159
-0.004131703
-0.004114187
-0.00409661
-0.004078972
-0.004061274
-0.004043515
-0.004025695
-0.004007813
-0.00398987
-0.003971866
-0.003953801
-0.003935674
-0.003917485
-0.003899235
-0.003880922
-0.003862548
-0.003844111
-0.003825613
-0.003807052
-0.003788428
-0.003769743
-0.003750994
-0.003732183
-0.003713309
-0.003694372
-0.003675372
-0.003656309
-0.003637183
-0.003617993
-0.00359874
-0.003579423
-0.003560043
-0.003540599
-0.003521091
-0.003501519
-0.003481883
-0.003462183
-0.003442418
-0.003422589
-0.003402696
-0.003382738
-0.003362715
-0.003342628
-0.003322475
-0.003302258
-0.003281975
-0.003261628
-0.003241215
-0.003220736
-0.003200192
-0.003179582
-0.003158907
-0.003138165
-0.003117358
-0.003096485
-0.003075545
-0.003054539
-0.003033467
-0.003012328
-0.002991123
-0.002969851
-0.002948512
-0.002927107
-0.002905634
-0.002884094
-0.002862487
-0.002840813
-0.002819071
-0.002797262
-0.002775385
-0.00275344
-0.002731428
-0.002709347
-0.002687199
-0.002664982
-0.002642697
-0.002620344
-0.002597922
-0.002575432
-0.002552872
-0.002530245
-0.002507548
-0.002484782
-0.002461947
-0.002439043
-0.00241607
-0.002393027
-0.002369915
-0.002346733
-0.002323481
-0.00230016
-0.002276768
-0.002253307
-0.002229775
-0.002206173
-0.002182501
-0.002158758
-0.002134945
-0.002111061
-0.002087106
-0.00206308
-0.002038984
-0.002014816
-0.001990577
-0.001966267
-0.001941885
-0.001917432
-0.001892907
-0.001868311
-0.001843643
-0.001818903
-0.00179409
-0.001769206
-0.001744249
-0.00171922
-0.001694119
-0.001668945
-0.001643698
-0.001618379
-0.001592986
-0.001567521
-0.001541983
-0.001516371
-0.001490686
-0.001464928
-0.001439096
-0.001413191
-0.001387212
-0.001361159
-0.001335032
-0.001308831
-0.001282556
-0.001256207
-0.001229783
-0.001203285
-0.001176713
-0.001150066
-0.001123344
-0.001096547
-0.001069675
-0.001042728
-0.001015706
-0.000988609
-0.000961436
-0.000934188
-0.000906864
-0.000879465
-0.00085199
-0.000824438
-0.000796811
-0.000769108
-0.000741328
-0.000713472
-0.00068554
-0.000657531
-0.000629446
-0.000601284
-0.000573044
-0.000544728
-0.000516335
-0.000487865
-0.000459317
-0.000430692
-0.00040199
-0.00037321
-0.000344352
-0.000315417
-0.000286403
-0.000257312
-0.000228143
-0.000198895
-0.000169569
-0.000140164
-0.000110681
-8.112e-05
-5.1479e-05
-2.176e-05
8.038e-06
3.7915e-05
6.7871e-05
9.7907e-05
0.000128022
0.000158217
0.000188491
0.000218844
0.000249278
0.000279791
0.000310385
0.000341058
0.000371812
0.000402646
0.00043356
0.000464555
0.000495631
0.000526787
0.000558024
0.000589342
0.000620741
0.000652221
0.000683783
0.000715426
0.00074715
0.000778956
0.000810843
0.000842813
0.000874864
0.000906997
0.000939212
0.00097151
0.001003889
0.001036351
0.001068896
0.001101523
0.001134233
0.001167026
0.001199902
0.001232861
0.001265903
0.001299028
0.001332236
0.001365528
0.001398904
0.001432363
0.001465906
0.001499532
0.001533243
0.001567038
0.001600917
0.00163488
0.001668928
0.00170306
0.001737277
0.001771579
0.001805965
0.001840436
0.001874992
0.001909634
0.00194436
0.001979172
0.00201407
0.002049053
0.002084121
0.002119275
0.002154516
0.002189842
0.002225254
0.002260752
0.002296337
0.002332008
0.002367766
0.00240361
0.002439541
0.002475558
0.002511663
0.002547854
0.002584133
0.002620499
0.002656952
0.002693493
0.002730121
0.002766837
0.00280364
0.002840532
0.002877511
0.002914578
0.002951734
0.002988978
0.00302631
0.003063731
0.00310124
0.003138838
0.003176525
0.0032143
0.003252165
0.003290119
0.003328162
0.003366294
0.003404516
0.003442827
0.003481228
0.003519718
0.003558299
0.003596969
0.003635729
0.00367458
0.003713521
0.003752552
0.003791674
0.003830886
0.003870189
0.003909582
0.003949067
0.003988642
0.004028309
0.004068067
0.004107916
0.004147856
0.004187889
0.004228012
0.004268228
0.004308535
0.004348934
0.004389425
0.004430009
0.004470684
0.004511452
0.004552312
0.004593265
0.004634311
0.004675449
0.004716681
0.004758005
0.004799422
0.004840933
0.004882537
0.004924234
0.004966024
0.005007909
0.005049887
0.005091959
0.005134124
0.005176384
0.005218738
0.005261186
0.005303729
0.005346366
0.005389097
0.005431923
0.005474844
0.00551786
0.005560971
0.005604177
0.005647478
0.005690874
0.005734366
0.005777953
0.005821636
0.005865414
0.005909288
0.005953259
0.005997325
0.006041487
0.006085746
0.0061301
0.006174552
0.0062191
0.006263744
0.006308485
0.006353324
0.006398259
0.006443291
0.00648842
0.006533647
0.00657897
0.006624392
0.006669911
0.006715528
0.006761242
0.006807055
0.006852965
0.006898973
0.00694508
0.006991285
0.007037589
0.007083991
0.007130491
0.007177091
0.007223789
0.007270586
0.007317482
0.007364478
0.007411572
0.007458766
0.00750606
0.007553453
0.007600946
0.007648538
0.007696231
0.007744023
0.007791916
0.007839908
0.007888001
0.007936195
0.007984489
0.008032883
0.008081379
0.008129975
0.008178672
0.00822747
0.008276369
0.00832537
0.008374472
0.008423675
0.00847298
0.008522387
0.008571895
0.008621505
0.008671218
0.008721032
0.008770948
0.008820967
0.008871088
0.008921312
0.008971639
0.009022068
0.0090726
0.009123234
0.009173972
0.009224813
0.009275757
0.009326805
0.009377956
0.009429211
0.009480569
0.009532031
0.009583597
0.009635267
0.009687041
0.009738919
0.009790901
0.009842988
0.009895179
0.009947475
0.009999876
0.010052381
0.010104991
0.010157707
0.010210527
0.010263453
0.010316484
0.010369621
0.010422863
0.01047621
0.010529664
0.010583223
0.010636888
0.01069066
0.010744537
0.010798521
0.010852611
0.010906808
0.010961111
0.011015521
0.011070038
0.011124662
0.011179392
0.01123423
0.011289175
0.011344227
0.011399387
0.011454655
0.011510029
0.011565512
0.011621103
0.011676801
0.011732608
0.011788523
0.011844546
0.011900677
0.011956917
0.012013265
0.012069722
0.012126288
0.012182963
0.012239747
0.01229664
0.012353642
0.012410753
0.012467974
0.012525305
0.012582745
0.012640294
0.012697954
0.012755723
0.012813603
0.012871593
0.012929693
0.012987903
0.013046224
0.013104655
0.013163197
0.01322185
0.013280614
0.013339489
0.013398475
0.013457572
0.01351678
0.0135761
0.013635531
0.013695074
0.013754729
0.013814495
0.013874373
0.013934364
0.013994466
0.014054681
0.014115008
0.014175448
0.014236
0.014296665
0.014357442
0.014418333
0.014479336
0.014540453
0.014601683
0.014663026
0.014724482
0.014786052
0.014847736
0.014909533
0.014971444
0.015033469
0.015095608
0.015157861
0.015220229
0.01528271
0.015345307
0.015408017
0.015470843
0.015533783
0.015596838
0.015660008
0.015723293
0.015786693
0.015850209
0.01591384
0.015977586
0.016041448
0.016105426
0.01616952
0.016233729
0.016298054
0.016362496
0.016427054
0.016491728
0.016556519
0.016621426
0.01668645
0.01675159
0.016816847
0.016882222
0.016947713
0.017013322
0.017079048
0.017144891
0.017210852
0.01727693
0.017343126
0.01740944
0.017475871
0.017542421
0.017609089
0.017675875
0.017742779
0.017809802
0.017876943
0.017944203
0.018011582
0.01807908
0.018146696
0.018214432
0.018282286
0.01835026
0.018418354
0.018486566
0.018554899
0.018623351
0.018691923
0.018760614
0.018829426
0.018898358
0.01896741
0.019036582
0.019105875
0.019175289
0.019244822
0.019314477
0.019384253
0.019454149
0.019524167
0.019594305
0.019664565
0.019734946
0.019805449
0.019876073
0.019946819
0.020017687
0.020088677
0.020159788
0.020231022
0.020302378
0.020373856
0.020445456
0.02051718
0.020589025
0.020660994
0.020733085
0.020805299
0.020877636
0.020950097
0.02102268
0.021095387
0.021168218
0.021241172
0.021314249
0.021387451
0.021460776
0.021534225
0.021607798
0.021681496
0.021755318
0.021829264
0.021903335
0.02197753
0.02205185
0.022126295
0.022200864
0.022275559
0.022350379
0.022425324
0.022500395
0.022575591
0.022650912
0.022726359
0.022801932
0.022877631
0.022953455
0.023029406
0.023105483
0.023181686
0.023258016
0.023334472
0.023411055
0.023487764
0.0235646
0.023641563
0.023718654
0.023795871
0.023873215
0.023950687
0.024028286
0.024106013
0.024183867
0.024261849
0.024339959
0.024418197
0.024496563
0.024575058
0.02465368
0.024732431
0.02481131
0.024890318
0.024969455
0.02504872
0.025128114
0.025207637
0.02528729
0.025367071
0.025446982
0.025527023
0.025607192
0.025687492
0.025767921
0.02584848
0.025929169
0.026009988
0.026090937
0.026172017
0.026253227
0.026334567
0.026416038
0.026497639
0.026579372
0.026661235
0.026743229
0.026825355
0.026907611
0.026989999
0.027072518
0.027155169
0.027237951
0.027320865
0.027403911
0.027487089
0.027570399
0.027653841
0.027737415
0.027821122
0.027904961
0.027988933
0.028073037
0.028157274
0.028241644
0.028326147
0.028410783
0.028495553
0.028580455
0.028665491
0.028750661
0.028835964
0.0289214
0.029006971
0.029092676
0.029178514
0.029264487
0.029350594
0.029436835
0.029523211
0.029609721
0.029696366
0.029783146
0.02987006
0.02995711
0.030044294
0.030131614
0.030219069
0.03030666
0.030394386
0.030482247
0.030570245
0.030658378
0.030746647
0.030835052
0.030923593
0.03101227
0.031101084
0.031190034
0.031279121
0.031368344
0.031457704
0.031547201
0.031636835
0.031726606
0.031816514
0.03190656
0.031996742
0.032087063
0.032177521
0.032268116
0.03235885
0.032449721
0.03254073
0.032631877
0.032723163
0.032814587
0.032906149
0.03299785
0.03308969
0.033181668
0.033273785
0.033366041
0.033458436
0.033550971
0.033643644
0.033736457
0.03382941
0.033922502
0.034015733
0.034109105
0.034202616
0.034296267
0.034390059
0.034483991
0.034578063
0.034672275
0.034766628
0.034861121
0.034955756
0.035050531
0.035145447
0.035240504
0.035335702
0.035431042
0.035526523
0.035622145
0.035717909
0.035813814
0.035909862
0.036006051
0.036102382
0.036198856
0.036295471
0.036392229
0.036489129
0.036586172
0.036683357
0.036780685
0.036878156
0.03697577
0.037073527
0.037171427
0.03726947
0.037367657
0.037465987
0.03756446
0.037663078
0.037761839
0.037860744
0.037959793
0.038058986
0.038158323
0.038257804
0.03835743
0.0384572
0.038557115
0.038657175
0.03875738
0.038857729
0.038958223
0.039058863
0.039159648
0.039260578
0.039361653
0.039462875
0.039564241
0.039665754
0.039767412
0.039869217
0.039971167
0.040073264
0.040175507
0.040277896
0.040380432
0.040483114
0.040585943
0.040688919
0.040792042
0.040895312
0.040998729
0.041102293
0.041206004
0.041309863
0.04141387
0.041518024
0.041622326
0.041726775
0.041831373
0.041936119
0.042041013
0.042146055
0.042251245
0.042356584
0.042462072
0.042567708
0.042673493
0.042779427
0.04288551
0.042991742
0.043098124
0.043204654
0.043311335
0.043418164
0.043525143
0.043632272
0.043739551
0.04384698
0.043954559
0.044062288
0.044170167
0.044278196
0.044386376
0.044494707
0.044603188
0.04471182
0.044820603
0.044929537
0.045038623
0.045147859
0.045257246
0.045366785
0.045476476
0.045586318
0.045696312
0.045806458
0.045916755
0.046027205
0.046137807
0.046248561
0.046359467
0.046470526
0.046581738
0.046693102
0.046804619
0.046916288
0.047028111
0.047140087
0.047252216
0.047364498
0.047476934
0.047589523
0.047702266
0.047815163
0.047928213
0.048041418
0.048154776
0.048268289
0.048381955
0.048495776
0.048609752
0.048723882
0.048838167
0.048952606
0.049067201
0.04918195
0.049296854
0.049411914
0.049527129
0.049642499
0.049758025
0.049873706
0.049989544
0.050105536
0.050221685
0.05033799
0.050454451
0.050571068
0.050687842
0.050804772
0.050921858
0.051039102
0.051156502
0.051274058
0.051391772
0.051509643
0.051627671
0.051745856
0.051864199
0.051982699
0.052101357
0.052220172
0.052339145
0.052458276
0.052577566
0.052697013
0.052816618
0.052936382
0.053056304
0.053176385
0.053296625
0.053417023
0.05353758
0.053658296
0.053779171
0.053900205
0.054021398
0.054142751
0.054264263
0.054385935
0.054507767
0.054629758
0.054751909
0.054874221
0.054996692
0.055119324
0.055242115
0.055365068
0.055488181
0.055611454
0.055734888
0.055858483
0.055982239
0.056106156
0.056230234
0.056354474
0.056478874
0.056603437
0.05672816
0.056853046
0.056978093
0.057103302
0.057228674
0.057354207
0.057479902
0.05760576
0.05773178
0.057857963
0.057984308
0.058110816
0.058237487
0.058364321
0.058491317
0.058618477
0.058745801
0.058873287
0.059000937
0.059128751
0.059256728
0.059384869
0.059513174
0.059641643
0.059770275
0.059899073
0.060028034
0.06015716
0.06028645
0.060415905
0.060545525
0.060675309
0.060805259
0.060935373
0.061065652
0.061196097
0.061326707
0.061457483
0.061588424
0.061719531
0.061850803
0.061982242
0.062113846
0.062245616
0.062377553
0.062509656
0.062641925
0.062774361
0.062906963
0.063039732
0.063172668
0.063305771
0.063439041
0.063572478
0.063706082
0.063839853
0.063973792
0.064107899
0.064242173
0.064376615
0.064511224
0.064646002
0.064780948
0.064916062
0.065051344
0.065186794
0.065322413
0.065458201
0.065594157
0.065730282
0.065866576
0.066003039
0.066139672
0.066276473
0.066413444
0.066550584
0.066687893
0.066825373
0.066963021
0.06710084
0.067238829
0.067376988
0.067515317
0.067653816
0.067792486
0.067931326
0.068070337
0.068209518
0.06834887
0.068488393
0.068628087
0.068767952
0.068907989
0.069048196
0.069188575
0.069329126
0.069469848
0.069610742
0.069751808
0.069893045
0.070034455
0.070176037
