OpenDRT_v1.0-2.0_full-config_v2/transfer_functions/oetf_fujifilm_flog_to_linear.spi1d
Version 1
From -0.15 1.2
Length 8192
Components 1
{
-0.027801541
-0.027782674
-0.027763807
-0.02774494
-0.027726073
-0.027707206
-0.027688339
-0.027669472
-0.027650605
-0.027631738
-0.027612871
-0.027594004
-0.027575137
-0.02755627
-0.027537403
-0.027518536
-0.027499669
-0.027480802
-0.027461935
-0.027443068
-0.027424201
-0.027405334
-0.027386467
-0.0273676
-0.027348733
-0.027329866
-0.027310999
-0.027292132
-0.027273265
-0.027254398
-0.027235531
-0.027216664
-0.027197797
-0.02717893
-0.027160063
-0.027141196
-0.027122329
-0.027103462
-0.027084595
-0.027065728
-0.027046861
-0.027027994
-0.027009127
-0.02699026
-0.026971393
-0.026952526
-0.026933659
-0.026914792
-0.026895925
-0.026877058
-0.026858191
-0.026839324
-0.026820457
-0.02680159
-0.026782723
-0.026763856
-0.026744989
-0.026726122
-0.026707255
-0.026688388
-0.026669521
-0.026650654
-0.026631787
-0.02661292
-0.026594053
-0.026575186
-0.026556319
-0.026537452
-0.026518585
-0.026499718
-0.026480851
-0.026461984
-0.026443118
-0.026424251
-0.026405384
-0.026386517
-0.02636765
-0.026348783
-0.026329916
-0.026311049
-0.026292182
-0.026273315
-0.026254448
-0.026235581
-0.026216714
-0.026197847
-0.02617898
-0.026160113
-0.026141246
-0.026122379
-0.026103512
-0.026084645
-0.026065778
-0.026046911
-0.026028044
-0.026009177
-0.02599031
-0.025971443
-0.025952576
-0.025933709
-0.025914842
-0.025895975
-0.025877108
-0.025858241
-0.025839374
-0.025820507
-0.02580164
-0.025782773
-0.025763906
-0.025745039
-0.025726172
-0.025707305
-0.025688438
-0.025669571
-0.025650704
-0.025631837
-0.02561297
-0.025594103
-0.025575236
-0.025556369
-0.025537502
-0.025518635
-0.025499768
-0.025480901
-0.025462034
-0.025443167
-0.0254243
-0.025405433
-0.025386566
-0.025367699
-0.025348832
-0.025329965
-0.025311098
-0.025292231
-0.025273364
-0.025254497
-0.02523563
-0.025216763
-0.025197896
-0.025179029
-0.025160162
-0.025141295
-0.025122428
-0.025103561
-0.025084694
-0.025065827
-0.02504696
-0.025028093
-0.025009226
-0.024990359
-0.024971492
-0.024952625
-0.024933759
-0.024914892
-0.024896025
-0.024877158
-0.024858291
-0.024839424
-0.024820557
-0.02480169
-0.024782823
-0.024763956
-0.024745089
-0.024726222
-0.024707355
-0.024688488
-0.024669621
-0.024650754
-0.024631887
-0.02461302
-0.024594153
-0.024575286
-0.024556419
-0.024537552
-0.024518685
-0.024499818
-0.024480951
-0.024462084
-0.024443217
-0.02442435
-0.024405483
-0.024386616
-0.024367749
-0.024348882
-0.024330015
-0.024311148
-0.024292281
-0.024273414
-0.024254547
-0.02423568
-0.024216813
-0.024197946
-0.024179079
-0.024160212
-0.024141345
-0.024122478
-0.024103611
-0.024084744
-0.024065877
-0.02404701
-0.024028143
-0.024009276
-0.023990409
-0.023971542
-0.023952675
-0.023933808
-0.023914941
-0.023896074
-0.023877207
-0.02385834
-0.023839473
-0.023820606
-0.023801739
-0.023782872
-0.023764005
-0.023745138
-0.023726271
-0.023707404
-0.023688537
-0.02366967
-0.023650803
-0.023631936
-0.023613069
-0.023594202
-0.023575335
-0.023556468
-0.023537601
-0.023518734
-0.023499867
-0.023481
-0.023462133
-0.023443266
-0.0234244
-0.023405533
-0.023386666
-0.023367799
-0.023348932
-0.023330065
-0.023311198
-0.023292331
-0.023273464
-0.023254597
-0.02323573
-0.023216863
-0.023197996
-0.023179129
-0.023160262
-0.023141395
-0.023122528
-0.023103661
-0.023084794
-0.023065927
-0.02304706
-0.023028193
-0.023009326
-0.022990459
-0.022971592
-0.022952725
-0.022933858
-0.022914991
-0.022896124
-0.022877257
-0.02285839
-0.022839523
-0.022820656
-0.022801789
-0.022782922
-0.022764055
-0.022745188
-0.022726321
-0.022707454
-0.022688587
-0.02266972
-0.022650853
-0.022631986
-0.022613119
-0.022594252
-0.022575385
-0.022556518
-0.022537651
-0.022518784
-0.022499917
-0.02248105
-0.022462183
-0.022443316
-0.022424449
-0.022405582
-0.022386715
-0.022367848
-0.022348981
-0.022330114
-0.022311247
-0.02229238
-0.022273513
-0.022254646
-0.022235779
-0.022216912
-0.022198045
-0.022179178
-0.022160311
-0.022141444
-0.022122577
-0.02210371
-0.022084843
-0.022065976
-0.022047109
-0.022028242
-0.022009375
-0.021990508
-0.021971641
-0.021952774
-0.021933907
-0.021915041
-0.021896174
-0.021877307
-0.02185844
-0.021839573
-0.021820706
-0.021801839
-0.021782972
-0.021764105
-0.021745238
-0.021726371
-0.021707504
-0.021688637
-0.02166977
-0.021650903
-0.021632036
-0.021613169
-0.021594302
-0.021575435
-0.021556568
-0.021537701
-0.021518834
-0.021499967
-0.0214811
-0.021462233
-0.021443366
-0.021424499
-0.021405632
-0.021386765
-0.021367898
-0.021349031
-0.021330164
-0.021311297
-0.02129243
-0.021273563
-0.021254696
-0.021235829
-0.021216962
-0.021198095
-0.021179228
-0.021160361
-0.021141494
-0.021122627
-0.02110376
-0.021084893
-0.021066026
-0.021047159
-0.021028292
-0.021009425
-0.020990558
-0.020971691
-0.020952824
-0.020933957
-0.02091509
-0.020896223
-0.020877356
-0.020858489
-0.020839622
-0.020820755
-0.020801888
-0.020783021
-0.020764154
-0.020745287
-0.02072642
-0.020707553
-0.020688686
-0.020669819
-0.020650952
-0.020632085
-0.020613218
-0.020594351
-0.020575484
-0.020556617
-0.02053775
-0.020518883
-0.020500016
-0.020481149
-0.020462282
-0.020443415
-0.020424548
-0.020405682
-0.020386815
-0.020367948
-0.020349081
-0.020330214
-0.020311347
-0.02029248
-0.020273613
-0.020254746
-0.020235879
-0.020217012
-0.020198145
-0.020179278
-0.020160411
-0.020141544
-0.020122677
-0.02010381
-0.020084943
-0.020066076
-0.020047209
-0.020028342
-0.020009475
-0.019990608
-0.019971741
-0.019952874
-0.019934007
-0.01991514
-0.019896273
-0.019877406
-0.019858539
-0.019839672
-0.019820805
-0.019801938
-0.019783071
-0.019764204
-0.019745337
-0.01972647
-0.019707603
-0.019688736
-0.019669869
-0.019651002
-0.019632135
-0.019613268
-0.019594401
-0.019575534
-0.019556667
-0.0195378
-0.019518933
-0.019500066
-0.019481199
-0.019462332
-0.019443465
-0.019424598
-0.019405731
-0.019386864
-0.019367997
-0.01934913
-0.019330263
-0.019311396
-0.019292529
-0.019273662
-0.019254795
-0.019235928
-0.019217061
-0.019198194
-0.019179327
-0.01916046
-0.019141593
-0.019122726
-0.019103859
-0.019084992
-0.019066125
-0.019047258
-0.019028391
-0.019009524
-0.018990657
-0.01897179
-0.018952923
-0.018934056
-0.018915189
-0.018896323
-0.018877456
-0.018858589
-0.018839722
-0.018820855
-0.018801988
-0.018783121
-0.018764254
-0.018745387
-0.01872652
-0.018707653
-0.018688786
-0.018669919
-0.018651052
-0.018632185
-0.018613318
-0.018594451
-0.018575584
-0.018556717
-0.01853785
-0.018518983
-0.018500116
-0.018481249
-0.018462382
-0.018443515
-0.018424648
-0.018405781
-0.018386914
-0.018368047
-0.01834918
-0.018330313
-0.018311446
-0.018292579
-0.018273712
-0.018254845
-0.018235978
-0.018217111
-0.018198244
-0.018179377
-0.01816051
-0.018141643
-0.018122776
-0.018103909
-0.018085042
-0.018066175
-0.018047308
-0.018028441
-0.018009574
-0.017990707
-0.01797184
-0.017952973
-0.017934106
-0.017915239
-0.017896372
-0.017877505
-0.017858638
-0.017839771
-0.017820904
-0.017802037
-0.01778317
-0.017764303
-0.017745436
-0.017726569
-0.017707702
-0.017688835
-0.017669968
-0.017651101
-0.017632234
-0.017613367
-0.0175945
-0.017575633
-0.017556766
-0.017537899
-0.017519032
-0.017500165
-0.017481298
-0.017462431
-0.017443564
-0.017424697
-0.01740583
-0.017386964
-0.017368097
-0.01734923
-0.017330363
-0.017311496
-0.017292629
-0.017273762
-0.017254895
-0.017236028
-0.017217161
-0.017198294
-0.017179427
-0.01716056
-0.017141693
-0.017122826
-0.017103959
-0.017085092
-0.017066225
-0.017047358
-0.017028491
-0.017009624
-0.016990757
-0.01697189
-0.016953023
-0.016934156
-0.016915289
-0.016896422
-0.016877555
-0.016858688
-0.016839821
-0.016820954
-0.016802087
-0.01678322
-0.016764353
-0.016745486
-0.016726619
-0.016707752
-0.016688885
-0.016670018
-0.016651151
-0.016632284
-0.016613417
-0.01659455
-0.016575683
-0.016556816
-0.016537949
-0.016519082
-0.016500215
-0.016481348
-0.016462481
-0.016443614
-0.016424747
-0.01640588
-0.016387013
-0.016368146
-0.016349279
-0.016330412
-0.016311545
-0.016292678
-0.016273811
-0.016254944
-0.016236077
-0.01621721
-0.016198343
-0.016179476
-0.016160609
-0.016141742
-0.016122875
-0.016104008
-0.016085141
-0.016066274
-0.016047407
-0.01602854
-0.016009673
-0.015990806
-0.015971939
-0.015953072
-0.015934205
-0.015915338
-0.015896471
-0.015877605
-0.015858738
-0.015839871
-0.015821004
-0.015802137
-0.01578327
-0.015764403
-0.015745536
-0.015726669
-0.015707802
-0.015688935
-0.015670068
-0.015651201
-0.015632334
-0.015613467
-0.0155946
-0.015575733
-0.015556866
-0.015537999
-0.015519132
-0.015500265
-0.015481398
-0.015462531
-0.015443664
-0.015424797
-0.01540593
-0.015387063
-0.015368196
-0.015349329
-0.015330462
-0.015311595
-0.015292728
-0.015273861
-0.015254994
-0.015236127
-0.01521726
-0.015198393
-0.015179526
-0.015160659
-0.015141792
-0.015122925
-0.015104058
-0.015085191
-0.015066324
-0.015047457
-0.01502859
-0.015009723
-0.014990856
-0.014971989
-0.014953122
-0.014934255
-0.014915388
-0.014896521
-0.014877654
-0.014858787
-0.01483992
-0.014821053
-0.014802186
-0.014783319
-0.014764452
-0.014745585
-0.014726718
-0.014707851
-0.014688984
-0.014670117
-0.01465125
-0.014632383
-0.014613516
-0.014594649
-0.014575782
-0.014556915
-0.014538048
-0.014519181
-0.014500314
-0.014481447
-0.01446258
-0.014443713
-0.014424846
-0.014405979
-0.014387112
-0.014368246
-0.014349379
-0.014330512
-0.014311645
-0.014292778
-0.014273911
-0.014255044
-0.014236177
-0.01421731
-0.014198443
-0.014179576
-0.014160709
-0.014141842
-0.014122975
-0.014104108
-0.014085241
-0.014066374
-0.014047507
-0.01402864
-0.014009773
-0.013990906
-0.013972039
-0.013953172
-0.013934305
-0.013915438
-0.013896571
-0.013877704
-0.013858837
-0.01383997
-0.013821103
-0.013802236
-0.013783369
-0.013764502
-0.013745635
-0.013726768
-0.013707901
-0.013689034
-0.013670167
-0.0136513
-0.013632433
-0.013613566
-0.013594699
-0.013575832
-0.013556965
-0.013538098
-0.013519231
-0.013500364
-0.013481497
-0.01346263
-0.013443763
-0.013424896
-0.013406029
-0.013387162
-0.013368295
-0.013349428
-0.013330561
-0.013311694
-0.013292827
-0.01327396
-0.013255093
-0.013236226
-0.013217359
-0.013198492
-0.013179625
-0.013160758
-0.013141891
-0.013123024
-0.013104157
-0.01308529
-0.013066423
-0.013047556
-0.013028689
-0.013009822
-0.012990955
-0.012972088
-0.012953221
-0.012934354
-0.012915487
-0.01289662
-0.012877753
-0.012858887
-0.01284002
-0.012821153
-0.012802286
-0.012783419
-0.012764552
-0.012745685
-0.012726818
-0.012707951
-0.012689084
-0.012670217
-0.01265135
-0.012632483
-0.012613616
-0.012594749
-0.012575882
-0.012557015
-0.012538148
-0.012519281
-0.012500414
-0.012481547
-0.01246268
-0.012443813
-0.012424946
-0.012406079
-0.012387212
-0.012368345
-0.012349478
-0.012330611
-0.012311744
-0.012292877
-0.01227401
-0.012255143
-0.012236276
-0.012217409
-0.012198542
-0.012179675
-0.012160808
-0.012141941
-0.012123074
-0.012104207
-0.01208534
-0.012066473
-0.012047606
-0.012028739
-0.012009872
-0.011991005
-0.011972138
-0.011953271
-0.011934404
-0.011915537
-0.01189667
-0.011877803
-0.011858936
-0.011840069
-0.011821202
-0.011802335
-0.011783468
-0.011764601
-0.011745734
-0.011726867
-0.011708
-0.011689133
-0.011670266
-0.011651399
-0.011632532
-0.011613665
-0.011594798
-0.011575931
-0.011557064
-0.011538197
-0.01151933
-0.011500463
-0.011481596
-0.011462729
-0.011443862
-0.011424995
-0.011406128
-0.011387261
-0.011368394
-0.011349528
-0.011330661
-0.011311794
-0.011292927
-0.01127406
-0.011255193
-0.011236326
-0.011217459
-0.011198592
-0.011179725
-0.011160858
-0.011141991
-0.011123124
-0.011104257
-0.01108539
-0.011066523
-0.011047656
-0.011028789
-0.011009922
-0.010991055
-0.010972188
-0.010953321
-0.010934454
-0.010915587
-0.01089672
-0.010877853
-0.010858986
-0.010840119
-0.010821252
-0.010802385
-0.010783518
-0.010764651
-0.010745784
-0.010726917
-0.01070805
-0.010689183
-0.010670316
-0.010651449
-0.010632582
-0.010613715
-0.010594848
-0.010575981
-0.010557114
-0.010538247
-0.01051938
-0.010500513
-0.010481646
-0.010462779
-0.010443912
-0.010425045
-0.010406178
-0.010387311
-0.010368444
-0.010349577
-0.01033071
-0.010311843
-0.010292976
-0.010274109
-0.010255242
-0.010236375
-0.010217508
-0.010198641
-0.010179774
-0.010160907
-0.01014204
-0.010123173
-0.010104306
-0.010085439
-0.010066572
-0.010047705
-0.010028838
-0.010009971
-0.009991104
-0.009972237
-0.00995337
-0.009934503
-0.009915636
-0.009896769
-0.009877902
-0.009859035
-0.009840169
-0.009821302
-0.009802435
-0.009783568
-0.009764701
-0.009745834
-0.009726967
-0.0097081
-0.009689233
-0.009670366
-0.009651499
-0.009632632
-0.009613765
-0.009594898
-0.009576031
-0.009557164
-0.009538297
-0.00951943
-0.009500563
-0.009481696
-0.009462829
-0.009443962
-0.009425095
-0.009406228
-0.009387361
-0.009368494
-0.009349627
-0.00933076
-0.009311893
-0.009293026
-0.009274159
-0.009255292
-0.009236425
-0.009217558
-0.009198691
-0.009179824
-0.009160957
-0.00914209
-0.009123223
-0.009104356
-0.009085489
-0.009066622
-0.009047755
-0.009028888
-0.009010021
-0.008991154
-0.008972287
-0.00895342
-0.008934553
-0.008915686
-0.008896819
-0.008877952
-0.008859085
-0.008840218
-0.008821351
-0.008802484
-0.008783617
-0.00876475
-0.008745883
-0.008727016
-0.008708149
-0.008689282
-0.008670415
-0.008651548
-0.008632681
-0.008613814
-0.008594947
-0.00857608
-0.008557213
-0.008538346
-0.008519479
-0.008500612
-0.008481745
-0.008462878
-0.008444011
-0.008425144
-0.008406277
-0.00838741
-0.008368543
-0.008349676
-0.00833081
-0.008311943
-0.008293076
-0.008274209
-0.008255342
-0.008236475
-0.008217608
-0.008198741
-0.008179874
-0.008161007
-0.00814214
-0.008123273
-0.008104406
-0.008085539
-0.008066672
-0.008047805
-0.008028938
-0.008010071
-0.007991204
-0.007972337
-0.00795347
-0.007934603
-0.007915736
-0.007896869
-0.007878002
-0.007859135
-0.007840268
-0.007821401
-0.007802534
-0.007783667
-0.0077648
-0.007745933
-0.007727066
-0.007708199
-0.007689332
-0.007670465
-0.007651598
-0.007632731
-0.007613864
-0.007594997
-0.00757613
-0.007557263
-0.007538396
-0.007519529
-0.007500662
-0.007481795
-0.007462928
-0.007444061
-0.007425194
-0.007406327
-0.00738746
-0.007368593
-0.007349726
-0.007330859
-0.007311992
-0.007293125
-0.007274258
-0.007255391
-0.007236524
-0.007217657
-0.00719879
-0.007179923
-0.007161056
-0.007142189
-0.007123322
-0.007104455
-0.007085588
-0.007066721
-0.007047854
-0.007028987
-0.00701012
-0.006991253
-0.006972386
-0.006953519
-0.006934652
-0.006915785
-0.006896918
-0.006878051
-0.006859184
-0.006840317
-0.006821451
-0.006802584
-0.006783717
-0.00676485
-0.006745983
-0.006727116
-0.006708249
-0.006689382
-0.006670515
-0.006651648
-0.006632781
-0.006613914
-0.006595047
-0.00657618
-0.006557313
-0.006538446
-0.006519579
-0.006500712
-0.006481845
-0.006462978
-0.006444111
-0.006425244
-0.006406377
-0.00638751
-0.006368643
-0.006349776
-0.006330909
-0.006312042
-0.006293175
-0.006274308
-0.006255441
-0.006236574
-0.006217707
-0.00619884
-0.006179973
-0.006161106
-0.006142239
-0.006123372
-0.006104505
-0.006085638
-0.006066771
-0.006047904
-0.006029037
-0.00601017
-0.005991303
-0.005972436
-0.005953569
-0.005934702
-0.005915835
-0.005896968
-0.005878101
-0.005859234
-0.005840367
-0.0058215
-0.005802633
-0.005783766
-0.005764899
-0.005746032
-0.005727165
-0.005708298
-0.005689431
-0.005670564
-0.005651697
-0.00563283
-0.005613963
-0.005595096
-0.005576229
-0.005557362
-0.005538495
-0.005519628
-0.005500761
-0.005481894
-0.005463027
-0.00544416
-0.005425293
-0.005406426
-0.005387559
-0.005368692
-0.005349825
-0.005330958
-0.005312092
-0.005293225
-0.005274358
-0.005255491
-0.005236624
-0.005217757
-0.00519889
-0.005180023
-0.005161156
-0.005142289
-0.005123422
-0.005104555
-0.005085688
-0.005066821
-0.005047954
-0.005029087
-0.00501022
-0.004991353
-0.004972486
-0.004953619
-0.004934752
-0.004915885
-0.004897018
-0.004878151
-0.004859284
-0.004840417
-0.00482155
-0.004802683
-0.004783816
-0.004764949
-0.004746082
-0.004727215
-0.004708348
-0.004689481
-0.004670614
-0.004651747
-0.00463288
-0.004614013
-0.004595146
-0.004576279
-0.004557412
-0.004538545
-0.004519678
-0.004500811
-0.004481944
-0.004463077
-0.00444421
-0.004425343
-0.004406476
-0.004387609
-0.004368742
-0.004349875
-0.004331008
-0.004312141
-0.004293274
-0.004274407
-0.00425554
-0.004236673
-0.004217806
-0.004198939
-0.004180072
-0.004161205
-0.004142338
-0.004123471
-0.004104604
-0.004085737
-0.00406687
-0.004048003
-0.004029136
-0.004010269
-0.003991402
-0.003972535
-0.003953668
-0.003934801
-0.003915934
-0.003897067
-0.0038782
-0.003859333
-0.003840466
-0.003821599
-0.003802733
-0.003783866
-0.003764999
-0.003746132
-0.003727265
-0.003708398
-0.003689531
-0.003670664
-0.003651797
-0.00363293
-0.003614063
-0.003595196
-0.003576329
-0.003557462
-0.003538595
-0.003519728
-0.003500861
-0.003481994
-0.003463127
-0.00344426
-0.003425393
-0.003406526
-0.003387659
-0.003368792
-0.003349925
-0.003331058
-0.003312191
-0.003293324
-0.003274457
-0.00325559
-0.003236723
-0.003217856
-0.003198989
-0.003180122
-0.003161255
-0.003142388
-0.003123521
-0.003104654
-0.003085787
-0.00306692
-0.003048053
-0.003029186
-0.003010319
-0.002991452
-0.002972585
-0.002953718
-0.002934851
-0.002915984
-0.002897117
-0.00287825
-0.002859383
-0.002840516
-0.002821649
-0.002802782
-0.002783915
-0.002765048
-0.002746181
-0.002727314
-0.002708447
-0.00268958
-0.002670713
-0.002651846
-0.002632979
-0.002614112
-0.002595245
-0.002576378
-0.002557511
-0.002538644
-0.002519777
-0.00250091
-0.002482043
-0.002463176
-0.002444309
-0.002425442
-0.002406575
-0.002387708
-0.002368841
-0.002349974
-0.002331107
-0.00231224
-0.002293374
-0.002274507
-0.00225564
-0.002236773
-0.002217906
-0.002199039
-0.002180172
-0.002161305
-0.002142438
-0.002123571
-0.002104704
-0.002085837
-0.00206697
-0.002048103
-0.002029236
-0.002010369
-0.001991502
-0.001972635
-0.001953768
-0.001934901
-0.001916034
-0.001897167
-0.0018783
-0.001859433
-0.001840566
-0.001821699
-0.001802832
-0.001783965
-0.001765098
-0.001746231
-0.001727364
-0.001708497
-0.00168963
-0.001670763
-0.001651896
-0.001633029
-0.001614162
-0.001595295
-0.001576428
-0.001557561
-0.001538694
-0.001519827
-0.00150096
-0.001482093
-0.001463226
-0.001444359
-0.001425492
-0.001406625
-0.001387758
-0.001368891
-0.001350024
-0.001331157
-0.00131229
-0.001293423
-0.001274556
-0.001255689
-0.001236822
-0.001217955
-0.001199088
-0.001180221
-0.001161354
-0.001142487
-0.00112362
-0.001104753
-0.001085886
-0.001067019
-0.001048152
-0.001029285
-0.001010418
-0.000991551
-0.000972684
-0.000953817
-0.00093495
-0.000916083
-0.000897216
-0.000878349
-0.000859482
-0.000840615
-0.000821748
-0.000802881
-0.000784015
-0.000765148
-0.000746281
-0.000727414
-0.000708547
-0.00068968
-0.000670813
-0.000651946
-0.000633079
-0.000614212
-0.000595345
-0.000576478
-0.000557611
-0.000538744
-0.000519877
-0.00050101
-0.000482143
-0.000463276
-0.000444409
-0.000425542
-0.000406675
-0.000387808
-0.000368941
-0.000350074
-0.000331207
-0.00031234
-0.000293473
-0.000274606
-0.000255739
-0.000236872
-0.000218005
-0.000199138
-0.000180271
-0.000161404
-0.000142537
-0.00012367
-0.000104803
-8.5936e-05
-6.7069e-05
-4.8202e-05
-2.9335e-05
-1.0468e-05
8.399e-06
2.7266e-05
4.6133e-05
6.5e-05
8.3867e-05
0.000102734
0.000121601
0.000140468
0.000159335
0.000178202
0.000197069
0.000215936
0.000234803
0.00025367
0.000272537
0.000291404
0.000310271
0.000329138
0.000348005
0.000366872
0.000385739
0.000404606
0.000423473
0.00044234
0.000461207
0.000480074
0.000498941
0.000517808
0.000536675
0.000555542
0.000574409
0.000593276
0.000612143
0.00063101
0.000649877
0.000668744
0.000687611
0.000706478
0.000725344
0.000744211
0.000763078
0.000781945
0.000800812
0.000819679
0.000838546
0.000857413
0.00087628
0.000907487
0.000927261
0.000947057
0.000966875
0.000986715
0.001006577
0.00102646
0.001046366
0.001066293
0.001086242
0.001106214
0.001126207
0.001146222
0.001166259
0.001186319
0.0012064
0.001226504
0.00124663
0.001266778
0.001286948
0.00130714
0.001327355
0.001347592
0.001367851
0.001388132
0.001408436
0.001428763
0.001449111
0.001469482
0.001489876
0.001510292
0.00153073
0.001551191
0.001571674
0.00159218
0.001612709
0.00163326
0.001653834
0.001674431
0.00169505
0.001715692
0.001736357
0.001757044
0.001777754
0.001798487
0.001819243
0.001840022
0.001860824
0.001881648
0.001902496
0.001923366
0.00194426
0.001965176
0.001986116
0.002007078
0.002028064
0.002049073
0.002070105
0.00209116
0.002112238
0.00213334
0.002154465
0.002175613
0.002196784
0.002217979
0.002239197
0.002260438
0.002281703
0.002302991
0.002324303
0.002345638
0.002366997
0.002388379
0.002409785
0.002431214
0.002452667
0.002474143
0.002495644
0.002517168
0.002538715
0.002560287
0.002581882
0.002603501
0.002625143
0.00264681
0.0026685
0.002690215
0.002711953
0.002733715
0.002755501
0.002777312
0.002799146
0.002821004
0.002842887
0.002864793
0.002886724
0.002908678
0.002930657
0.00295266
0.002974688
0.002996739
0.003018815
0.003040916
0.00306304
0.003085189
0.003107363
0.00312956
0.003151783
0.003174029
0.003196301
0.003218597
0.003240917
0.003263262
0.003285631
0.003308026
0.003330444
0.003352888
0.003375356
0.003397849
0.003420367
0.00344291
0.003465477
0.00348807
0.003510687
0.003533329
0.003555996
0.003578688
0.003601405
0.003624147
0.003646914
0.003669707
0.003692524
0.003715366
0.003738234
0.003761127
0.003784045
0.003806988
0.003829957
0.00385295
0.00387597
0.003899014
0.003922084
0.00394518
0.0039683
0.003991447
0.004014618
0.004037816
0.004061038
0.004084287
0.004107561
0.004130861
0.004154186
0.004177537
0.004200914
0.004224316
0.004247745
0.004271199
0.004294679
0.004318184
0.004341716
0.004365274
0.004388857
0.004412467
0.004436102
0.004459764
0.004483452
0.004507166
0.004530905
0.004554671
0.004578464
0.004602282
0.004626127
0.004649998
0.004673895
0.004697819
0.004721769
0.004745745
0.004769748
0.004793777
0.004817832
0.004841915
0.004866023
0.004890158
0.00491432
0.004938509
0.004962724
0.004986966
0.005011234
0.005035529
0.005059851
0.0050842
0.005108576
0.005132978
0.005157407
0.005181863
0.005206347
0.005230857
0.005255394
0.005279958
0.005304549
0.005329168
0.005353813
0.005378486
0.005403186
0.005427913
0.005452667
0.005477448
0.005502257
0.005527093
0.005551957
0.005576848
0.005601766
0.005626712
0.005651685
0.005676686
0.005701714
0.00572677
0.005751853
0.005776964
0.005802103
0.00582727
0.005852464
0.005877686
0.005902935
0.005928213
0.005953518
0.005978852
0.006004213
0.006029602
0.006055019
0.006080464
0.006105937
0.006131438
0.006156968
0.006182525
0.00620811
0.006233724
0.006259366
0.006285036
0.006310735
0.006336462
0.006362217
0.006388
0.006413812
0.006439652
0.006465521
0.006491419
0.006517344
0.006543299
0.006569282
0.006595293
0.006621334
0.006647403
0.0066735
0.006699627
0.006725782
0.006751966
0.006778179
0.006804421
0.006830691
0.006856991
0.006883319
0.006909677
0.006936064
0.006962479
0.006988924
0.007015398
0.007041901
0.007068433
0.007094995
0.007121586
0.007148206
0.007174855
0.007201534
0.007228242
0.007254979
0.007281746
0.007308543
0.007335369
0.007362224
0.00738911
0.007416024
0.007442969
0.007469943
0.007496947
0.00752398
0.007551044
0.007578137
0.00760526
0.007632413
0.007659595
0.007686808
0.007714051
0.007741324
0.007768626
0.007795959
0.007823322
0.007850715
0.007878139
0.007905592
0.007933076
0.00796059
0.007988134
0.008015709
0.008043314
0.00807095
0.008098615
0.008126312
0.008154039
0.008181796
0.008209584
0.008237403
0.008265252
0.008293132
0.008321043
0.008348984
0.008376956
0.008404959
0.008432993
0.008461058
0.008489154
0.00851728
0.008545438
0.008573627
0.008601846
0.008630097
0.008658379
0.008686692
0.008715036
0.008743412
0.008771818
0.008800256
0.008828726
0.008857227
0.008885759
0.008914322
0.008942917
0.008971544
0.009000202
0.009028891
0.009057613
0.009086365
0.00911515
0.009143966
0.009172814
0.009201694
0.009230606
0.009259549
0.009288524
0.009317532
0.009346571
0.009375642
0.009404745
0.00943388
0.009463048
0.009492247
0.009521479
0.009550743
0.009580039
0.009609367
0.009638728
0.009668121
0.009697547
0.009727004
0.009756495
0.009786017
0.009815573
0.009845161
0.009874781
0.009904434
