OpenDRT_v1.0-2.0_full-config_v2/transfer_functions/oetf_panasonic_vlog_to_linear.spi1d
Version 1
From -0.15 1.2
Length 8192
Components 1
{
-0.049107143
-0.049077712
-0.04904828
-0.049018849
-0.048989418
-0.048959987
-0.048930555
-0.048901124
-0.048871693
-0.048842262
-0.04881283
-0.048783399
-0.048753968
-0.048724537
-0.048695105
-0.048665674
-0.048636243
-0.048606811
-0.04857738
-0.048547949
-0.048518518
-0.048489086
-0.048459655
-0.048430224
-0.048400793
-0.048371361
-0.04834193
-0.048312499
-0.048283068
-0.048253636
-0.048224205
-0.048194774
-0.048165343
-0.048135911
-0.04810648
-0.048077049
-0.048047618
-0.048018186
-0.047988755
-0.047959324
-0.047929893
-0.047900461
-0.04787103
-0.047841599
-0.047812168
-0.047782736
-0.047753305
-0.047723874
-0.047694443
-0.047665011
-0.04763558
-0.047606149
-0.047576717
-0.047547286
-0.047517855
-0.047488424
-0.047458992
-0.047429561
-0.04740013
-0.047370699
-0.047341267
-0.047311836
-0.047282405
-0.047252974
-0.047223542
-0.047194111
-0.04716468
-0.047135249
-0.047105817
-0.047076386
-0.047046955
-0.047017524
-0.046988092
-0.046958661
-0.04692923
-0.046899799
-0.046870367
-0.046840936
-0.046811505
-0.046782074
-0.046752642
-0.046723211
-0.04669378
-0.046664349
-0.046634917
-0.046605486
-0.046576055
-0.046546623
-0.046517192
-0.046487761
-0.04645833
-0.046428898
-0.046399467
-0.046370036
-0.046340605
-0.046311173
-0.046281742
-0.046252311
-0.04622288
-0.046193448
-0.046164017
-0.046134586
-0.046105155
-0.046075723
-0.046046292
-0.046016861
-0.04598743
-0.045957998
-0.045928567
-0.045899136
-0.045869705
-0.045840273
-0.045810842
-0.045781411
-0.04575198
-0.045722548
-0.045693117
-0.045663686
-0.045634254
-0.045604823
-0.045575392
-0.045545961
-0.045516529
-0.045487098
-0.045457667
-0.045428236
-0.045398804
-0.045369373
-0.045339942
-0.045310511
-0.045281079
-0.045251648
-0.045222217
-0.045192786
-0.045163354
-0.045133923
-0.045104492
-0.045075061
-0.045045629
-0.045016198
-0.044986767
-0.044957336
-0.044927904
-0.044898473
-0.044869042
-0.044839611
-0.044810179
-0.044780748
-0.044751317
-0.044721886
-0.044692454
-0.044663023
-0.044633592
-0.04460416
-0.044574729
-0.044545298
-0.044515867
-0.044486435
-0.044457004
-0.044427573
-0.044398142
-0.04436871
-0.044339279
-0.044309848
-0.044280417
-0.044250985
-0.044221554
-0.044192123
-0.044162692
-0.04413326
-0.044103829
-0.044074398
-0.044044967
-0.044015535
-0.043986104
-0.043956673
-0.043927242
-0.04389781
-0.043868379
-0.043838948
-0.043809517
-0.043780085
-0.043750654
-0.043721223
-0.043691792
-0.04366236
-0.043632929
-0.043603498
-0.043574066
-0.043544635
-0.043515204
-0.043485773
-0.043456341
-0.04342691
-0.043397479
-0.043368048
-0.043338616
-0.043309185
-0.043279754
-0.043250323
-0.043220891
-0.04319146
-0.043162029
-0.043132598
-0.043103166
-0.043073735
-0.043044304
-0.043014873
-0.042985441
-0.04295601
-0.042926579
-0.042897148
-0.042867716
-0.042838285
-0.042808854
-0.042779423
-0.042749991
-0.04272056
-0.042691129
-0.042661698
-0.042632266
-0.042602835
-0.042573404
-0.042543972
-0.042514541
-0.04248511
-0.042455679
-0.042426247
-0.042396816
-0.042367385
-0.042337954
-0.042308522
-0.042279091
-0.04224966
-0.042220229
-0.042190797
-0.042161366
-0.042131935
-0.042102504
-0.042073072
-0.042043641
-0.04201421
-0.041984779
-0.041955347
-0.041925916
-0.041896485
-0.041867054
-0.041837622
-0.041808191
-0.04177876
-0.041749329
-0.041719897
-0.041690466
-0.041661035
-0.041631604
-0.041602172
-0.041572741
-0.04154331
-0.041513878
-0.041484447
-0.041455016
-0.041425585
-0.041396153
-0.041366722
-0.041337291
-0.04130786
-0.041278428
-0.041248997
-0.041219566
-0.041190135
-0.041160703
-0.041131272
-0.041101841
-0.04107241
-0.041042978
-0.041013547
-0.040984116
-0.040954685
-0.040925253
-0.040895822
-0.040866391
-0.04083696
-0.040807528
-0.040778097
-0.040748666
-0.040719235
-0.040689803
-0.040660372
-0.040630941
-0.040601509
-0.040572078
-0.040542647
-0.040513216
-0.040483784
-0.040454353
-0.040424922
-0.040395491
-0.040366059
-0.040336628
-0.040307197
-0.040277766
-0.040248334
-0.040218903
-0.040189472
-0.040160041
-0.040130609
-0.040101178
-0.040071747
-0.040042316
-0.040012884
-0.039983453
-0.039954022
-0.039924591
-0.039895159
-0.039865728
-0.039836297
-0.039806866
-0.039777434
-0.039748003
-0.039718572
-0.039689141
-0.039659709
-0.039630278
-0.039600847
-0.039571415
-0.039541984
-0.039512553
-0.039483122
-0.03945369
-0.039424259
-0.039394828
-0.039365397
-0.039335965
-0.039306534
-0.039277103
-0.039247672
-0.03921824
-0.039188809
-0.039159378
-0.039129947
-0.039100515
-0.039071084
-0.039041653
-0.039012222
-0.03898279
-0.038953359
-0.038923928
-0.038894497
-0.038865065
-0.038835634
-0.038806203
-0.038776772
-0.03874734
-0.038717909
-0.038688478
-0.038659047
-0.038629615
-0.038600184
-0.038570753
-0.038541321
-0.03851189
-0.038482459
-0.038453028
-0.038423596
-0.038394165
-0.038364734
-0.038335303
-0.038305871
-0.03827644
-0.038247009
-0.038217578
-0.038188146
-0.038158715
-0.038129284
-0.038099853
-0.038070421
-0.03804099
-0.038011559
-0.037982128
-0.037952696
-0.037923265
-0.037893834
-0.037864403
-0.037834971
-0.03780554
-0.037776109
-0.037746678
-0.037717246
-0.037687815
-0.037658384
-0.037628953
-0.037599521
-0.03757009
-0.037540659
-0.037511227
-0.037481796
-0.037452365
-0.037422934
-0.037393502
-0.037364071
-0.03733464
-0.037305209
-0.037275777
-0.037246346
-0.037216915
-0.037187484
-0.037158052
-0.037128621
-0.03709919
-0.037069759
-0.037040327
-0.037010896
-0.036981465
-0.036952034
-0.036922602
-0.036893171
-0.03686374
-0.036834309
-0.036804877
-0.036775446
-0.036746015
-0.036716584
-0.036687152
-0.036657721
-0.03662829
-0.036598859
-0.036569427
-0.036539996
-0.036510565
-0.036481133
-0.036451702
-0.036422271
-0.03639284
-0.036363408
-0.036333977
-0.036304546
-0.036275115
-0.036245683
-0.036216252
-0.036186821
-0.03615739
-0.036127958
-0.036098527
-0.036069096
-0.036039665
-0.036010233
-0.035980802
-0.035951371
-0.03592194
-0.035892508
-0.035863077
-0.035833646
-0.035804215
-0.035774783
-0.035745352
-0.035715921
-0.03568649
-0.035657058
-0.035627627
-0.035598196
-0.035568764
-0.035539333
-0.035509902
-0.035480471
-0.035451039
-0.035421608
-0.035392177
-0.035362746
-0.035333314
-0.035303883
-0.035274452
-0.035245021
-0.035215589
-0.035186158
-0.035156727
-0.035127296
-0.035097864
-0.035068433
-0.035039002
-0.035009571
-0.034980139
-0.034950708
-0.034921277
-0.034891846
-0.034862414
-0.034832983
-0.034803552
-0.034774121
-0.034744689
-0.034715258
-0.034685827
-0.034656396
-0.034626964
-0.034597533
-0.034568102
-0.03453867
-0.034509239
-0.034479808
-0.034450377
-0.034420945
-0.034391514
-0.034362083
-0.034332652
-0.03430322
-0.034273789
-0.034244358
-0.034214927
-0.034185495
-0.034156064
-0.034126633
-0.034097202
-0.03406777
-0.034038339
-0.034008908
-0.033979477
-0.033950045
-0.033920614
-0.033891183
-0.033861752
-0.03383232
-0.033802889
-0.033773458
-0.033744027
-0.033714595
-0.033685164
-0.033655733
-0.033626302
-0.03359687
-0.033567439
-0.033538008
-0.033508576
-0.033479145
-0.033449714
-0.033420283
-0.033390851
-0.03336142
-0.033331989
-0.033302558
-0.033273126
-0.033243695
-0.033214264
-0.033184833
-0.033155401
-0.03312597
-0.033096539
-0.033067108
-0.033037676
-0.033008245
-0.032978814
-0.032949383
-0.032919951
-0.03289052
-0.032861089
-0.032831658
-0.032802226
-0.032772795
-0.032743364
-0.032713933
-0.032684501
-0.03265507
-0.032625639
-0.032596208
-0.032566776
-0.032537345
-0.032507914
-0.032478482
-0.032449051
-0.03241962
-0.032390189
-0.032360757
-0.032331326
-0.032301895
-0.032272464
-0.032243032
-0.032213601
-0.03218417
-0.032154739
-0.032125307
-0.032095876
-0.032066445
-0.032037014
-0.032007582
-0.031978151
-0.03194872
-0.031919289
-0.031889857
-0.031860426
-0.031830995
-0.031801564
-0.031772132
-0.031742701
-0.03171327
-0.031683839
-0.031654407
-0.031624976
-0.031595545
-0.031566114
-0.031536682
-0.031507251
-0.03147782
-0.031448388
-0.031418957
-0.031389526
-0.031360095
-0.031330663
-0.031301232
-0.031271801
-0.03124237
-0.031212938
-0.031183507
-0.031154076
-0.031124645
-0.031095213
-0.031065782
-0.031036351
-0.03100692
-0.030977488
-0.030948057
-0.030918626
-0.030889195
-0.030859763
-0.030830332
-0.030800901
-0.03077147
-0.030742038
-0.030712607
-0.030683176
-0.030653745
-0.030624313
-0.030594882
-0.030565451
-0.030536019
-0.030506588
-0.030477157
-0.030447726
-0.030418294
-0.030388863
-0.030359432
-0.030330001
-0.030300569
-0.030271138
-0.030241707
-0.030212276
-0.030182844
-0.030153413
-0.030123982
-0.030094551
-0.030065119
-0.030035688
-0.030006257
-0.029976826
-0.029947394
-0.029917963
-0.029888532
-0.029859101
-0.029829669
-0.029800238
-0.029770807
-0.029741376
-0.029711944
-0.029682513
-0.029653082
-0.029623651
-0.029594219
-0.029564788
-0.029535357
-0.029505925
-0.029476494
-0.029447063
-0.029417632
-0.0293882
-0.029358769
-0.029329338
-0.029299907
-0.029270475
-0.029241044
-0.029211613
-0.029182182
-0.02915275
-0.029123319
-0.029093888
-0.029064457
-0.029035025
-0.029005594
-0.028976163
-0.028946732
-0.0289173
-0.028887869
-0.028858438
-0.028829007
-0.028799575
-0.028770144
-0.028740713
-0.028711282
-0.02868185
-0.028652419
-0.028622988
-0.028593557
-0.028564125
-0.028534694
-0.028505263
-0.028475831
-0.0284464
-0.028416969
-0.028387538
-0.028358106
-0.028328675
-0.028299244
-0.028269813
-0.028240381
-0.02821095
-0.028181519
-0.028152088
-0.028122656
-0.028093225
-0.028063794
-0.028034363
-0.028004931
-0.0279755
-0.027946069
-0.027916638
-0.027887206
-0.027857775
-0.027828344
-0.027798913
-0.027769481
-0.02774005
-0.027710619
-0.027681188
-0.027651756
-0.027622325
-0.027592894
-0.027563463
-0.027534031
-0.0275046
-0.027475169
-0.027445737
-0.027416306
-0.027386875
-0.027357444
-0.027328012
-0.027298581
-0.02726915
-0.027239719
-0.027210287
-0.027180856
-0.027151425
-0.027121994
-0.027092562
-0.027063131
-0.0270337
-0.027004269
-0.026974837
-0.026945406
-0.026915975
-0.026886544
-0.026857112
-0.026827681
-0.02679825
-0.026768819
-0.026739387
-0.026709956
-0.026680525
-0.026651094
-0.026621662
-0.026592231
-0.0265628
-0.026533369
-0.026503937
-0.026474506
-0.026445075
-0.026415643
-0.026386212
-0.026356781
-0.02632735
-0.026297918
-0.026268487
-0.026239056
-0.026209625
-0.026180193
-0.026150762
-0.026121331
-0.0260919
-0.026062468
-0.026033037
-0.026003606
-0.025974175
-0.025944743
-0.025915312
-0.025885881
-0.02585645
-0.025827018
-0.025797587
-0.025768156
-0.025738725
-0.025709293
-0.025679862
-0.025650431
-0.025621
-0.025591568
-0.025562137
-0.025532706
-0.025503274
-0.025473843
-0.025444412
-0.025414981
-0.025385549
-0.025356118
-0.025326687
-0.025297256
-0.025267824
-0.025238393
-0.025208962
-0.025179531
-0.025150099
-0.025120668
-0.025091237
-0.025061806
-0.025032374
-0.025002943
-0.024973512
-0.024944081
-0.024914649
-0.024885218
-0.024855787
-0.024826356
-0.024796924
-0.024767493
-0.024738062
-0.024708631
-0.024679199
-0.024649768
-0.024620337
-0.024590906
-0.024561474
-0.024532043
-0.024502612
-0.02447318
-0.024443749
-0.024414318
-0.024384887
-0.024355455
-0.024326024
-0.024296593
-0.024267162
-0.02423773
-0.024208299
-0.024178868
-0.024149437
-0.024120005
-0.024090574
-0.024061143
-0.024031712
-0.02400228
-0.023972849
-0.023943418
-0.023913987
-0.023884555
-0.023855124
-0.023825693
-0.023796262
-0.02376683
-0.023737399
-0.023707968
-0.023678537
-0.023649105
-0.023619674
-0.023590243
-0.023560812
-0.02353138
-0.023501949
-0.023472518
-0.023443086
-0.023413655
-0.023384224
-0.023354793
-0.023325361
-0.02329593
-0.023266499
-0.023237068
-0.023207636
-0.023178205
-0.023148774
-0.023119343
-0.023089911
-0.02306048
-0.023031049
-0.023001618
-0.022972186
-0.022942755
-0.022913324
-0.022883893
-0.022854461
-0.02282503
-0.022795599
-0.022766168
-0.022736736
-0.022707305
-0.022677874
-0.022648443
-0.022619011
-0.02258958
-0.022560149
-0.022530718
-0.022501286
-0.022471855
-0.022442424
-0.022412992
-0.022383561
-0.02235413
-0.022324699
-0.022295267
-0.022265836
-0.022236405
-0.022206974
-0.022177542
-0.022148111
-0.02211868
-0.022089249
-0.022059817
-0.022030386
-0.022000955
-0.021971524
-0.021942092
-0.021912661
-0.02188323
-0.021853799
-0.021824367
-0.021794936
-0.021765505
-0.021736074
-0.021706642
-0.021677211
-0.02164778
-0.021618349
-0.021588917
-0.021559486
-0.021530055
-0.021500624
-0.021471192
-0.021441761
-0.02141233
-0.021382898
-0.021353467
-0.021324036
-0.021294605
-0.021265173
-0.021235742
-0.021206311
-0.02117688
-0.021147448
-0.021118017
-0.021088586
-0.021059155
-0.021029723
-0.021000292
-0.020970861
-0.02094143
-0.020911998
-0.020882567
-0.020853136
-0.020823705
-0.020794273
-0.020764842
-0.020735411
-0.02070598
-0.020676548
-0.020647117
-0.020617686
-0.020588255
-0.020558823
-0.020529392
-0.020499961
-0.02047053
-0.020441098
-0.020411667
-0.020382236
-0.020352804
-0.020323373
-0.020293942
-0.020264511
-0.020235079
-0.020205648
-0.020176217
-0.020146786
-0.020117354
-0.020087923
-0.020058492
-0.020029061
-0.019999629
-0.019970198
-0.019940767
-0.019911336
-0.019881904
-0.019852473
-0.019823042
-0.019793611
-0.019764179
-0.019734748
-0.019705317
-0.019675886
-0.019646454
-0.019617023
-0.019587592
-0.019558161
-0.019528729
-0.019499298
-0.019469867
-0.019440435
-0.019411004
-0.019381573
-0.019352142
-0.01932271
-0.019293279
-0.019263848
-0.019234417
-0.019204985
-0.019175554
-0.019146123
-0.019116692
-0.01908726
-0.019057829
-0.019028398
-0.018998967
-0.018969535
-0.018940104
-0.018910673
-0.018881242
-0.01885181
-0.018822379
-0.018792948
-0.018763517
-0.018734085
-0.018704654
-0.018675223
-0.018645792
-0.01861636
-0.018586929
-0.018557498
-0.018528067
-0.018498635
-0.018469204
-0.018439773
-0.018410341
-0.01838091
-0.018351479
-0.018322048
-0.018292616
-0.018263185
-0.018233754
-0.018204323
-0.018174891
-0.01814546
-0.018116029
-0.018086598
-0.018057166
-0.018027735
-0.017998304
-0.017968873
-0.017939441
-0.01791001
-0.017880579
-0.017851148
-0.017821716
-0.017792285
-0.017762854
-0.017733423
-0.017703991
-0.01767456
-0.017645129
-0.017615698
-0.017586266
-0.017556835
-0.017527404
-0.017497973
-0.017468541
-0.01743911
-0.017409679
-0.017380247
-0.017350816
-0.017321385
-0.017291954
-0.017262522
-0.017233091
-0.01720366
-0.017174229
-0.017144797
-0.017115366
-0.017085935
-0.017056504
-0.017027072
-0.016997641
-0.01696821
-0.016938779
-0.016909347
-0.016879916
-0.016850485
-0.016821054
-0.016791622
-0.016762191
-0.01673276
-0.016703329
-0.016673897
-0.016644466
-0.016615035
-0.016585604
-0.016556172
-0.016526741
-0.01649731
-0.016467879
-0.016438447
-0.016409016
-0.016379585
-0.016350153
-0.016320722
-0.016291291
-0.01626186
-0.016232428
-0.016202997
-0.016173566
-0.016144135
-0.016114703
-0.016085272
-0.016055841
-0.01602641
-0.015996978
-0.015967547
-0.015938116
-0.015908685
-0.015879253
-0.015849822
-0.015820391
-0.01579096
-0.015761528
-0.015732097
-0.015702666
-0.015673235
-0.015643803
-0.015614372
-0.015584941
-0.01555551
-0.015526078
-0.015496647
-0.015467216
-0.015437785
-0.015408353
-0.015378922
-0.015349491
-0.015320059
-0.015290628
-0.015261197
-0.015231766
-0.015202334
-0.015172903
-0.015143472
-0.015114041
-0.015084609
-0.015055178
-0.015025747
-0.014996316
-0.014966884
-0.014937453
-0.014908022
-0.014878591
-0.014849159
-0.014819728
-0.014790297
-0.014760866
-0.014731434
-0.014702003
-0.014672572
-0.014643141
-0.014613709
-0.014584278
-0.014554847
-0.014525416
-0.014495984
-0.014466553
-0.014437122
-0.01440769
-0.014378259
-0.014348828
-0.014319397
-0.014289965
-0.014260534
-0.014231103
-0.014201672
-0.01417224
-0.014142809
-0.014113378
-0.014083947
-0.014054515
-0.014025084
-0.013995653
-0.013966222
-0.01393679
-0.013907359
-0.013877928
-0.013848497
-0.013819065
-0.013789634
-0.013760203
-0.013730772
-0.01370134
-0.013671909
-0.013642478
-0.013613047
-0.013583615
-0.013554184
-0.013524753
-0.013495322
-0.01346589
-0.013436459
-0.013407028
-0.013377596
-0.013348165
-0.013318734
-0.013289303
-0.013259871
-0.01323044
-0.013201009
-0.013171578
-0.013142146
-0.013112715
-0.013083284
-0.013053853
-0.013024421
-0.01299499
-0.012965559
-0.012936128
-0.012906696
-0.012877265
-0.012847834
-0.012818403
-0.012788971
-0.01275954
-0.012730109
-0.012700678
-0.012671246
-0.012641815
-0.012612384
-0.012582953
-0.012553521
-0.01252409
-0.012494659
-0.012465228
-0.012435796
-0.012406365
-0.012376934
-0.012347502
-0.012318071
-0.01228864
-0.012259209
-0.012229777
-0.012200346
-0.012170915
-0.012141484
-0.012112052
-0.012082621
-0.01205319
-0.012023759
-0.011994327
-0.011964896
-0.011935465
-0.011906034
-0.011876602
-0.011847171
-0.01181774
-0.011788309
-0.011758877
-0.011729446
-0.011700015
-0.011670584
-0.011641152
-0.011611721
-0.01158229
-0.011552859
-0.011523427
-0.011493996
-0.011464565
-0.011435134
-0.011405702
-0.011376271
-0.01134684
-0.011317408
-0.011287977
-0.011258546
-0.011229115
-0.011199683
-0.011170252
-0.011140821
-0.01111139
-0.011081958
-0.011052527
-0.011023096
-0.010993665
-0.010964233
-0.010934802
-0.010905371
-0.01087594
-0.010846508
-0.010817077
-0.010787646
-0.010758215
-0.010728783
-0.010699352
-0.010669921
-0.01064049
-0.010611058
-0.010581627
-0.010552196
-0.010522765
-0.010493333
-0.010463902
-0.010434471
-0.01040504
-0.010375608
-0.010346177
-0.010316746
-0.010287314
-0.010257883
-0.010228452
-0.010199021
-0.010169589
-0.010140158
-0.010110727
-0.010081296
-0.010051864
-0.010022433
-0.009993002
-0.009963571
-0.009934139
-0.009904708
-0.009875277
-0.009845846
-0.009816414
-0.009786983
-0.009757552
-0.009728121
-0.009698689
-0.009669258
-0.009639827
-0.009610396
-0.009580964
-0.009551533
-0.009522102
-0.009492671
-0.009463239
-0.009433808
-0.009404377
-0.009374945
-0.009345514
-0.009316083
-0.009286652
-0.00925722
-0.009227789
-0.009198358
-0.009168927
-0.009139495
-0.009110064
-0.009080633
-0.009051202
-0.00902177
-0.008992339
-0.008962908
-0.008933477
-0.008904045
-0.008874614
-0.008845183
-0.008815752
-0.00878632
-0.008756889
-0.008727458
-0.008698027
-0.008668595
-0.008639164
-0.008609733
-0.008580302
-0.00855087
-0.008521439
-0.008492008
-0.008462577
-0.008433145
-0.008403714
-0.008374283
-0.008344851
-0.00831542
-0.008285989
-0.008256558
-0.008227126
-0.008197695
-0.008168264
-0.008138833
-0.008109401
-0.00807997
-0.008050539
-0.008021108
-0.007991676
-0.007962245
-0.007932814
-0.007903383
-0.007873951
-0.00784452
-0.007815089
-0.007785658
-0.007756226
-0.007726795
-0.007697364
-0.007667933
-0.007638501
-0.00760907
-0.007579639
-0.007550208
-0.007520776
-0.007491345
-0.007461914
-0.007432483
-0.007403051
-0.00737362
-0.007344189
-0.007314757
-0.007285326
-0.007255895
-0.007226464
-0.007197032
-0.007167601
-0.00713817
-0.007108739
-0.007079307
-0.007049876
-0.007020445
-0.006991014
-0.006961582
-0.006932151
-0.00690272
-0.006873289
-0.006843857
-0.006814426
-0.006784995
-0.006755564
-0.006726132
-0.006696701
-0.00666727
-0.006637839
-0.006608407
-0.006578976
-0.006549545
-0.006520114
-0.006490682
-0.006461251
-0.00643182
-0.006402389
-0.006372957
-0.006343526
-0.006314095
-0.006284663
-0.006255232
-0.006225801
-0.00619637
-0.006166938
-0.006137507
-0.006108076
-0.006078645
-0.006049213
-0.006019782
-0.005990351
-0.00596092
-0.005931488
-0.005902057
-0.005872626
-0.005843195
-0.005813763
-0.005784332
-0.005754901
-0.00572547
-0.005696038
-0.005666607
-0.005637176
-0.005607745
-0.005578313
-0.005548882
-0.005519451
-0.00549002
-0.005460588
-0.005431157
-0.005401726
-0.005372295
-0.005342863
-0.005313432
-0.005284001
-0.005254569
-0.005225138
-0.005195707
-0.005166276
-0.005136844
-0.005107413
-0.005077982
-0.005048551
-0.005019119
-0.004989688
-0.004960257
-0.004930826
-0.004901394
-0.004871963
-0.004842532
-0.004813101
-0.004783669
-0.004754238
-0.004724807
-0.004695376
-0.004665944
-0.004636513
-0.004607082
-0.004577651
-0.004548219
-0.004518788
-0.004489357
-0.004459926
-0.004430494
-0.004401063
-0.004371632
-0.0043422
-0.004312769
-0.004283338
-0.004253907
-0.004224475
-0.004195044
-0.004165613
-0.004136182
-0.00410675
-0.004077319
-0.004047888
-0.004018457
-0.003989025
-0.003959594
-0.003930163
-0.003900732
-0.0038713
-0.003841869
-0.003812438
-0.003783007
-0.003753575
-0.003724144
-0.003694713
-0.003665282
-0.00363585
-0.003606419
-0.003576988
-0.003547557
-0.003518125
-0.003488694
-0.003459263
-0.003429832
-0.0034004
-0.003370969
-0.003341538
-0.003312106
-0.003282675
-0.003253244
-0.003223813
-0.003194381
-0.00316495
-0.003135519
-0.003106088
-0.003076656
-0.003047225
-0.003017794
-0.002988363
-0.002958931
-0.0029295
-0.002900069
-0.002870638
-0.002841206
-0.002811775
-0.002782344
-0.002752913
-0.002723481
-0.00269405
-0.002664619
-0.002635188
-0.002605756
-0.002576325
-0.002546894
-0.002517463
-0.002488031
-0.0024586
-0.002429169
-0.002399738
-0.002370306
-0.002340875
-0.002311444
-0.002282012
-0.002252581
-0.00222315
-0.002193719
-0.002164287
-0.002134856
-0.002105425
-0.002075994
-0.002046562
-0.002017131
-0.0019877
-0.001958269
-0.001928837
-0.001899406
-0.001869975
-0.001840544
-0.001811112
-0.001781681
-0.00175225
-0.001722819
-0.001693387
-0.001663956
-0.001634525
-0.001605094
-0.001575662
-0.001546231
-0.0015168
-0.001487369
-0.001457937
-0.001428506
-0.001399075
-0.001369644
-0.001340212
-0.001310781
-0.00128135
-0.001251918
-0.001222487
-0.001193056
-0.001163625
-0.001134193
-0.001104762
-0.001075331
-0.0010459
-0.001016468
-0.000987037
-0.000957606
-0.000928175
-0.000898743
-0.000869312
-0.000839881
-0.00081045
-0.000781018
-0.000751587
-0.000722156
-0.000692725
-0.000663293
-0.000633862
-0.000604431
-0.000575
-0.000545568
-0.000516137
-0.000486706
-0.000457275
-0.000427843
-0.000398412
-0.000368981
-0.00033955
-0.000310118
-0.000280687
-0.000251256
-0.000221824
-0.000192393
-0.000162962
-0.000133531
-0.000104099
-7.4668e-05
-4.5237e-05
-1.5806e-05
1.3626e-05
4.3057e-05
7.2488e-05
0.000101919
0.000131351
0.000160782
0.000190213
0.000219644
0.000249076
0.000278507
0.000307938
0.000337369
0.000366801
0.000396232
0.000425663
0.000455094
0.000484526
0.000513957
0.000543388
0.000572819
0.000602251
0.000631682
0.000661113
0.000690545
0.000719976
0.000749407
0.000778838
0.00080827
0.000837701
0.000867132
0.000896563
0.000925995
0.000955426
0.000984857
0.001014288
0.00104372
0.001073151
0.001102582
0.001132013
0.001161445
0.001190876
0.001220307
0.001249738
0.00127917
0.001308601
0.001338032
0.001367463
0.001396895
0.001426326
0.001455757
0.001485188
0.00151462
0.001544051
0.001573482
0.001602913
0.001632345
0.001661776
0.001691207
0.001720639
0.00175007
0.001779501
0.001808932
0.001838364
0.001867795
0.001897226
0.001926657
0.001956089
0.00198552
0.002014951
0.002044382
0.002073814
0.002103245
0.002132676
0.002162107
0.002191539
0.00222097
0.002250401
0.002279832
0.002309264
0.002338695
0.002368126
0.002397557
0.002426989
0.00245642
0.002485851
0.002515282
0.002544714
0.002574145
0.002603576
0.002633007
0.002662439
0.00269187
0.002721301
0.002750733
0.002780164
0.002809595
0.002839026
0.002868458
0.002897889
0.00292732
0.002956751
0.002986183
0.003015614
0.003045045
0.003074476
0.003103908
0.003133339
0.00316277
0.003192201
0.003221633
0.003251064
0.003280495
0.003309926
0.003339358
0.003368789
0.00339822
0.003427651
0.003457083
0.003486514
0.003515945
0.003545376
0.003574808
0.003604239
0.00363367
0.003663101
0.003692533
0.003721964
0.003751395
0.003780827
0.003810258
0.003839689
0.00386912
0.003898552
0.003927983
0.003957414
0.003986845
0.004016277
0.004045708
0.004075139
0.00410457
0.004134002
0.004163433
0.004192864
0.004222295
0.004251727
0.004281158
0.004310589
0.00434002
0.004369452
0.004398883
0.004428314
0.004457745
0.004487177
0.004516608
0.004546039
0.00457547
0.004604902
0.004634333
0.004663764
0.004693195
0.004722627
0.004752058
0.004781489
0.004810921
0.004840352
0.004869783
0.004899214
0.004928646
0.004958077
0.004987508
0.005016939
0.005046371
0.005075802
0.005105233
0.005134664
0.005164096
0.005193527
0.005222958
0.005252389
0.005281821
0.005311252
0.005340683
0.005370114
0.005399546
0.005428977
0.005458408
0.005487839
0.005517271
0.005546702
0.005576133
0.005605564
0.005634996
0.005664427
0.005693858
0.005723289
0.005752721
0.005782152
0.005811583
0.005841015
0.005870446
0.005899877
0.005929308
0.00595874
0.005988171
0.006017602
