OpenDRT_v1.0-2.0_full-config_v2/transfer_functions/oetf_acescct_to_linear.spi1d
Version 1
From -0.15 1.2
Length 8192
Components 1
{
-0.021148056
-0.021132419
-0.021116782
-0.021101145
-0.021085509
-0.021069872
-0.021054235
-0.021038598
-0.021022962
-0.021007325
-0.020991688
-0.020976051
-0.020960415
-0.020944778
-0.020929141
-0.020913504
-0.020897868
-0.020882231
-0.020866594
-0.020850957
-0.020835321
-0.020819684
-0.020804047
-0.02078841
-0.020772774
-0.020757137
-0.0207415
-0.020725863
-0.020710227
-0.02069459
-0.020678953
-0.020663316
-0.02064768
-0.020632043
-0.020616406
-0.020600769
-0.020585133
-0.020569496
-0.020553859
-0.020538222
-0.020522586
-0.020506949
-0.020491312
-0.020475675
-0.020460039
-0.020444402
-0.020428765
-0.020413128
-0.020397492
-0.020381855
-0.020366218
-0.020350581
-0.020334945
-0.020319308
-0.020303671
-0.020288035
-0.020272398
-0.020256761
-0.020241124
-0.020225488
-0.020209851
-0.020194214
-0.020178577
-0.020162941
-0.020147304
-0.020131667
-0.02011603
-0.020100394
-0.020084757
-0.02006912
-0.020053483
-0.020037847
-0.02002221
-0.020006573
-0.019990936
-0.0199753
-0.019959663
-0.019944026
-0.019928389
-0.019912753
-0.019897116
-0.019881479
-0.019865842
-0.019850206
-0.019834569
-0.019818932
-0.019803295
-0.019787659
-0.019772022
-0.019756385
-0.019740748
-0.019725112
-0.019709475
-0.019693838
-0.019678201
-0.019662565
-0.019646928
-0.019631291
-0.019615654
-0.019600018
-0.019584381
-0.019568744
-0.019553107
-0.019537471
-0.019521834
-0.019506197
-0.01949056
-0.019474924
-0.019459287
-0.01944365
-0.019428013
-0.019412377
-0.01939674
-0.019381103
-0.019365466
-0.01934983
-0.019334193
-0.019318556
-0.019302919
-0.019287283
-0.019271646
-0.019256009
-0.019240372
-0.019224736
-0.019209099
-0.019193462
-0.019177825
-0.019162189
-0.019146552
-0.019130915
-0.019115278
-0.019099642
-0.019084005
-0.019068368
-0.019052731
-0.019037095
-0.019021458
-0.019005821
-0.018990184
-0.018974548
-0.018958911
-0.018943274
-0.018927637
-0.018912001
-0.018896364
-0.018880727
-0.01886509
-0.018849454
-0.018833817
-0.01881818
-0.018802543
-0.018786907
-0.01877127
-0.018755633
-0.018739996
-0.01872436
-0.018708723
-0.018693086
-0.018677449
-0.018661813
-0.018646176
-0.018630539
-0.018614902
-0.018599266
-0.018583629
-0.018567992
-0.018552355
-0.018536719
-0.018521082
-0.018505445
-0.018489808
-0.018474172
-0.018458535
-0.018442898
-0.018427261
-0.018411625
-0.018395988
-0.018380351
-0.018364715
-0.018349078
-0.018333441
-0.018317804
-0.018302168
-0.018286531
-0.018270894
-0.018255257
-0.018239621
-0.018223984
-0.018208347
-0.01819271
-0.018177074
-0.018161437
-0.0181458
-0.018130163
-0.018114527
-0.01809889
-0.018083253
-0.018067616
-0.01805198
-0.018036343
-0.018020706
-0.018005069
-0.017989433
-0.017973796
-0.017958159
-0.017942522
-0.017926886
-0.017911249
-0.017895612
-0.017879975
-0.017864339
-0.017848702
-0.017833065
-0.017817428
-0.017801792
-0.017786155
-0.017770518
-0.017754881
-0.017739245
-0.017723608
-0.017707971
-0.017692334
-0.017676698
-0.017661061
-0.017645424
-0.017629787
-0.017614151
-0.017598514
-0.017582877
-0.01756724
-0.017551604
-0.017535967
-0.01752033
-0.017504693
-0.017489057
-0.01747342
-0.017457783
-0.017442146
-0.01742651
-0.017410873
-0.017395236
-0.017379599
-0.017363963
-0.017348326
-0.017332689
-0.017317052
-0.017301416
-0.017285779
-0.017270142
-0.017254505
-0.017238869
-0.017223232
-0.017207595
-0.017191958
-0.017176322
-0.017160685
-0.017145048
-0.017129411
-0.017113775
-0.017098138
-0.017082501
-0.017066864
-0.017051228
-0.017035591
-0.017019954
-0.017004317
-0.016988681
-0.016973044
-0.016957407
-0.01694177
-0.016926134
-0.016910497
-0.01689486
-0.016879223
-0.016863587
-0.01684795
-0.016832313
-0.016816676
-0.01680104
-0.016785403
-0.016769766
-0.016754129
-0.016738493
-0.016722856
-0.016707219
-0.016691582
-0.016675946
-0.016660309
-0.016644672
-0.016629035
-0.016613399
-0.016597762
-0.016582125
-0.016566488
-0.016550852
-0.016535215
-0.016519578
-0.016503941
-0.016488305
-0.016472668
-0.016457031
-0.016441395
-0.016425758
-0.016410121
-0.016394484
-0.016378848
-0.016363211
-0.016347574
-0.016331937
-0.016316301
-0.016300664
-0.016285027
-0.01626939
-0.016253754
-0.016238117
-0.01622248
-0.016206843
-0.016191207
-0.01617557
-0.016159933
-0.016144296
-0.01612866
-0.016113023
-0.016097386
-0.016081749
-0.016066113
-0.016050476
-0.016034839
-0.016019202
-0.016003566
-0.015987929
-0.015972292
-0.015956655
-0.015941019
-0.015925382
-0.015909745
-0.015894108
-0.015878472
-0.015862835
-0.015847198
-0.015831561
-0.015815925
-0.015800288
-0.015784651
-0.015769014
-0.015753378
-0.015737741
-0.015722104
-0.015706467
-0.015690831
-0.015675194
-0.015659557
-0.01564392
-0.015628284
-0.015612647
-0.01559701
-0.015581373
-0.015565737
-0.0155501
-0.015534463
-0.015518826
-0.01550319
-0.015487553
-0.015471916
-0.015456279
-0.015440643
-0.015425006
-0.015409369
-0.015393732
-0.015378096
-0.015362459
-0.015346822
-0.015331185
-0.015315549
-0.015299912
-0.015284275
-0.015268638
-0.015253002
-0.015237365
-0.015221728
-0.015206091
-0.015190455
-0.015174818
-0.015159181
-0.015143544
-0.015127908
-0.015112271
-0.015096634
-0.015080997
-0.015065361
-0.015049724
-0.015034087
-0.01501845
-0.015002814
-0.014987177
-0.01497154
-0.014955903
-0.014940267
-0.01492463
-0.014908993
-0.014893356
-0.01487772
-0.014862083
-0.014846446
-0.014830809
-0.014815173
-0.014799536
-0.014783899
-0.014768262
-0.014752626
-0.014736989
-0.014721352
-0.014705715
-0.014690079
-0.014674442
-0.014658805
-0.014643168
-0.014627532
-0.014611895
-0.014596258
-0.014580621
-0.014564985
-0.014549348
-0.014533711
-0.014518075
-0.014502438
-0.014486801
-0.014471164
-0.014455528
-0.014439891
-0.014424254
-0.014408617
-0.014392981
-0.014377344
-0.014361707
-0.01434607
-0.014330434
-0.014314797
-0.01429916
-0.014283523
-0.014267887
-0.01425225
-0.014236613
-0.014220976
-0.01420534
-0.014189703
-0.014174066
-0.014158429
-0.014142793
-0.014127156
-0.014111519
-0.014095882
-0.014080246
-0.014064609
-0.014048972
-0.014033335
-0.014017699
-0.014002062
-0.013986425
-0.013970788
-0.013955152
-0.013939515
-0.013923878
-0.013908241
-0.013892605
-0.013876968
-0.013861331
-0.013845694
-0.013830058
-0.013814421
-0.013798784
-0.013783147
-0.013767511
-0.013751874
-0.013736237
-0.0137206
-0.013704964
-0.013689327
-0.01367369
-0.013658053
-0.013642417
-0.01362678
-0.013611143
-0.013595506
-0.01357987
-0.013564233
-0.013548596
-0.013532959
-0.013517323
-0.013501686
-0.013486049
-0.013470412
-0.013454776
-0.013439139
-0.013423502
-0.013407865
-0.013392229
-0.013376592
-0.013360955
-0.013345318
-0.013329682
-0.013314045
-0.013298408
-0.013282771
-0.013267135
-0.013251498
-0.013235861
-0.013220224
-0.013204588
-0.013188951
-0.013173314
-0.013157677
-0.013142041
-0.013126404
-0.013110767
-0.01309513
-0.013079494
-0.013063857
-0.01304822
-0.013032583
-0.013016947
-0.01300131
-0.012985673
-0.012970036
-0.0129544
-0.012938763
-0.012923126
-0.012907489
-0.012891853
-0.012876216
-0.012860579
-0.012844942
-0.012829306
-0.012813669
-0.012798032
-0.012782395
-0.012766759
-0.012751122
-0.012735485
-0.012719848
-0.012704212
-0.012688575
-0.012672938
-0.012657302
-0.012641665
-0.012626028
-0.012610391
-0.012594755
-0.012579118
-0.012563481
-0.012547844
-0.012532208
-0.012516571
-0.012500934
-0.012485297
-0.012469661
-0.012454024
-0.012438387
-0.01242275
-0.012407114
-0.012391477
-0.01237584
-0.012360203
-0.012344567
-0.01232893
-0.012313293
-0.012297656
-0.01228202
-0.012266383
-0.012250746
-0.012235109
-0.012219473
-0.012203836
-0.012188199
-0.012172562
-0.012156926
-0.012141289
-0.012125652
-0.012110015
-0.012094379
-0.012078742
-0.012063105
-0.012047468
-0.012031832
-0.012016195
-0.012000558
-0.011984921
-0.011969285
-0.011953648
-0.011938011
-0.011922374
-0.011906738
-0.011891101
-0.011875464
-0.011859827
-0.011844191
-0.011828554
-0.011812917
-0.01179728
-0.011781644
-0.011766007
-0.01175037
-0.011734733
-0.011719097
-0.01170346
-0.011687823
-0.011672186
-0.01165655
-0.011640913
-0.011625276
-0.011609639
-0.011594003
-0.011578366
-0.011562729
-0.011547092
-0.011531456
-0.011515819
-0.011500182
-0.011484545
-0.011468909
-0.011453272
-0.011437635
-0.011421998
-0.011406362
-0.011390725
-0.011375088
-0.011359451
-0.011343815
-0.011328178
-0.011312541
-0.011296904
-0.011281268
-0.011265631
-0.011249994
-0.011234357
-0.011218721
-0.011203084
-0.011187447
-0.01117181
-0.011156174
-0.011140537
-0.0111249
-0.011109263
-0.011093627
-0.01107799
-0.011062353
-0.011046716
-0.01103108
-0.011015443
-0.010999806
-0.010984169
-0.010968533
-0.010952896
-0.010937259
-0.010921622
-0.010905986
-0.010890349
-0.010874712
-0.010859075
-0.010843439
-0.010827802
-0.010812165
-0.010796528
-0.010780892
-0.010765255
-0.010749618
-0.010733982
-0.010718345
-0.010702708
-0.010687071
-0.010671435
-0.010655798
-0.010640161
-0.010624524
-0.010608888
-0.010593251
-0.010577614
-0.010561977
-0.010546341
-0.010530704
-0.010515067
-0.01049943
-0.010483794
-0.010468157
-0.01045252
-0.010436883
-0.010421247
-0.01040561
-0.010389973
-0.010374336
-0.0103587
-0.010343063
-0.010327426
-0.010311789
-0.010296153
-0.010280516
-0.010264879
-0.010249242
-0.010233606
-0.010217969
-0.010202332
-0.010186695
-0.010171059
-0.010155422
-0.010139785
-0.010124148
-0.010108512
-0.010092875
-0.010077238
-0.010061601
-0.010045965
-0.010030328
-0.010014691
-0.009999054
-0.009983418
-0.009967781
-0.009952144
-0.009936507
-0.009920871
-0.009905234
-0.009889597
-0.00987396
-0.009858324
-0.009842687
-0.00982705
-0.009811413
-0.009795777
-0.00978014
-0.009764503
-0.009748866
-0.00973323
-0.009717593
-0.009701956
-0.009686319
-0.009670683
-0.009655046
-0.009639409
-0.009623772
-0.009608136
-0.009592499
-0.009576862
-0.009561225
-0.009545589
-0.009529952
-0.009514315
-0.009498678
-0.009483042
-0.009467405
-0.009451768
-0.009436131
-0.009420495
-0.009404858
-0.009389221
-0.009373584
-0.009357948
-0.009342311
-0.009326674
-0.009311037
-0.009295401
-0.009279764
-0.009264127
-0.00924849
-0.009232854
-0.009217217
-0.00920158
-0.009185943
-0.009170307
-0.00915467
-0.009139033
-0.009123396
-0.00910776
-0.009092123
-0.009076486
-0.009060849
-0.009045213
-0.009029576
-0.009013939
-0.008998302
-0.008982666
-0.008967029
-0.008951392
-0.008935755
-0.008920119
-0.008904482
-0.008888845
-0.008873208
-0.008857572
-0.008841935
-0.008826298
-0.008810662
-0.008795025
-0.008779388
-0.008763751
-0.008748115
-0.008732478
-0.008716841
-0.008701204
-0.008685568
-0.008669931
-0.008654294
-0.008638657
-0.008623021
-0.008607384
-0.008591747
-0.00857611
-0.008560474
-0.008544837
-0.0085292
-0.008513563
-0.008497927
-0.00848229
-0.008466653
-0.008451016
-0.00843538
-0.008419743
-0.008404106
-0.008388469
-0.008372833
-0.008357196
-0.008341559
-0.008325922
-0.008310286
-0.008294649
-0.008279012
-0.008263375
-0.008247739
-0.008232102
-0.008216465
-0.008200828
-0.008185192
-0.008169555
-0.008153918
-0.008138281
-0.008122645
-0.008107008
-0.008091371
-0.008075734
-0.008060098
-0.008044461
-0.008028824
-0.008013187
-0.007997551
-0.007981914
-0.007966277
-0.00795064
-0.007935004
-0.007919367
-0.00790373
-0.007888093
-0.007872457
-0.00785682
-0.007841183
-0.007825546
-0.00780991
-0.007794273
-0.007778636
-0.007762999
-0.007747363
-0.007731726
-0.007716089
-0.007700452
-0.007684816
-0.007669179
-0.007653542
-0.007637905
-0.007622269
-0.007606632
-0.007590995
-0.007575358
-0.007559722
-0.007544085
-0.007528448
-0.007512811
-0.007497175
-0.007481538
-0.007465901
-0.007450264
-0.007434628
-0.007418991
-0.007403354
-0.007387717
-0.007372081
-0.007356444
-0.007340807
-0.00732517
-0.007309534
-0.007293897
-0.00727826
-0.007262623
-0.007246987
-0.00723135
-0.007215713
-0.007200076
-0.00718444
-0.007168803
-0.007153166
-0.007137529
-0.007121893
-0.007106256
-0.007090619
-0.007074982
-0.007059346
-0.007043709
-0.007028072
-0.007012435
-0.006996799
-0.006981162
-0.006965525
-0.006949888
-0.006934252
-0.006918615
-0.006902978
-0.006887342
-0.006871705
-0.006856068
-0.006840431
-0.006824795
-0.006809158
-0.006793521
-0.006777884
-0.006762248
-0.006746611
-0.006730974
-0.006715337
-0.006699701
-0.006684064
-0.006668427
-0.00665279
-0.006637154
-0.006621517
-0.00660588
-0.006590243
-0.006574607
-0.00655897
-0.006543333
-0.006527696
-0.00651206
-0.006496423
-0.006480786
-0.006465149
-0.006449513
-0.006433876
-0.006418239
-0.006402602
-0.006386966
-0.006371329
-0.006355692
-0.006340055
-0.006324419
-0.006308782
-0.006293145
-0.006277508
-0.006261872
-0.006246235
-0.006230598
-0.006214961
-0.006199325
-0.006183688
-0.006168051
-0.006152414
-0.006136778
-0.006121141
-0.006105504
-0.006089867
-0.006074231
-0.006058594
-0.006042957
-0.00602732
-0.006011684
-0.005996047
-0.00598041
-0.005964773
-0.005949137
-0.0059335
-0.005917863
-0.005902226
-0.00588659
-0.005870953
-0.005855316
-0.005839679
-0.005824043
-0.005808406
-0.005792769
-0.005777132
-0.005761496
-0.005745859
-0.005730222
-0.005714585
-0.005698949
-0.005683312
-0.005667675
-0.005652038
-0.005636402
-0.005620765
-0.005605128
-0.005589491
-0.005573855
-0.005558218
-0.005542581
-0.005526944
-0.005511308
-0.005495671
-0.005480034
-0.005464397
-0.005448761
-0.005433124
-0.005417487
-0.00540185
-0.005386214
-0.005370577
-0.00535494
-0.005339303
-0.005323667
-0.00530803
-0.005292393
-0.005276756
-0.00526112
-0.005245483
-0.005229846
-0.005214209
-0.005198573
-0.005182936
-0.005167299
-0.005151662
-0.005136026
-0.005120389
-0.005104752
-0.005089115
-0.005073479
-0.005057842
-0.005042205
-0.005026569
-0.005010932
-0.004995295
-0.004979658
-0.004964022
-0.004948385
-0.004932748
-0.004917111
-0.004901475
-0.004885838
-0.004870201
-0.004854564
-0.004838928
-0.004823291
-0.004807654
-0.004792017
-0.004776381
-0.004760744
-0.004745107
-0.00472947
-0.004713834
-0.004698197
-0.00468256
-0.004666923
-0.004651287
-0.00463565
-0.004620013
-0.004604376
-0.00458874
-0.004573103
-0.004557466
-0.004541829
-0.004526193
-0.004510556
-0.004494919
-0.004479282
-0.004463646
-0.004448009
-0.004432372
-0.004416735
-0.004401099
-0.004385462
-0.004369825
-0.004354188
-0.004338552
-0.004322915
-0.004307278
-0.004291641
-0.004276005
-0.004260368
-0.004244731
-0.004229094
-0.004213458
-0.004197821
-0.004182184
-0.004166547
-0.004150911
-0.004135274
-0.004119637
-0.004104
-0.004088364
-0.004072727
-0.00405709
-0.004041453
-0.004025817
-0.00401018
-0.003994543
-0.003978906
-0.00396327
-0.003947633
-0.003931996
-0.003916359
-0.003900723
-0.003885086
-0.003869449
-0.003853812
-0.003838176
-0.003822539
-0.003806902
-0.003791265
-0.003775629
-0.003759992
-0.003744355
-0.003728718
-0.003713082
-0.003697445
-0.003681808
-0.003666171
-0.003650535
-0.003634898
-0.003619261
-0.003603624
-0.003587988
-0.003572351
-0.003556714
-0.003541077
-0.003525441
-0.003509804
-0.003494167
-0.00347853
-0.003462894
-0.003447257
-0.00343162
-0.003415983
-0.003400347
-0.00338471
-0.003369073
-0.003353436
-0.0033378
-0.003322163
-0.003306526
-0.003290889
-0.003275253
-0.003259616
-0.003243979
-0.003228342
-0.003212706
-0.003197069
-0.003181432
-0.003165795
-0.003150159
-0.003134522
-0.003118885
-0.003103249
-0.003087612
-0.003071975
-0.003056338
-0.003040702
-0.003025065
-0.003009428
-0.002993791
-0.002978155
-0.002962518
-0.002946881
-0.002931244
-0.002915608
-0.002899971
-0.002884334
-0.002868697
-0.002853061
-0.002837424
-0.002821787
-0.00280615
-0.002790514
-0.002774877
-0.00275924
-0.002743603
-0.002727967
-0.00271233
-0.002696693
-0.002681056
-0.00266542
-0.002649783
-0.002634146
-0.002618509
-0.002602873
-0.002587236
-0.002571599
-0.002555962
-0.002540326
-0.002524689
-0.002509052
-0.002493415
-0.002477779
-0.002462142
-0.002446505
-0.002430868
-0.002415232
-0.002399595
-0.002383958
-0.002368321
-0.002352685
-0.002337048
-0.002321411
-0.002305774
-0.002290138
-0.002274501
-0.002258864
-0.002243227
-0.002227591
-0.002211954
-0.002196317
-0.00218068
-0.002165044
-0.002149407
-0.00213377
-0.002118133
-0.002102497
-0.00208686
-0.002071223
-0.002055586
-0.00203995
-0.002024313
-0.002008676
-0.001993039
-0.001977403
-0.001961766
-0.001946129
-0.001930492
-0.001914856
-0.001899219
-0.001883582
-0.001867945
-0.001852309
-0.001836672
-0.001821035
-0.001805398
-0.001789762
-0.001774125
-0.001758488
-0.001742851
-0.001727215
-0.001711578
-0.001695941
-0.001680304
-0.001664668
-0.001649031
-0.001633394
-0.001617757
-0.001602121
-0.001586484
-0.001570847
-0.00155521
-0.001539574
-0.001523937
-0.0015083
-0.001492663
-0.001477027
-0.00146139
-0.001445753
-0.001430116
-0.00141448
-0.001398843
-0.001383206
-0.001367569
-0.001351933
-0.001336296
-0.001320659
-0.001305022
-0.001289386
-0.001273749
-0.001258112
-0.001242475
-0.001226839
-0.001211202
-0.001195565
-0.001179929
-0.001164292
-0.001148655
-0.001133018
-0.001117382
-0.001101745
-0.001086108
-0.001070471
-0.001054835
-0.001039198
-0.001023561
-0.001007924
-0.000992288
-0.000976651
-0.000961014
-0.000945377
-0.000929741
-0.000914104
-0.000898467
-0.00088283
-0.000867194
-0.000851557
-0.00083592
-0.000820283
-0.000804647
-0.00078901
-0.000773373
-0.000757736
-0.0007421
-0.000726463
-0.000710826
-0.000695189
-0.000679553
-0.000663916
-0.000648279
-0.000632642
-0.000617006
-0.000601369
-0.000585732
-0.000570095
-0.000554459
-0.000538822
-0.000523185
-0.000507548
-0.000491912
-0.000476275
-0.000460638
-0.000445001
-0.000429365
-0.000413728
-0.000398091
-0.000382454
-0.000366818
-0.000351181
-0.000335544
-0.000319907
-0.000304271
-0.000288634
-0.000272997
-0.00025736
-0.000241724
-0.000226087
-0.00021045
-0.000194813
-0.000179177
-0.00016354
-0.000147903
-0.000132266
-0.00011663
-0.000100993
-8.5356e-05
-6.9719e-05
-5.4083e-05
-3.8446e-05
-2.2809e-05
-7.172e-06
8.464e-06
2.4101e-05
3.9738e-05
5.5375e-05
7.1011e-05
8.6648e-05
0.000102285
0.000117922
0.000133558
0.000149195
0.000164832
0.000180469
0.000196105
0.000211742
0.000227379
0.000243016
0.000258652
0.000274289
0.000289926
0.000305563
0.000321199
0.000336836
0.000352473
0.00036811
0.000383746
0.000399383
0.00041502
0.000430657
0.000446293
0.00046193
0.000477567
0.000493204
0.00050884
0.000524477
0.000540114
0.000555751
0.000571387
0.000587024
0.000602661
0.000618298
0.000633934
0.000649571
0.000665208
0.000680845
0.000696481
0.000712118
0.000727755
0.000743391
0.000759028
0.000774665
0.000790302
0.000805938
0.000821575
0.000837212
0.000852849
0.000868485
0.000884122
0.000899759
0.000915396
0.000931032
0.000946669
0.000962306
0.000977943
0.000993579
0.001009216
0.001024853
0.00104049
0.001056126
0.001071763
0.0010874
0.001103037
0.001118673
0.00113431
0.001149947
0.001165584
0.00118122
0.001196857
0.001212494
0.001228131
0.001243767
0.001259404
0.001275041
0.001290678
0.001306314
0.001321951
0.001337588
0.001353225
0.001368861
0.001384498
0.001400135
0.001415772
0.001431408
0.001447045
0.001462682
0.001478319
0.001493955
0.001509592
0.001525229
0.001540866
0.001556502
0.001572139
0.001587776
0.001603413
0.001619049
0.001634686
0.001650323
0.00166596
0.001681596
0.001697233
0.00171287
0.001728507
0.001744143
0.00175978
0.001775417
0.001791054
0.00180669
0.001822327
0.001837964
0.001853601
0.001869237
0.001884874
0.001900511
0.001916148
0.001931784
0.001947421
0.001963058
0.001978695
0.001994331
0.002009968
0.002025605
0.002041242
0.002056878
0.002072515
0.002088152
0.002103789
0.002119425
0.002135062
0.002150699
0.002166336
0.002181972
0.002197609
0.002213246
0.002228883
0.002244519
0.002260156
0.002275793
0.00229143
0.002307066
0.002322703
0.00233834
0.002353977
0.002369613
0.00238525
0.002400887
0.002416524
0.00243216
0.002447797
0.002463434
0.002479071
0.002494707
0.002510344
0.002525981
0.002541618
0.002557254
0.002572891
0.002588528
0.002604164
0.002619801
0.002635438
0.002651075
0.002666711
0.002682348
0.002697985
0.002713622
0.002729258
0.002744895
0.002760532
0.002776169
0.002791805
0.002807442
0.002823079
0.002838716
0.002854352
0.002869989
0.002885626
0.002901263
0.002916899
0.002932536
0.002948173
0.00296381
0.002979446
0.002995083
0.00301072
0.003026357
0.003041993
0.00305763
0.003073267
0.003088904
0.00310454
0.003120177
0.003135814
0.003151451
0.003167087
0.003182724
0.003198361
0.003213998
0.003229634
0.003245271
0.003260908
0.003276545
0.003292181
0.003307818
0.003323455
0.003339092
0.003354728
0.003370365
0.003386002
0.003401639
0.003417275
0.003432912
0.003448549
0.003464186
0.003479822
0.003495459
0.003511096
0.003526733
0.003542369
0.003558006
0.003573643
0.00358928
0.003604916
0.003620553
0.00363619
0.003651827
0.003667463
0.0036831
0.003698737
0.003714374
0.00373001
0.003745647
0.003761284
0.003776921
0.003792557
0.003808194
0.003823831
0.003839468
0.003855104
0.003870741
0.003886378
0.003902015
0.003917651
0.003933288
0.003948925
0.003964562
0.003980198
0.003995835
0.004011472
0.004027109
0.004042745
0.004058382
0.004074019
0.004089656
0.004105292
0.004120929
0.004136566
0.004152203
0.004167839
0.004183476
0.004199113
0.00421475
0.004230386
0.004246023
0.00426166
0.004277297
0.004292933
0.00430857
0.004324207
0.004339844
0.00435548
0.004371117
0.004386754
0.004402391
0.004418027
0.004433664
0.004449301
0.004464938
0.004480574
0.004496211
0.004511848
0.004527484
0.004543121
0.004558758
0.004574395
0.004590031
0.004605668
0.004621305
0.004636942
0.004652578
0.004668215
0.004683852
0.004699489
0.004715125
0.004730762
0.004746399
0.004762036
0.004777672
0.004793309
0.004808946
0.004824583
0.004840219
0.004855856
0.004871493
0.00488713
0.004902766
0.004918403
0.00493404
0.004949677
0.004965313
0.00498095
0.004996587
0.005012224
0.00502786
0.005043497
0.005059134
0.005074771
0.005090407
0.005106044
0.005121681
0.005137318
0.005152954
0.005168591
0.005184228
0.005199865
0.005215501
0.005231138
0.005246775
0.005262412
0.005278048
0.005293685
0.005309322
0.005324959
0.005340595
0.005356232
0.005371869
0.005387506
0.005403142
0.005418779
0.005434416
0.005450053
0.005465689
0.005481326
0.005496963
0.0055126
0.005528236
0.005543873
0.00555951
0.005575147
0.005590783
0.00560642
0.005622057
0.005637694
0.00565333
0.005668967
0.005684604
0.005700241
0.005715877
0.005731514
0.005747151
0.005762788
0.005778424
0.005794061
0.005809698
0.005825335
0.005840971
0.005856608
0.005872245
0.005887882
0.005903518
0.005919155
0.005934792
0.005950429
0.005966065
0.005981702
0.005997339
0.006012976
0.006028612
0.006044249
0.006059886
0.006075523
0.006091159
0.006106796
0.006122433
0.00613807
0.006153706
0.006169343
0.00618498
0.006200617
0.006216253
0.00623189
0.006247527
0.006263164
0.0062788
0.006294437
0.006310074
0.006325711
0.006341347
0.006356984
0.006372621
0.006388258
0.006403894
0.006419531
0.006435168
0.006450804
0.006466441
0.006482078
0.006497715
0.006513351
0.006528988
0.006544625
0.006560262
0.006575898
0.006591535
0.006607172
0.006622809
0.006638445
0.006654082
0.006669719
0.006685356
0.006700992
0.006716629
0.006732266
0.006747903
0.006763539
0.006779176
0.006794813
0.00681045
0.006826086
0.006841723
0.00685736
0.006872997
0.006888633
0.00690427
0.006919907
0.006935544
0.00695118
0.006966817
0.006982454
0.006998091
0.007013727
0.007029364
0.007045001
0.007060638
0.007076274
0.007091911
0.007107548
0.007123185
0.007138821
0.007154458
0.007170095
0.007185732
0.007201368
0.007217005
0.007232642
0.007248279
0.007263915
0.007279552
0.007295189
0.007310826
0.007326462
0.007342099
0.007357736
0.007373373
0.007389009
0.007404646
0.007420283
0.00743592
0.007451556
0.007467193
0.00748283
0.007498467
0.007514103
0.00752974
0.007545377
0.007561014
0.00757665
0.007592287
0.007607924
0.007623561
0.007639197
0.007654834
0.007670471
0.007686108
0.007701744
0.007717381
0.007733018
0.007748655
0.007764291
0.007779928
0.007795565
0.007811202
0.007826851
0.007842533
0.007858245
0.007873989
0.007889765
0.007905572
0.007921411
0.007937282
0.007953184
0.007969118
0.007985084
0.008001083
0.008017113
0.008033175
0.00804927
0.008065397
0.008081556
0.008097747
0.008113971
0.008130227
0.008146516
0.008162838
0.008179192
0.008195579
0.008211999
0.008228452
0.008244938
0.008261457
0.008278009
0.008294594
0.008311212
0.008327863
0.008344548
0.008361267
0.008378019
0.008394804
0.008411623
0.008428476
0.008445362
0.008462283
0.008479237
0.008496225
0.008513247
0.008530304
0.008547394
0.008564519
0.008581678
