OpenDRT_v1.0-2.0_full-config_v2/transfer_functions/oetf_arri_logc3_to_linear.spi1d
Version 1
From -0.15 1.2
Length 8192
Components 1
{
-0.045235582
-0.045204877
-0.045174172
-0.045143467
-0.045112762
-0.045082056
-0.045051351
-0.045020646
-0.044989941
-0.044959235
-0.04492853
-0.044897825
-0.04486712
-0.044836414
-0.044805709
-0.044775004
-0.044744299
-0.044713594
-0.044682888
-0.044652183
-0.044621478
-0.044590773
-0.044560067
-0.044529362
-0.044498657
-0.044467952
-0.044437247
-0.044406541
-0.044375836
-0.044345131
-0.044314426
-0.04428372
-0.044253015
-0.04422231
-0.044191605
-0.0441609
-0.044130194
-0.044099489
-0.044068784
-0.044038079
-0.044007373
-0.043976668
-0.043945963
-0.043915258
-0.043884553
-0.043853847
-0.043823142
-0.043792437
-0.043761732
-0.043731026
-0.043700321
-0.043669616
-0.043638911
-0.043608206
-0.0435775
-0.043546795
-0.04351609
-0.043485385
-0.043454679
-0.043423974
-0.043393269
-0.043362564
-0.043331859
-0.043301153
-0.043270448
-0.043239743
-0.043209038
-0.043178332
-0.043147627
-0.043116922
-0.043086217
-0.043055512
-0.043024806
-0.042994101
-0.042963396
-0.042932691
-0.042901985
-0.04287128
-0.042840575
-0.04280987
-0.042779165
-0.042748459
-0.042717754
-0.042687049
-0.042656344
-0.042625638
-0.042594933
-0.042564228
-0.042533523
-0.042502818
-0.042472112
-0.042441407
-0.042410702
-0.042379997
-0.042349291
-0.042318586
-0.042287881
-0.042257176
-0.042226471
-0.042195765
-0.04216506
-0.042134355
-0.04210365
-0.042072944
-0.042042239
-0.042011534
-0.041980829
-0.041950124
-0.041919418
-0.041888713
-0.041858008
-0.041827303
-0.041796597
-0.041765892
-0.041735187
-0.041704482
-0.041673777
-0.041643071
-0.041612366
-0.041581661
-0.041550956
-0.04152025
-0.041489545
-0.04145884
-0.041428135
-0.04139743
-0.041366724
-0.041336019
-0.041305314
-0.041274609
-0.041243903
-0.041213198
-0.041182493
-0.041151788
-0.041121083
-0.041090377
-0.041059672
-0.041028967
-0.040998262
-0.040967556
-0.040936851
-0.040906146
-0.040875441
-0.040844736
-0.04081403
-0.040783325
-0.04075262
-0.040721915
-0.040691209
-0.040660504
-0.040629799
-0.040599094
-0.040568389
-0.040537683
-0.040506978
-0.040476273
-0.040445568
-0.040414862
-0.040384157
-0.040353452
-0.040322747
-0.040292042
-0.040261336
-0.040230631
-0.040199926
-0.040169221
-0.040138515
-0.04010781
-0.040077105
-0.0400464
-0.040015695
-0.039984989
-0.039954284
-0.039923579
-0.039892874
-0.039862168
-0.039831463
-0.039800758
-0.039770053
-0.039739348
-0.039708642
-0.039677937
-0.039647232
-0.039616527
-0.039585821
-0.039555116
-0.039524411
-0.039493706
-0.039463001
-0.039432295
-0.03940159
-0.039370885
-0.03934018
-0.039309474
-0.039278769
-0.039248064
-0.039217359
-0.039186654
-0.039155948
-0.039125243
-0.039094538
-0.039063833
-0.039033127
-0.039002422
-0.038971717
-0.038941012
-0.038910307
-0.038879601
-0.038848896
-0.038818191
-0.038787486
-0.03875678
-0.038726075
-0.03869537
-0.038664665
-0.03863396
-0.038603254
-0.038572549
-0.038541844
-0.038511139
-0.038480433
-0.038449728
-0.038419023
-0.038388318
-0.038357613
-0.038326907
-0.038296202
-0.038265497
-0.038234792
-0.038204086
-0.038173381
-0.038142676
-0.038111971
-0.038081266
-0.03805056
-0.038019855
-0.03798915
-0.037958445
-0.037927739
-0.037897034
-0.037866329
-0.037835624
-0.037804919
-0.037774213
-0.037743508
-0.037712803
-0.037682098
-0.037651392
-0.037620687
-0.037589982
-0.037559277
-0.037528572
-0.037497866
-0.037467161
-0.037436456
-0.037405751
-0.037375045
-0.03734434
-0.037313635
-0.03728293
-0.037252225
-0.037221519
-0.037190814
-0.037160109
-0.037129404
-0.037098698
-0.037067993
-0.037037288
-0.037006583
-0.036975878
-0.036945172
-0.036914467
-0.036883762
-0.036853057
-0.036822351
-0.036791646
-0.036760941
-0.036730236
-0.036699531
-0.036668825
-0.03663812
-0.036607415
-0.03657671
-0.036546004
-0.036515299
-0.036484594
-0.036453889
-0.036423184
-0.036392478
-0.036361773
-0.036331068
-0.036300363
-0.036269657
-0.036238952
-0.036208247
-0.036177542
-0.036146837
-0.036116131
-0.036085426
-0.036054721
-0.036024016
-0.03599331
-0.035962605
-0.0359319
-0.035901195
-0.03587049
-0.035839784
-0.035809079
-0.035778374
-0.035747669
-0.035716963
-0.035686258
-0.035655553
-0.035624848
-0.035594143
-0.035563437
-0.035532732
-0.035502027
-0.035471322
-0.035440616
-0.035409911
-0.035379206
-0.035348501
-0.035317796
-0.03528709
-0.035256385
-0.03522568
-0.035194975
-0.035164269
-0.035133564
-0.035102859
-0.035072154
-0.035041449
-0.035010743
-0.034980038
-0.034949333
-0.034918628
-0.034887922
-0.034857217
-0.034826512
-0.034795807
-0.034765102
-0.034734396
-0.034703691
-0.034672986
-0.034642281
-0.034611575
-0.03458087
-0.034550165
-0.03451946
-0.034488755
-0.034458049
-0.034427344
-0.034396639
-0.034365934
-0.034335228
-0.034304523
-0.034273818
-0.034243113
-0.034212408
-0.034181702
-0.034150997
-0.034120292
-0.034089587
-0.034058881
-0.034028176
-0.033997471
-0.033966766
-0.033936061
-0.033905355
-0.03387465
-0.033843945
-0.03381324
-0.033782534
-0.033751829
-0.033721124
-0.033690419
-0.033659714
-0.033629008
-0.033598303
-0.033567598
-0.033536893
-0.033506187
-0.033475482
-0.033444777
-0.033414072
-0.033383367
-0.033352661
-0.033321956
-0.033291251
-0.033260546
-0.03322984
-0.033199135
-0.03316843
-0.033137725
-0.03310702
-0.033076314
-0.033045609
-0.033014904
-0.032984199
-0.032953493
-0.032922788
-0.032892083
-0.032861378
-0.032830673
-0.032799967
-0.032769262
-0.032738557
-0.032707852
-0.032677146
-0.032646441
-0.032615736
-0.032585031
-0.032554326
-0.03252362
-0.032492915
-0.03246221
-0.032431505
-0.032400799
-0.032370094
-0.032339389
-0.032308684
-0.032277979
-0.032247273
-0.032216568
-0.032185863
-0.032155158
-0.032124452
-0.032093747
-0.032063042
-0.032032337
-0.032001632
-0.031970926
-0.031940221
-0.031909516
-0.031878811
-0.031848105
-0.0318174
-0.031786695
-0.03175599
-0.031725285
-0.031694579
-0.031663874
-0.031633169
-0.031602464
-0.031571758
-0.031541053
-0.031510348
-0.031479643
-0.031448938
-0.031418232
-0.031387527
-0.031356822
-0.031326117
-0.031295411
-0.031264706
-0.031234001
-0.031203296
-0.031172591
-0.031141885
-0.03111118
-0.031080475
-0.03104977
-0.031019064
-0.030988359
-0.030957654
-0.030926949
-0.030896243
-0.030865538
-0.030834833
-0.030804128
-0.030773423
-0.030742717
-0.030712012
-0.030681307
-0.030650602
-0.030619896
-0.030589191
-0.030558486
-0.030527781
-0.030497076
-0.03046637
-0.030435665
-0.03040496
-0.030374255
-0.030343549
-0.030312844
-0.030282139
-0.030251434
-0.030220729
-0.030190023
-0.030159318
-0.030128613
-0.030097908
-0.030067202
-0.030036497
-0.030005792
-0.029975087
-0.029944382
-0.029913676
-0.029882971
-0.029852266
-0.029821561
-0.029790855
-0.02976015
-0.029729445
-0.02969874
-0.029668035
-0.029637329
-0.029606624
-0.029575919
-0.029545214
-0.029514508
-0.029483803
-0.029453098
-0.029422393
-0.029391688
-0.029360982
-0.029330277
-0.029299572
-0.029268867
-0.029238161
-0.029207456
-0.029176751
-0.029146046
-0.029115341
-0.029084635
-0.02905393
-0.029023225
-0.02899252
-0.028961814
-0.028931109
-0.028900404
-0.028869699
-0.028838994
-0.028808288
-0.028777583
-0.028746878
-0.028716173
-0.028685467
-0.028654762
-0.028624057
-0.028593352
-0.028562647
-0.028531941
-0.028501236
-0.028470531
-0.028439826
-0.02840912
-0.028378415
-0.02834771
-0.028317005
-0.0282863
-0.028255594
-0.028224889
-0.028194184
-0.028163479
-0.028132773
-0.028102068
-0.028071363
-0.028040658
-0.028009953
-0.027979247
-0.027948542
-0.027917837
-0.027887132
-0.027856426
-0.027825721
-0.027795016
-0.027764311
-0.027733606
-0.0277029
-0.027672195
-0.02764149
-0.027610785
-0.027580079
-0.027549374
-0.027518669
-0.027487964
-0.027457259
-0.027426553
-0.027395848
-0.027365143
-0.027334438
-0.027303732
-0.027273027
-0.027242322
-0.027211617
-0.027180912
-0.027150206
-0.027119501
-0.027088796
-0.027058091
-0.027027385
-0.02699668
-0.026965975
-0.02693527
-0.026904565
-0.026873859
-0.026843154
-0.026812449
-0.026781744
-0.026751038
-0.026720333
-0.026689628
-0.026658923
-0.026628218
-0.026597512
-0.026566807
-0.026536102
-0.026505397
-0.026474691
-0.026443986
-0.026413281
-0.026382576
-0.026351871
-0.026321165
-0.02629046
-0.026259755
-0.02622905
-0.026198344
-0.026167639
-0.026136934
-0.026106229
-0.026075524
-0.026044818
-0.026014113
-0.025983408
-0.025952703
-0.025921997
-0.025891292
-0.025860587
-0.025829882
-0.025799177
-0.025768471
-0.025737766
-0.025707061
-0.025676356
-0.02564565
-0.025614945
-0.02558424
-0.025553535
-0.02552283
-0.025492124
-0.025461419
-0.025430714
-0.025400009
-0.025369303
-0.025338598
-0.025307893
-0.025277188
-0.025246483
-0.025215777
-0.025185072
-0.025154367
-0.025123662
-0.025092956
-0.025062251
-0.025031546
-0.025000841
-0.024970136
-0.02493943
-0.024908725
-0.02487802
-0.024847315
-0.024816609
-0.024785904
-0.024755199
-0.024724494
-0.024693789
-0.024663083
-0.024632378
-0.024601673
-0.024570968
-0.024540262
-0.024509557
-0.024478852
-0.024448147
-0.024417442
-0.024386736
-0.024356031
-0.024325326
-0.024294621
-0.024263915
-0.02423321
-0.024202505
-0.0241718
-0.024141095
-0.024110389
-0.024079684
-0.024048979
-0.024018274
-0.023987568
-0.023956863
-0.023926158
-0.023895453
-0.023864748
-0.023834042
-0.023803337
-0.023772632
-0.023741927
-0.023711221
-0.023680516
-0.023649811
-0.023619106
-0.023588401
-0.023557695
-0.02352699
-0.023496285
-0.02346558
-0.023434874
-0.023404169
-0.023373464
-0.023342759
-0.023312054
-0.023281348
-0.023250643
-0.023219938
-0.023189233
-0.023158527
-0.023127822
-0.023097117
-0.023066412
-0.023035707
-0.023005001
-0.022974296
-0.022943591
-0.022912886
-0.02288218
-0.022851475
-0.02282077
-0.022790065
-0.02275936
-0.022728654
-0.022697949
-0.022667244
-0.022636539
-0.022605833
-0.022575128
-0.022544423
-0.022513718
-0.022483013
-0.022452307
-0.022421602
-0.022390897
-0.022360192
-0.022329486
-0.022298781
-0.022268076
-0.022237371
-0.022206666
-0.02217596
-0.022145255
-0.02211455
-0.022083845
-0.022053139
-0.022022434
-0.021991729
-0.021961024
-0.021930319
-0.021899613
-0.021868908
-0.021838203
-0.021807498
-0.021776792
-0.021746087
-0.021715382
-0.021684677
-0.021653972
-0.021623266
-0.021592561
-0.021561856
-0.021531151
-0.021500445
-0.02146974
-0.021439035
-0.02140833
-0.021377625
-0.021346919
-0.021316214
-0.021285509
-0.021254804
-0.021224098
-0.021193393
-0.021162688
-0.021131983
-0.021101278
-0.021070572
-0.021039867
-0.021009162
-0.020978457
-0.020947751
-0.020917046
-0.020886341
-0.020855636
-0.020824931
-0.020794225
-0.02076352
-0.020732815
-0.02070211
-0.020671404
-0.020640699
-0.020609994
-0.020579289
-0.020548584
-0.020517878
-0.020487173
-0.020456468
-0.020425763
-0.020395057
-0.020364352
-0.020333647
-0.020302942
-0.020272237
-0.020241531
-0.020210826
-0.020180121
-0.020149416
-0.02011871
-0.020088005
-0.0200573
-0.020026595
-0.01999589
-0.019965184
-0.019934479
-0.019903774
-0.019873069
-0.019842363
-0.019811658
-0.019780953
-0.019750248
-0.019719543
-0.019688837
-0.019658132
-0.019627427
-0.019596722
-0.019566016
-0.019535311
-0.019504606
-0.019473901
-0.019443196
-0.01941249
-0.019381785
-0.01935108
-0.019320375
-0.019289669
-0.019258964
-0.019228259
-0.019197554
-0.019166849
-0.019136143
-0.019105438
-0.019074733
-0.019044028
-0.019013322
-0.018982617
-0.018951912
-0.018921207
-0.018890502
-0.018859796
-0.018829091
-0.018798386
-0.018767681
-0.018736975
-0.01870627
-0.018675565
-0.01864486
-0.018614155
-0.018583449
-0.018552744
-0.018522039
-0.018491334
-0.018460628
-0.018429923
-0.018399218
-0.018368513
-0.018337808
-0.018307102
-0.018276397
-0.018245692
-0.018214987
-0.018184281
-0.018153576
-0.018122871
-0.018092166
-0.018061461
-0.018030755
-0.01800005
-0.017969345
-0.01793864
-0.017907934
-0.017877229
-0.017846524
-0.017815819
-0.017785114
-0.017754408
-0.017723703
-0.017692998
-0.017662293
-0.017631587
-0.017600882
-0.017570177
-0.017539472
-0.017508767
-0.017478061
-0.017447356
-0.017416651
-0.017385946
-0.01735524
-0.017324535
-0.01729383
-0.017263125
-0.01723242
-0.017201714
-0.017171009
-0.017140304
-0.017109599
-0.017078893
-0.017048188
-0.017017483
-0.016986778
-0.016956072
-0.016925367
-0.016894662
-0.016863957
-0.016833252
-0.016802546
-0.016771841
-0.016741136
-0.016710431
-0.016679725
-0.01664902
-0.016618315
-0.01658761
-0.016556905
-0.016526199
-0.016495494
-0.016464789
-0.016434084
-0.016403378
-0.016372673
-0.016341968
-0.016311263
-0.016280558
-0.016249852
-0.016219147
-0.016188442
-0.016157737
-0.016127031
-0.016096326
-0.016065621
-0.016034916
-0.016004211
-0.015973505
-0.0159428
-0.015912095
-0.01588139
-0.015850684
-0.015819979
-0.015789274
-0.015758569
-0.015727864
-0.015697158
-0.015666453
-0.015635748
-0.015605043
-0.015574337
-0.015543632
-0.015512927
-0.015482222
-0.015451517
-0.015420811
-0.015390106
-0.015359401
-0.015328696
-0.01529799
-0.015267285
-0.01523658
-0.015205875
-0.01517517
-0.015144464
-0.015113759
-0.015083054
-0.015052349
-0.015021643
-0.014990938
-0.014960233
-0.014929528
-0.014898823
-0.014868117
-0.014837412
-0.014806707
-0.014776002
-0.014745296
-0.014714591
-0.014683886
-0.014653181
-0.014622476
-0.01459177
-0.014561065
-0.01453036
-0.014499655
-0.014468949
-0.014438244
-0.014407539
-0.014376834
-0.014346129
-0.014315423
-0.014284718
-0.014254013
-0.014223308
-0.014192602
-0.014161897
-0.014131192
-0.014100487
-0.014069782
-0.014039076
-0.014008371
-0.013977666
-0.013946961
-0.013916255
-0.01388555
-0.013854845
-0.01382414
-0.013793435
-0.013762729
-0.013732024
-0.013701319
-0.013670614
-0.013639908
-0.013609203
-0.013578498
-0.013547793
-0.013517088
-0.013486382
-0.013455677
-0.013424972
-0.013394267
-0.013363561
-0.013332856
-0.013302151
-0.013271446
-0.013240741
-0.013210035
-0.01317933
-0.013148625
-0.01311792
-0.013087214
-0.013056509
-0.013025804
-0.012995099
-0.012964394
-0.012933688
-0.012902983
-0.012872278
-0.012841573
-0.012810867
-0.012780162
-0.012749457
-0.012718752
-0.012688047
-0.012657341
-0.012626636
-0.012595931
-0.012565226
-0.01253452
-0.012503815
-0.01247311
-0.012442405
-0.0124117
-0.012380994
-0.012350289
-0.012319584
-0.012288879
-0.012258173
-0.012227468
-0.012196763
-0.012166058
-0.012135353
-0.012104647
-0.012073942
-0.012043237
-0.012012532
-0.011981826
-0.011951121
-0.011920416
-0.011889711
-0.011859006
-0.0118283
-0.011797595
-0.01176689
-0.011736185
-0.011705479
-0.011674774
-0.011644069
-0.011613364
-0.011582659
-0.011551953
-0.011521248
-0.011490543
-0.011459838
-0.011429132
-0.011398427
-0.011367722
-0.011337017
-0.011306312
-0.011275606
-0.011244901
-0.011214196
-0.011183491
-0.011152785
-0.01112208
-0.011091375
-0.01106067
-0.011029965
-0.010999259
-0.010968554
-0.010937849
-0.010907144
-0.010876438
-0.010845733
-0.010815028
-0.010784323
-0.010753618
-0.010722912
-0.010692207
-0.010661502
-0.010630797
-0.010600091
-0.010569386
-0.010538681
-0.010507976
-0.010477271
-0.010446565
-0.01041586
-0.010385155
-0.01035445
-0.010323744
-0.010293039
-0.010262334
-0.010231629
-0.010200924
-0.010170218
-0.010139513
-0.010108808
-0.010078103
-0.010047397
-0.010016692
-0.009985987
-0.009955282
-0.009924577
-0.009893871
-0.009863166
-0.009832461
-0.009801756
-0.00977105
-0.009740345
-0.00970964
-0.009678935
-0.00964823
-0.009617524
-0.009586819
-0.009556114
-0.009525409
-0.009494703
-0.009463998
-0.009433293
-0.009402588
-0.009371883
-0.009341177
-0.009310472
-0.009279767
-0.009249062
-0.009218356
-0.009187651
-0.009156946
-0.009126241
-0.009095536
-0.00906483
-0.009034125
-0.00900342
-0.008972715
-0.008942009
-0.008911304
-0.008880599
-0.008849894
-0.008819189
-0.008788483
-0.008757778
-0.008727073
-0.008696368
-0.008665662
-0.008634957
-0.008604252
-0.008573547
-0.008542842
-0.008512136
-0.008481431
-0.008450726
-0.008420021
-0.008389315
-0.00835861
-0.008327905
-0.0082972
-0.008266495
-0.008235789
-0.008205084
-0.008174379
-0.008143674
-0.008112968
-0.008082263
-0.008051558
-0.008020853
-0.007990148
-0.007959442
-0.007928737
-0.007898032
-0.007867327
-0.007836621
-0.007805916
-0.007775211
-0.007744506
-0.007713801
-0.007683095
-0.00765239
-0.007621685
-0.00759098
-0.007560274
-0.007529569
-0.007498864
-0.007468159
-0.007437454
-0.007406748
-0.007376043
-0.007345338
-0.007314633
-0.007283927
-0.007253222
-0.007222517
-0.007191812
-0.007161107
-0.007130401
-0.007099696
-0.007068991
-0.007038286
-0.00700758
-0.006976875
-0.00694617
-0.006915465
-0.00688476
-0.006854054
-0.006823349
-0.006792644
-0.006761939
-0.006731233
-0.006700528
-0.006669823
-0.006639118
-0.006608413
-0.006577707
-0.006547002
-0.006516297
-0.006485592
-0.006454886
-0.006424181
-0.006393476
-0.006362771
-0.006332066
-0.00630136
-0.006270655
-0.00623995
-0.006209245
-0.006178539
-0.006147834
-0.006117129
-0.006086424
-0.006055719
-0.006025013
-0.005994308
-0.005963603
-0.005932898
-0.005902192
-0.005871487
-0.005840782
-0.005810077
-0.005779372
-0.005748666
-0.005717961
-0.005687256
-0.005656551
-0.005625845
-0.00559514
-0.005564435
-0.00553373
-0.005503025
-0.005472319
-0.005441614
-0.005410909
-0.005380204
-0.005349498
-0.005318793
-0.005288088
-0.005257383
-0.005226678
-0.005195972
-0.005165267
-0.005134562
-0.005103857
-0.005073151
-0.005042446
-0.005011741
-0.004981036
-0.004950331
-0.004919625
-0.00488892
-0.004858215
-0.00482751
-0.004796804
-0.004766099
-0.004735394
-0.004704689
-0.004673984
-0.004643278
-0.004612573
-0.004581868
-0.004551163
-0.004520457
-0.004489752
-0.004459047
-0.004428342
-0.004397637
-0.004366931
-0.004336226
-0.004305521
-0.004274816
-0.00424411
-0.004213405
-0.0041827
-0.004151995
-0.00412129
-0.004090584
-0.004059879
-0.004029174
-0.003998469
-0.003967763
-0.003937058
-0.003906353
-0.003875648
-0.003844943
-0.003814237
-0.003783532
-0.003752827
-0.003722122
-0.003691416
-0.003660711
-0.003630006
-0.003599301
-0.003568596
-0.00353789
-0.003507185
-0.00347648
-0.003445775
-0.003415069
-0.003384364
-0.003353659
-0.003322954
-0.003292249
-0.003261543
-0.003230838
-0.003200133
-0.003169428
-0.003138722
-0.003108017
-0.003077312
-0.003046607
-0.003015901
-0.002985196
-0.002954491
-0.002923786
-0.002893081
-0.002862375
-0.00283167
-0.002800965
-0.00277026
-0.002739554
-0.002708849
-0.002678144
-0.002647439
-0.002616734
-0.002586028
-0.002555323
-0.002524618
-0.002493913
-0.002463207
-0.002432502
-0.002401797
-0.002371092
-0.002340387
-0.002309681
-0.002278976
-0.002248271
-0.002217566
-0.00218686
-0.002156155
-0.00212545
-0.002094745
-0.00206404
-0.002033334
-0.002002629
-0.001971924
-0.001941219
-0.001910513
-0.001879808
-0.001849103
-0.001818398
-0.001787693
-0.001756987
-0.001726282
-0.001695577
-0.001664872
-0.001634166
-0.001603461
-0.001572756
-0.001542051
-0.001511346
-0.00148064
-0.001449935
-0.00141923
-0.001388525
-0.001357819
-0.001327114
-0.001296409
-0.001265704
-0.001234999
-0.001204293
-0.001173588
-0.001142883
-0.001112178
-0.001081472
-0.001050767
-0.001020062
-0.000989357
-0.000958652
-0.000927946
-0.000897241
-0.000866536
-0.000835831
-0.000805125
-0.00077442
-0.000743715
-0.00071301
-0.000682305
-0.000651599
-0.000620894
-0.000590189
-0.000559484
-0.000528778
-0.000498073
-0.000467368
-0.000436663
-0.000405958
-0.000375252
-0.000344547
-0.000313842
-0.000283137
-0.000252431
-0.000221726
-0.000191021
-0.000160316
-0.000129611
-9.8905e-05
-6.82e-05
-3.7495e-05
-6.79e-06
2.3916e-05
5.4621e-05
8.5326e-05
0.000116031
0.000146736
0.000177442
0.000208147
0.000238852
0.000269557
0.000300263
0.000330968
0.000361673
0.000392378
0.000423083
0.000453789
0.000484494
0.000515199
0.000545904
0.00057661
0.000607315
0.00063802
0.000668725
0.00069943
0.000730136
0.000760841
0.000791546
0.000822251
0.000852957
0.000883662
0.000914367
0.000945072
0.000975777
0.001006483
0.001037188
0.001067893
0.001098598
0.001129304
0.001160009
0.001190714
0.001221419
0.001252124
0.00128283
0.001313535
0.00134424
0.001374945
0.001405651
0.001436356
0.001467061
0.001497766
0.001528471
0.001559177
0.001589882
0.001620587
0.001651292
0.001681998
0.001712703
0.001743408
0.001774113
0.001804818
0.001835524
0.001866229
0.001896934
0.001927639
0.001958345
0.00198905
0.002019755
0.00205046
0.002081165
0.002111871
0.002142576
0.002173281
0.002203986
0.002234692
0.002265397
0.002296102
0.002326807
0.002357512
0.002388218
0.002418923
0.002449628
0.002480333
0.002511039
0.002541744
0.002572449
0.002603154
0.002633859
0.002664565
0.00269527
0.002725975
0.00275668
0.002787386
0.002818091
0.002848796
0.002879501
0.002910206
0.002940912
0.002971617
0.003002322
0.003033027
0.003063733
0.003094438
0.003125143
0.003155848
0.003186553
0.003217259
0.003247964
0.003278669
0.003309374
0.00334008
0.003370785
0.00340149
0.003432195
0.0034629
0.003493606
0.003524311
0.003555016
0.003585721
0.003616427
0.003647132
0.003677837
0.003708542
0.003739247
0.003769953
0.003800658
0.003831363
0.003862068
0.003892774
0.003923479
0.003954184
0.003984889
0.004015594
0.0040463
0.004077005
0.00410771
0.004138415
0.004169121
0.004199826
0.004230531
0.004261236
0.004291941
0.004322647
0.004353352
0.004384057
0.004414762
0.004445468
0.004476173
0.004506878
0.004537583
0.004568288
0.004598994
0.004629699
0.004660404
0.004691109
0.004721815
0.00475252
0.004783225
0.00481393
0.004844635
0.004875341
0.004906046
0.004936751
0.004967456
0.004998162
0.005028867
0.005059572
0.005090277
0.005120982
0.005151688
0.005182393
0.005213098
0.005243803
0.005274509
0.005305214
0.005335919
0.005366624
0.005397329
0.005428035
0.00545874
0.005489445
0.00552015
0.005550856
0.005581561
0.005612266
0.005642971
0.005673676
0.005704382
0.005735087
0.005765792
0.005796497
0.005827203
0.005857908
0.005888613
0.005919318
0.005950023
0.005980729
0.006011434
0.006042139
0.006072844
0.00610355
0.006134255
0.00616496
0.006195665
0.00622637
0.006257076
0.006287781
0.006318486
0.006349191
0.006379897
0.006410602
0.006441307
0.006472012
0.006502717
0.006533423
0.006564128
0.006594833
0.006625538
0.006656244
0.006686949
0.006717654
0.006748359
0.006779064
0.00680977
0.006840475
0.00687118
0.006901885
0.006932591
0.006963296
0.006994001
0.007024706
0.007055411
0.007086117
0.007116822
0.007147527
0.007178232
0.007208938
0.007239643
0.007270348
0.007301053
0.007331758
0.007362464
0.007393169
0.007423874
0.007454579
0.007485285
0.00751599
0.007546695
0.0075774
0.007608105
0.007638811
0.007669516
0.007700221
0.007730926
0.007761632
0.007792337
0.007823042
0.007853747
0.007884452
0.007915158
0.007945863
0.007976568
0.008007273
0.008037979
0.008068684
0.008099389
0.008130094
0.008160799
0.008191505
0.00822221
0.008252915
0.00828362
0.008314326
0.008345031
0.008375736
0.008406441
0.008437146
0.008467852
0.008498557
0.008529262
0.008559967
0.008590673
0.008621378
0.008652083
0.008682788
0.008713493
0.008744199
0.008774904
0.008805609
0.008836314
0.00886702
0.008897725
0.00892843
0.008959135
0.00898984
0.009020546
0.009051251
0.009081956
0.009112661
0.009143367
0.009174072
0.009204777
0.009235482
0.009266187
0.009296893
0.009327598
0.009358303
0.009389008
0.009419714
0.009450419
0.009481124
0.009511829
0.009542534
0.00957324
0.009603945
0.00963465
0.009665355
0.009696061
0.009726766
0.009757471
0.009788176
0.009818881
0.009849587
0.009880292
0.009910997
0.009941702
0.009972408
0.010003113
0.010033818
0.010064523
0.010095228
0.010125934
0.010156639
0.010187344
0.010218049
0.010248755
0.01027946
0.010310165
0.01034087
0.010371575
0.010402281
0.010432986
0.010463691
0.010494396
0.010525102
0.010555807
0.010586512
0.010617281
0.01064805
0.010678866
0.01070973
0.010740641
0.0107716
0.010802606
0.01083366
0.010864761
0.010895911
0.010927108
0.010958353
0.010989646
0.011020987
0.011052377
0.011083814
0.0111153
0.011146834
0.011178417
0.011210048
0.011241728
0.011273457
0.011305234
0.01133706
0.011368935
0.011400859
0.011432832
0.011464854
0.011496925
0.011529046
0.011561216
0.011593435
0.011625704
0.011658023
0.011690391
0.011722809
0.011755276
0.011787794
0.011820361
0.011852979
0.011885646
0.011918364
0.011951132
0.011983951
0.01201682
0.012049739
0.012082709
0.01211573
0.012148801
0.012181923
0.012215096
0.01224832
0.012281595
0.012314922
0.012348299
0.012381728
0.012415208
0.012448739
0.012482322
0.012515957
0.012549643
0.012583381
0.012617171
0.012651013
0.012684906
0.012718852
0.01275285
0.012786901
0.012821003
0.012855158
0.012889366
0.012923626
