OpenDRT_v1.0-2.0_full-config_v2/transfer_functions/oetf_red_log3g10_to_linear.spi1d
Version 1
From -0.15 1.2
Length 8192
Components 1
{
-0.019873163
-0.019862314
-0.019851466
-0.019840618
-0.01982977
-0.019818921
-0.019808073
-0.019797225
-0.019786376
-0.019775528
-0.01976468
-0.019753831
-0.019742983
-0.019732135
-0.019721287
-0.019710438
-0.01969959
-0.019688742
-0.019677893
-0.019667045
-0.019656197
-0.019645348
-0.0196345
-0.019623652
-0.019612803
-0.019601955
-0.019591107
-0.019580259
-0.01956941
-0.019558562
-0.019547714
-0.019536865
-0.019526017
-0.019515169
-0.01950432
-0.019493472
-0.019482624
-0.019471775
-0.019460927
-0.019450079
-0.019439231
-0.019428382
-0.019417534
-0.019406686
-0.019395837
-0.019384989
-0.019374141
-0.019363292
-0.019352444
-0.019341596
-0.019330748
-0.019319899
-0.019309051
-0.019298203
-0.019287354
-0.019276506
-0.019265658
-0.019254809
-0.019243961
-0.019233113
-0.019222264
-0.019211416
-0.019200568
-0.01918972
-0.019178871
-0.019168023
-0.019157175
-0.019146326
-0.019135478
-0.01912463
-0.019113781
-0.019102933
-0.019092085
-0.019081237
-0.019070388
-0.01905954
-0.019048692
-0.019037843
-0.019026995
-0.019016147
-0.019005298
-0.01899445
-0.018983602
-0.018972753
-0.018961905
-0.018951057
-0.018940209
-0.01892936
-0.018918512
-0.018907664
-0.018896815
-0.018885967
-0.018875119
-0.01886427
-0.018853422
-0.018842574
-0.018831726
-0.018820877
-0.018810029
-0.018799181
-0.018788332
-0.018777484
-0.018766636
-0.018755787
-0.018744939
-0.018734091
-0.018723242
-0.018712394
-0.018701546
-0.018690698
-0.018679849
-0.018669001
-0.018658153
-0.018647304
-0.018636456
-0.018625608
-0.018614759
-0.018603911
-0.018593063
-0.018582214
-0.018571366
-0.018560518
-0.01854967
-0.018538821
-0.018527973
-0.018517125
-0.018506276
-0.018495428
-0.01848458
-0.018473731
-0.018462883
-0.018452035
-0.018441187
-0.018430338
-0.01841949
-0.018408642
-0.018397793
-0.018386945
-0.018376097
-0.018365248
-0.0183544
-0.018343552
-0.018332703
-0.018321855
-0.018311007
-0.018300159
-0.01828931
-0.018278462
-0.018267614
-0.018256765
-0.018245917
-0.018235069
-0.01822422
-0.018213372
-0.018202524
-0.018191676
-0.018180827
-0.018169979
-0.018159131
-0.018148282
-0.018137434
-0.018126586
-0.018115737
-0.018104889
-0.018094041
-0.018083192
-0.018072344
-0.018061496
-0.018050648
-0.018039799
-0.018028951
-0.018018103
-0.018007254
-0.017996406
-0.017985558
-0.017974709
-0.017963861
-0.017953013
-0.017942165
-0.017931316
-0.017920468
-0.01790962
-0.017898771
-0.017887923
-0.017877075
-0.017866226
-0.017855378
-0.01784453
-0.017833681
-0.017822833
-0.017811985
-0.017801137
-0.017790288
-0.01777944
-0.017768592
-0.017757743
-0.017746895
-0.017736047
-0.017725198
-0.01771435
-0.017703502
-0.017692653
-0.017681805
-0.017670957
-0.017660109
-0.01764926
-0.017638412
-0.017627564
-0.017616715
-0.017605867
-0.017595019
-0.01758417
-0.017573322
-0.017562474
-0.017551626
-0.017540777
-0.017529929
-0.017519081
-0.017508232
-0.017497384
-0.017486536
-0.017475687
-0.017464839
-0.017453991
-0.017443142
-0.017432294
-0.017421446
-0.017410598
-0.017399749
-0.017388901
-0.017378053
-0.017367204
-0.017356356
-0.017345508
-0.017334659
-0.017323811
-0.017312963
-0.017302115
-0.017291266
-0.017280418
-0.01726957
-0.017258721
-0.017247873
-0.017237025
-0.017226176
-0.017215328
-0.01720448
-0.017193631
-0.017182783
-0.017171935
-0.017161087
-0.017150238
-0.01713939
-0.017128542
-0.017117693
-0.017106845
-0.017095997
-0.017085148
-0.0170743
-0.017063452
-0.017052604
-0.017041755
-0.017030907
-0.017020059
-0.01700921
-0.016998362
-0.016987514
-0.016976665
-0.016965817
-0.016954969
-0.01694412
-0.016933272
-0.016922424
-0.016911576
-0.016900727
-0.016889879
-0.016879031
-0.016868182
-0.016857334
-0.016846486
-0.016835637
-0.016824789
-0.016813941
-0.016803093
-0.016792244
-0.016781396
-0.016770548
-0.016759699
-0.016748851
-0.016738003
-0.016727154
-0.016716306
-0.016705458
-0.016694609
-0.016683761
-0.016672913
-0.016662065
-0.016651216
-0.016640368
-0.01662952
-0.016618671
-0.016607823
-0.016596975
-0.016586126
-0.016575278
-0.01656443
-0.016553581
-0.016542733
-0.016531885
-0.016521037
-0.016510188
-0.01649934
-0.016488492
-0.016477643
-0.016466795
-0.016455947
-0.016445098
-0.01643425
-0.016423402
-0.016412554
-0.016401705
-0.016390857
-0.016380009
-0.01636916
-0.016358312
-0.016347464
-0.016336615
-0.016325767
-0.016314919
-0.01630407
-0.016293222
-0.016282374
-0.016271526
-0.016260677
-0.016249829
-0.016238981
-0.016228132
-0.016217284
-0.016206436
-0.016195587
-0.016184739
-0.016173891
-0.016163043
-0.016152194
-0.016141346
-0.016130498
-0.016119649
-0.016108801
-0.016097953
-0.016087104
-0.016076256
-0.016065408
-0.016054559
-0.016043711
-0.016032863
-0.016022015
-0.016011166
-0.016000318
-0.01598947
-0.015978621
-0.015967773
-0.015956925
-0.015946076
-0.015935228
-0.01592438
-0.015913532
-0.015902683
-0.015891835
-0.015880987
-0.015870138
-0.01585929
-0.015848442
-0.015837593
-0.015826745
-0.015815897
-0.015805048
-0.0157942
-0.015783352
-0.015772504
-0.015761655
-0.015750807
-0.015739959
-0.01572911
-0.015718262
-0.015707414
-0.015696565
-0.015685717
-0.015674869
-0.01566402
-0.015653172
-0.015642324
-0.015631476
-0.015620627
-0.015609779
-0.015598931
-0.015588082
-0.015577234
-0.015566386
-0.015555537
-0.015544689
-0.015533841
-0.015522993
-0.015512144
-0.015501296
-0.015490448
-0.015479599
-0.015468751
-0.015457903
-0.015447054
-0.015436206
-0.015425358
-0.015414509
-0.015403661
-0.015392813
-0.015381965
-0.015371116
-0.015360268
-0.01534942
-0.015338571
-0.015327723
-0.015316875
-0.015306026
-0.015295178
-0.01528433
-0.015273482
-0.015262633
-0.015251785
-0.015240937
-0.015230088
-0.01521924
-0.015208392
-0.015197543
-0.015186695
-0.015175847
-0.015164998
-0.01515415
-0.015143302
-0.015132454
-0.015121605
-0.015110757
-0.015099909
-0.01508906
-0.015078212
-0.015067364
-0.015056515
-0.015045667
-0.015034819
-0.015023971
-0.015013122
-0.015002274
-0.014991426
-0.014980577
-0.014969729
-0.014958881
-0.014948032
-0.014937184
-0.014926336
-0.014915487
-0.014904639
-0.014893791
-0.014882943
-0.014872094
-0.014861246
-0.014850398
-0.014839549
-0.014828701
-0.014817853
-0.014807004
-0.014796156
-0.014785308
-0.014774459
-0.014763611
-0.014752763
-0.014741915
-0.014731066
-0.014720218
-0.01470937
-0.014698521
-0.014687673
-0.014676825
-0.014665976
-0.014655128
-0.01464428
-0.014633432
-0.014622583
-0.014611735
-0.014600887
-0.014590038
-0.01457919
-0.014568342
-0.014557493
-0.014546645
-0.014535797
-0.014524948
-0.0145141
-0.014503252
-0.014492404
-0.014481555
-0.014470707
-0.014459859
-0.01444901
-0.014438162
-0.014427314
-0.014416465
-0.014405617
-0.014394769
-0.014383921
-0.014373072
-0.014362224
-0.014351376
-0.014340527
-0.014329679
-0.014318831
-0.014307982
-0.014297134
-0.014286286
-0.014275437
-0.014264589
-0.014253741
-0.014242893
-0.014232044
-0.014221196
-0.014210348
-0.014199499
-0.014188651
-0.014177803
-0.014166954
-0.014156106
-0.014145258
-0.01413441
-0.014123561
-0.014112713
-0.014101865
-0.014091016
-0.014080168
-0.01406932
-0.014058471
-0.014047623
-0.014036775
-0.014025926
-0.014015078
-0.01400423
-0.013993382
-0.013982533
-0.013971685
-0.013960837
-0.013949988
-0.01393914
-0.013928292
-0.013917443
-0.013906595
-0.013895747
-0.013884898
-0.01387405
-0.013863202
-0.013852354
-0.013841505
-0.013830657
-0.013819809
-0.01380896
-0.013798112
-0.013787264
-0.013776415
-0.013765567
-0.013754719
-0.013743871
-0.013733022
-0.013722174
-0.013711326
-0.013700477
-0.013689629
-0.013678781
-0.013667932
-0.013657084
-0.013646236
-0.013635387
-0.013624539
-0.013613691
-0.013602843
-0.013591994
-0.013581146
-0.013570298
-0.013559449
-0.013548601
-0.013537753
-0.013526904
-0.013516056
-0.013505208
-0.01349436
-0.013483511
-0.013472663
-0.013461815
-0.013450966
-0.013440118
-0.01342927
-0.013418421
-0.013407573
-0.013396725
-0.013385876
-0.013375028
-0.01336418
-0.013353332
-0.013342483
-0.013331635
-0.013320787
-0.013309938
-0.01329909
-0.013288242
-0.013277393
-0.013266545
-0.013255697
-0.013244849
-0.013234
-0.013223152
-0.013212304
-0.013201455
-0.013190607
-0.013179759
-0.01316891
-0.013158062
-0.013147214
-0.013136365
-0.013125517
-0.013114669
-0.013103821
-0.013092972
-0.013082124
-0.013071276
-0.013060427
-0.013049579
-0.013038731
-0.013027882
-0.013017034
-0.013006186
-0.012995338
-0.012984489
-0.012973641
-0.012962793
-0.012951944
-0.012941096
-0.012930248
-0.012919399
-0.012908551
-0.012897703
-0.012886854
-0.012876006
-0.012865158
-0.01285431
-0.012843461
-0.012832613
-0.012821765
-0.012810916
-0.012800068
-0.01278922
-0.012778371
-0.012767523
-0.012756675
-0.012745826
-0.012734978
-0.01272413
-0.012713282
-0.012702433
-0.012691585
-0.012680737
-0.012669888
-0.01265904
-0.012648192
-0.012637343
-0.012626495
-0.012615647
-0.012604799
-0.01259395
-0.012583102
-0.012572254
-0.012561405
-0.012550557
-0.012539709
-0.01252886
-0.012518012
-0.012507164
-0.012496315
-0.012485467
-0.012474619
-0.012463771
-0.012452922
-0.012442074
-0.012431226
-0.012420377
-0.012409529
-0.012398681
-0.012387832
-0.012376984
-0.012366136
-0.012355288
-0.012344439
-0.012333591
-0.012322743
-0.012311894
-0.012301046
-0.012290198
-0.012279349
-0.012268501
-0.012257653
-0.012246804
-0.012235956
-0.012225108
-0.01221426
-0.012203411
-0.012192563
-0.012181715
-0.012170866
-0.012160018
-0.01214917
-0.012138321
-0.012127473
-0.012116625
-0.012105777
-0.012094928
-0.01208408
-0.012073232
-0.012062383
-0.012051535
-0.012040687
-0.012029838
-0.01201899
-0.012008142
-0.011997293
-0.011986445
-0.011975597
-0.011964749
-0.0119539
-0.011943052
-0.011932204
-0.011921355
-0.011910507
-0.011899659
-0.01188881
-0.011877962
-0.011867114
-0.011856265
-0.011845417
-0.011834569
-0.011823721
-0.011812872
-0.011802024
-0.011791176
-0.011780327
-0.011769479
-0.011758631
-0.011747782
-0.011736934
-0.011726086
-0.011715238
-0.011704389
-0.011693541
-0.011682693
-0.011671844
-0.011660996
-0.011650148
-0.011639299
-0.011628451
-0.011617603
-0.011606754
-0.011595906
-0.011585058
-0.01157421
-0.011563361
-0.011552513
-0.011541665
-0.011530816
-0.011519968
-0.01150912
-0.011498271
-0.011487423
-0.011476575
-0.011465727
-0.011454878
-0.01144403
-0.011433182
-0.011422333
-0.011411485
-0.011400637
-0.011389788
-0.01137894
-0.011368092
-0.011357243
-0.011346395
-0.011335547
-0.011324699
-0.01131385
-0.011303002
-0.011292154
-0.011281305
-0.011270457
-0.011259609
-0.01124876
-0.011237912
-0.011227064
-0.011216216
-0.011205367
-0.011194519
-0.011183671
-0.011172822
-0.011161974
-0.011151126
-0.011140277
-0.011129429
-0.011118581
-0.011107732
-0.011096884
-0.011086036
-0.011075188
-0.011064339
-0.011053491
-0.011042643
-0.011031794
-0.011020946
-0.011010098
-0.010999249
-0.010988401
-0.010977553
-0.010966704
-0.010955856
-0.010945008
-0.01093416
-0.010923311
-0.010912463
-0.010901615
-0.010890766
-0.010879918
-0.01086907
-0.010858221
-0.010847373
-0.010836525
-0.010825677
-0.010814828
-0.01080398
-0.010793132
-0.010782283
-0.010771435
-0.010760587
-0.010749738
-0.01073889
-0.010728042
-0.010717193
-0.010706345
-0.010695497
-0.010684649
-0.0106738
-0.010662952
-0.010652104
-0.010641255
-0.010630407
-0.010619559
-0.01060871
-0.010597862
-0.010587014
-0.010576166
-0.010565317
-0.010554469
-0.010543621
-0.010532772
-0.010521924
-0.010511076
-0.010500227
-0.010489379
-0.010478531
-0.010467682
-0.010456834
-0.010445986
-0.010435138
-0.010424289
-0.010413441
-0.010402593
-0.010391744
-0.010380896
-0.010370048
-0.010359199
-0.010348351
-0.010337503
-0.010326655
-0.010315806
-0.010304958
-0.01029411
-0.010283261
-0.010272413
-0.010261565
-0.010250716
-0.010239868
-0.01022902
-0.010218171
-0.010207323
-0.010196475
-0.010185627
-0.010174778
-0.01016393
-0.010153082
-0.010142233
-0.010131385
-0.010120537
-0.010109688
-0.01009884
-0.010087992
-0.010077144
-0.010066295
-0.010055447
-0.010044599
-0.01003375
-0.010022902
-0.010012054
-0.010001205
-0.00999035
-0.009979476
-0.009968584
-0.009957673
-0.009946744
-0.009935796
-0.00992483
-0.009913845
-0.009902842
-0.00989182
-0.009880779
-0.00986972
-0.009858641
-0.009847545
-0.009836429
-0.009825294
-0.009814141
-0.009802969
-0.009791778
-0.009780567
-0.009769338
-0.00975809
-0.009746823
-0.009735537
-0.009724231
-0.009712907
-0.009701563
-0.0096902
-0.009678818
-0.009667417
-0.009655996
-0.009644556
-0.009633097
-0.009621618
-0.009610119
-0.009598602
-0.009587064
-0.009575508
-0.009563931
-0.009552335
-0.00954072
-0.009529084
-0.009517429
-0.009505755
-0.00949406
-0.009482346
-0.009470612
-0.009458858
-0.009447084
-0.00943529
-0.009423476
-0.009411642
-0.009399788
-0.009387914
-0.00937602
-0.009364106
-0.009352172
-0.009340217
-0.009328242
-0.009316247
-0.009304232
-0.009292196
-0.00928014
-0.009268063
-0.009255966
-0.009243849
-0.009231711
-0.009219552
-0.009207373
-0.009195173
-0.009182953
-0.009170711
-0.009158449
-0.009146167
-0.009133863
-0.009121539
-0.009109194
-0.009096828
-0.009084441
-0.009072033
-0.009059604
-0.009047154
-0.009034683
-0.00902219
-0.009009677
-0.008997142
-0.008984586
-0.008972009
-0.008959411
-0.008946791
-0.00893415
-0.008921488
-0.008908804
-0.008896098
-0.008883371
-0.008870623
-0.008857853
-0.008845061
-0.008832248
-0.008819412
-0.008806556
-0.008793677
-0.008780777
-0.008767854
-0.00875491
-0.008741944
-0.008728956
-0.008715946
-0.008702914
-0.00868986
-0.008676784
-0.008663685
-0.008650565
-0.008637422
-0.008624257
-0.00861107
-0.00859786
-0.008584628
-0.008571374
-0.008558097
-0.008544797
-0.008531476
-0.008518131
-0.008504764
-0.008491374
-0.008477962
-0.008464527
-0.008451069
-0.008437588
-0.008424085
-0.008410559
-0.00839701
-0.008383437
-0.008369842
-0.008356224
-0.008342583
-0.008328918
-0.008315231
-0.00830152
-0.008287786
-0.008274029
-0.008260249
-0.008246445
-0.008232618
-0.008218767
-0.008204893
-0.008190996
-0.008177075
-0.00816313
-0.008149162
-0.00813517
-0.008121155
-0.008107115
-0.008093052
-0.008078965
-0.008064854
-0.00805072
-0.008036561
-0.008022379
-0.008008172
-0.007993941
-0.007979687
-0.007965408
-0.007951105
-0.007936777
-0.007922426
-0.00790805
-0.00789365
-0.007879225
-0.007864776
-0.007850302
-0.007835804
-0.007821282
-0.007806735
-0.007792163
-0.007777566
-0.007762945
-0.007748299
-0.007733629
-0.007718933
-0.007704212
-0.007689467
-0.007674697
-0.007659901
-0.007645081
-0.007630235
-0.007615365
-0.007600469
-0.007585548
-0.007570601
-0.00755563
-0.007540632
-0.00752561
-0.007510562
-0.007495489
-0.00748039
-0.007465265
-0.007450115
-0.00743494
-0.007419738
-0.007404511
-0.007389258
-0.007373979
-0.007358675
-0.007343344
-0.007327987
-0.007312605
-0.007297196
-0.007281762
-0.007266301
-0.007250814
-0.007235301
-0.007219761
-0.007204195
-0.007188603
-0.007172984
-0.007157339
-0.007141668
-0.00712597
-0.007110245
-0.007094494
-0.007078716
-0.007062911
-0.00704708
-0.007031221
-0.007015336
-0.006999424
-0.006983485
-0.006967519
-0.006951526
-0.006935506
-0.006919459
-0.006903384
-0.006887283
-0.006871154
-0.006854998
-0.006838814
-0.006822603
-0.006806365
-0.006790099
-0.006773805
-0.006757484
-0.006741136
-0.006724759
-0.006708355
-0.006691923
-0.006675464
-0.006658976
-0.00664246
-0.006625917
-0.006609345
-0.006592746
-0.006576118
-0.006559462
-0.006542778
-0.006526066
-0.006509325
-0.006492556
-0.006475759
-0.006458933
-0.006442079
-0.006425196
-0.006408285
-0.006391345
-0.006374376
-0.006357378
-0.006340352
-0.006323297
-0.006306213
-0.0062891
-0.006271958
-0.006254787
-0.006237587
-0.006220358
-0.0062031
-0.006185812
-0.006168495
-0.006151149
-0.006133774
-0.006116369
-0.006098934
-0.00608147
-0.006063977
-0.006046454
-0.006028901
-0.006011318
-0.005993706
-0.005976064
-0.005958392
-0.00594069
-0.005922958
-0.005905196
-0.005887404
-0.005869581
-0.005851729
-0.005833847
-0.005815934
-0.00579799
-0.005780017
-0.005762013
-0.005743978
-0.005725913
-0.005707817
-0.005689691
-0.005671534
-0.005653346
-0.005635128
-0.005616878
-0.005598598
-0.005580287
-0.005561945
-0.005543571
-0.005525167
-0.005506731
-0.005488264
-0.005469766
-0.005451237
-0.005432676
-0.005414084
-0.00539546
-0.005376805
-0.005358118
-0.005339399
-0.005320649
-0.005301867
-0.005283053
-0.005264207
-0.00524533
-0.00522642
-0.005207479
-0.005188505
-0.005169499
-0.005150461
-0.005131391
-0.005112289
-0.005093154
-0.005073987
-0.005054787
-0.005035555
-0.00501629
-0.004996992
-0.004977662
-0.0049583
-0.004938904
-0.004919475
-0.004900014
-0.00488052
-0.004860992
-0.004841432
-0.004821838
-0.004802212
-0.004782552
-0.004762859
-0.004743132
-0.004723372
-0.004703578
-0.004683751
-0.004663891
-0.004643997
-0.004624069
-0.004604107
-0.004584112
-0.004564082
-0.004544019
-0.004523922
-0.004503791
-0.004483625
-0.004463426
-0.004443192
-0.004422924
-0.004402622
-0.004382285
-0.004361914
-0.004341509
-0.004321068
-0.004300594
-0.004280084
-0.00425954
-0.004238961
-0.004218347
-0.004197698
-0.004177015
-0.004156296
-0.004135542
-0.004114753
-0.004093929
-0.00407307
-0.004052175
-0.004031245
-0.004010279
-0.003989278
-0.003968241
-0.003947169
-0.003926061
-0.003904917
-0.003883738
-0.003862522
-0.003841271
-0.003819984
-0.00379866
-0.003777301
-0.003755905
-0.003734473
-0.003713005
-0.003691501
-0.00366996
-0.003648382
-0.003626768
-0.003605118
-0.003583431
-0.003561707
-0.003539946
-0.003518148
-0.003496314
-0.003474442
-0.003452534
-0.003430588
-0.003408605
-0.003386585
-0.003364528
-0.003342433
-0.003320301
-0.003298132
-0.003275924
-0.00325368
-0.003231397
-0.003209077
-0.003186719
-0.003164323
-0.00314189
-0.003119418
-0.003096908
-0.00307436
-0.003051774
-0.00302915
-0.003006487
-0.002983786
-0.002961047
-0.002938269
-0.002915452
-0.002892597
-0.002869703
-0.002846771
-0.002823799
-0.002800789
-0.002777739
-0.002754651
-0.002731523
-0.002708357
-0.002685151
-0.002661906
-0.002638621
-0.002615297
-0.002591933
-0.00256853
-0.002545088
-0.002521605
-0.002498083
-0.002474521
-0.002450919
-0.002427277
-0.002403595
-0.002379873
-0.002356111
-0.002332309
-0.002308466
-0.002284583
-0.002260659
-0.002236695
-0.002212691
-0.002188645
-0.002164559
-0.002140432
-0.002116265
-0.002092056
-0.002067807
-0.002043516
-0.002019184
-0.001994811
-0.001970397
-0.001945941
-0.001921444
-0.001896905
-0.001872325
-0.001847704
-0.00182304
-0.001798335
-0.001773588
-0.001748799
-0.001723968
-0.001699095
-0.00167418
-0.001649223
-0.001624223
-0.001599181
-0.001574097
-0.00154897
-0.001523801
-0.001498589
-0.001473334
-0.001448037
-0.001422697
-0.001397314
-0.001371887
-0.001346418
-0.001320906
-0.00129535
-0.001269751
-0.001244109
-0.001218424
-0.001192695
-0.001166922
-0.001141106
-0.001115245
-0.001089342
-0.001063394
-0.001037402
-0.001011367
-0.000985287
-0.000959163
-0.000932995
-0.000906782
-0.000880525
-0.000854224
-0.000827878
-0.000801488
-0.000775052
-0.000748573
-0.000722048
-0.000695478
-0.000668863
-0.000642203
-0.000615499
-0.000588748
-0.000561953
-0.000535112
-0.000508226
-0.000481294
-0.000454317
-0.000427293
-0.000400224
-0.00037311
-0.000345949
-0.000318742
-0.00029149
-0.000264191
-0.000236846
-0.000209454
-0.000182017
-0.000154532
-0.000127001
-9.9424e-05
-7.18e-05
-4.4129e-05
-1.6411e-05
1.1354e-05
3.9165e-05
6.7024e-05
9.493e-05
0.000122883
0.000150884
0.000178932
0.000207028
0.000235171
0.000263361
0.0002916
0.000319886
0.000348221
0.000376603
0.000405033
0.000433511
0.000462038
0.000490613
0.000519236
0.000547908
0.000576629
0.000605398
0.000634216
0.000663082
0.000691998
0.000720962
0.000749975
0.000779038
0.00080815
0.000837311
0.000866521
0.000895781
0.000925091
0.00095445
0.000983859
0.001013318
0.001042826
0.001072385
0.001101993
0.001131652
0.001161361
0.00119112
0.00122093
0.00125079
0.001280701
0.001310662
0.001340674
0.001370737
0.001400851
0.001431016
0.001461232
0.001491499
0.001521817
0.001552187
0.001582608
0.001613081
0.001643605
0.001674181
0.001704809
0.001735488
0.00176622
0.001797004
0.001827839
0.001858727
0.001889668
0.00192066
0.001951705
0.001982803
0.002013954
0.002045157
0.002076413
0.002107722
0.002139084
0.002170499
0.002201967
0.002233488
0.002265063
0.002296692
0.002328374
0.002360109
0.002391899
0.002423742
0.002455639
0.00248759
0.002519595
0.002551655
0.002583769
0.002615937
0.002648159
0.002680436
0.002712768
0.002745155
0.002777596
0.002810093
0.002842644
0.002875251
0.002907912
0.002940629
0.002973402
0.00300623
0.003039113
0.003072053
0.003105048
0.003138099
0.003171206
0.003204369
0.003237588
0.003270863
0.003304195
0.003337583
0.003371028
0.003404529
0.003438087
0.003471702
0.003505374
0.003539103
0.003572889
0.003606732
0.003640632
0.00367459
0.003708606
0.003742679
0.00377681
0.003810998
0.003845245
0.003879549
0.003913912
0.003948332
0.003982811
0.004017349
0.004051945
0.004086599
0.004121312
0.004156084
0.004190915
0.004225805
0.004260754
0.004295762
0.004330829
0.004365956
0.004401142
0.004436388
0.004471694
0.004507059
0.004542484
0.004577969
0.004613515
0.00464912
0.004684786
0.004720512
0.004756299
0.004792146
0.004828054
0.004864023
0.004900053
0.004936144
0.004972296
0.005008509
0.005044783
0.005081119
0.005117516
0.005153975
0.005190496
0.005227079
0.005263723
0.00530043
0.005337199
0.00537403
0.005410923
0.005447879
0.005484898
0.005521979
0.005559123
0.00559633
0.0056336
0.005670933
0.005708329
0.005745789
0.005783312
0.005820898
0.005858548
0.005896262
0.00593404
0.005971882
0.006009788
0.006047758
0.006085792
0.006123891
0.006162054
0.006200282
0.006238575
0.006276933
0.006315355
0.006353843
0.006392396
0.006431014
0.006469697
0.006508446
0.006547261
0.006586141
0.006625087
0.006664099
0.006703177
0.006742322
0.006781532
0.006820809
0.006860153
0.006899563
0.00693904
0.006978584
0.007018195
0.007057872
0.007097617
0.00713743
0.00717731
0.007217257
0.007257272
0.007297354
0.007337505
0.007377724
0.00741801
0.007458365
0.007498789
0.00753928
0.007579841
0.00762047
0.007661167
0.007701934
0.00774277
0.007783675
0.007824649
0.007865692
0.007906805
0.007947988
0.007989241
0.008030563
0.008071955
0.008113418
0.00815495
0.008196553
0.008238227
0.00827997
0.008321785
0.008363671
0.008405627
0.008447654
0.008489753
0.008531923
0.008574164
0.008616477
0.008658862
0.008701318
0.008743846
0.008786446
0.008829119
0.008871863
0.008914681
0.00895757
0.009000532
0.009043567
0.009086675
0.009129856
0.00917311
0.009216437
0.009259837
0.009303311
0.009346859
0.009390481
0.009434176
0.009477945
0.009521789
0.009565706
0.009609698
0.009653765
0.009697906
0.009742122
0.009786413
0.009830779
0.00987522
0.009919736
0.009964327
0.010008995
0.010053737
0.010098556
0.01014345
0.010188421
0.010233467
0.01027859
0.01032379
0.010369065
0.010414418
0.010459847
0.010505354
0.010550937
0.010596597
0.010642335
0.010688151
0.010734044
0.010780014
0.010826063
0.010872189
0.010918394
0.010964677
0.011011038
0.011057477
0.011103996
0.011150593
0.011197269
0.011244024
0.011290858
0.011337772
0.011384765
0.011431838
0.01147899
0.011526222
0.011573534
0.011620927
0.011668399
0.011715952
0.011763586
0.0118113
0.011859095
0.011906971
0.011954928
0.012002966
0.012051086
0.012099287
0.012147569
0.012195934
0.01224438
0.012292908
0.012341519
0.012390212
0.012438987
0.012487845
0.012536786
0.012585809
0.012634916
0.012684106
0.012733379
0.012782735
0.012832175
0.012881699
0.012931307
0.012980999
0.013030775
0.013080635
0.013130579
0.013180608
0.013230722
0.013280921
0.013331205
0.013381574
0.013432028
0.013482568
0.013533193
0.013583904
0.013634701
0.013685584
0.013736553
0.013787608
0.01383875
0.013889978
0.013941294
0.013992696
0.014044185
0.014095761
0.014147425
0.014199176
0.014251015
0.014302942
0.014354956
0.014407059
0.01445925
0.014511529
0.014563897
0.014616353
0.014668899
0.014721533
0.014774256
0.014827069
0.014879971
0.014932963
0.014986045
0.015039216
0.015092477
0.015145829
0.015199271
0.015252804
0.015306427
0.015360141
0.015413946
0.015467842
0.015521829
0.015575908
0.015630078
0.01568434
0.015738694
0.01579314
0.015847678
0.015902309
0.015957032
0.016011848
0.016066756
0.016121758
0.016176853
0.016232041
0.016287322
0.016342697
0.016398166
0.016453729
0.016509386
0.016565137
0.016620983
0.016676923
0.016732958
0.016789088
0.016845313
0.016901633
0.016958048
0.017014559
0.017071166
0.017127868
0.017184667
0.017241562
