OpenDRT_v1.0-2.0_full-config_v2/transfer_functions/oetf_samsung_log_to_linear.spi1d
Version 1
From -0.15 1.2
Length 8192
Components 1
{
-0.05
-0.05
-0.05
-0.05
-0.05
-0.05
-0.05
-0.05
-0.05
-0.05
-0.05
-0.05
-0.05
-0.05
-0.05
-0.05
-0.05
-0.05
-0.05
-0.05
-0.05
-0.05
-0.05
-0.05
-0.05
-0.05
-0.05
-0.05
-0.05
-0.05
-0.05
-0.05
-0.05
-0.05
-0.05
-0.05
-0.05
-0.05
-0.05
-0.05
-0.05
-0.05
-0.05
-0.05
-0.05
-0.05
-0.05
-0.05
-0.05
-0.05
-0.05
-0.05
-0.05
-0.05
-0.05
-0.05
-0.05
-0.05
-0.05
-0.05
-0.05
-0.05
-0.05
-0.05
-0.05
-0.05
-0.05
-0.05
-0.05
-0.05
-0.05
-0.05
-0.05
-0.05
-0.05
-0.05
-0.05
-0.05
-0.05
-0.05
-0.05
-0.05
-0.05
-0.05
-0.05
-0.05
-0.05
-0.05
-0.05
-0.05
-0.05
-0.05
-0.05
-0.05
-0.05
-0.05
-0.05
-0.05
-0.05
-0.05
-0.05
-0.05
-0.05
-0.05
-0.05
-0.05
-0.05
-0.05
-0.05
-0.05
-0.05
-0.05
-0.05
-0.05
-0.05
-0.05
-0.05
-0.05
-0.05
-0.05
-0.05
-0.05
-0.05
-0.05
-0.05
-0.05
-0.05
-0.05
-0.05
-0.05
-0.05
-0.05
-0.05
-0.05
-0.05
-0.05
-0.05
-0.05
-0.05
-0.05
-0.05
-0.05
-0.05
-0.05
-0.05
-0.05
-0.05
-0.05
-0.05
-0.05
-0.05
-0.05
-0.05
-0.05
-0.05
-0.05
-0.05
-0.05
-0.05
-0.05
-0.05
-0.05
-0.05
-0.05
-0.05
-0.05
-0.05
-0.05
-0.05
-0.05
-0.05
-0.05
-0.05
-0.05
-0.05
-0.05
-0.05
-0.05
-0.05
-0.05
-0.05
-0.05
-0.05
-0.05
-0.05
-0.05
-0.05
-0.05
-0.05
-0.05
-0.05
-0.05
-0.05
-0.05
-0.05
-0.05
-0.05
-0.05
-0.05
-0.05
-0.05
-0.05
-0.05
-0.05
-0.05
-0.05
-0.05
-0.05
-0.05
-0.05
-0.05
-0.05
-0.05
-0.05
-0.05
-0.05
-0.05
-0.05
-0.05
-0.05
-0.05
-0.05
-0.05
-0.05
-0.05
-0.05
-0.05
-0.05
-0.05
-0.05
-0.05
-0.05
-0.05
-0.05
-0.05
-0.05
-0.05
-0.05
-0.05
-0.05
-0.05
-0.05
-0.05
-0.05
-0.05
-0.05
-0.05
-0.05
-0.05
-0.05
-0.05
-0.05
-0.05
-0.05
-0.05
-0.05
-0.05
-0.05
-0.05
-0.05
-0.05
-0.05
-0.05
-0.05
-0.05
-0.05
-0.05
-0.05
-0.05
-0.05
-0.05
-0.05
-0.05
-0.05
-0.05
-0.05
-0.05
-0.05
-0.05
-0.05
-0.05
-0.05
-0.05
-0.05
-0.05
-0.05
-0.05
-0.05
-0.05
-0.05
-0.05
-0.05
-0.05
-0.05
-0.05
-0.05
-0.05
-0.05
-0.05
-0.05
-0.05
-0.05
-0.05
-0.05
-0.05
-0.05
-0.05
-0.05
-0.05
-0.05
-0.05
-0.05
-0.05
-0.05
-0.05
-0.05
-0.05
-0.05
-0.05
-0.05
-0.05
-0.05
-0.05
-0.05
-0.05
-0.05
-0.05
-0.05
-0.05
-0.05
-0.05
-0.05
-0.05
-0.05
-0.05
-0.05
-0.05
-0.05
-0.05
-0.05
-0.05
-0.05
-0.05
-0.05
-0.05
-0.05
-0.05
-0.05
-0.05
-0.05
-0.05
-0.05
-0.05
-0.05
-0.05
-0.05
-0.05
-0.05
-0.05
-0.05
-0.05
-0.05
-0.05
-0.05
-0.05
-0.05
-0.05
-0.05
-0.05
-0.05
-0.05
-0.05
-0.05
-0.05
-0.05
-0.05
-0.05
-0.05
-0.05
-0.05
-0.05
-0.05
-0.05
-0.05
-0.05
-0.05
-0.05
-0.05
-0.05
-0.05
-0.05
-0.05
-0.05
-0.05
-0.05
-0.05
-0.05
-0.05
-0.05
-0.05
-0.05
-0.05
-0.05
-0.05
-0.05
-0.05
-0.05
-0.05
-0.05
-0.05
-0.05
-0.05
-0.05
-0.05
-0.05
-0.05
-0.05
-0.05
-0.05
-0.05
-0.05
-0.05
-0.05
-0.05
-0.05
-0.05
-0.05
-0.05
-0.05
-0.05
-0.05
-0.05
-0.05
-0.05
-0.05
-0.05
-0.05
-0.05
-0.05
-0.05
-0.05
-0.05
-0.05
-0.05
-0.05
-0.05
-0.05
-0.05
-0.05
-0.05
-0.05
-0.05
-0.05
-0.05
-0.05
-0.05
-0.05
-0.05
-0.05
-0.05
-0.05
-0.05
-0.05
-0.05
-0.05
-0.05
-0.05
-0.05
-0.05
-0.05
-0.05
-0.05
-0.05
-0.05
-0.05
-0.05
-0.05
-0.05
-0.05
-0.05
-0.05
-0.05
-0.05
-0.05
-0.05
-0.05
-0.05
-0.05
-0.05
-0.05
-0.05
-0.05
-0.05
-0.05
-0.05
-0.05
-0.05
-0.05
-0.05
-0.05
-0.05
-0.05
-0.05
-0.05
-0.05
-0.05
-0.05
-0.05
-0.05
-0.05
-0.05
-0.05
-0.05
-0.05
-0.05
-0.05
-0.05
-0.05
-0.05
-0.05
-0.05
-0.05
-0.05
-0.05
-0.05
-0.05
-0.05
-0.05
-0.05
-0.05
-0.05
-0.05
-0.05
-0.05
-0.05
-0.05
-0.05
-0.05
-0.05
-0.05
-0.05
-0.05
-0.05
-0.05
-0.05
-0.05
-0.05
-0.05
-0.05
-0.05
-0.05
-0.05
-0.05
-0.05
-0.05
-0.05
-0.05
-0.05
-0.05
-0.05
-0.05
-0.05
-0.05
-0.05
-0.05
-0.05
-0.05
-0.05
-0.05
-0.05
-0.05
-0.05
-0.05
-0.05
-0.05
-0.05
-0.05
-0.05
-0.05
-0.05
-0.05
-0.05
-0.05
-0.05
-0.05
-0.05
-0.05
-0.05
-0.05
-0.05
-0.05
-0.05
-0.05
-0.05
-0.05
-0.05
-0.05
-0.05
-0.05
-0.05
-0.05
-0.05
-0.05
-0.05
-0.05
-0.05
-0.05
-0.05
-0.05
-0.05
-0.05
-0.05
-0.05
-0.05
-0.05
-0.05
-0.05
-0.05
-0.05
-0.05
-0.05
-0.05
-0.05
-0.05
-0.05
-0.05
-0.05
-0.05
-0.05
-0.05
-0.05
-0.05
-0.05
-0.05
-0.05
-0.05
-0.05
-0.05
-0.05
-0.05
-0.05
-0.05
-0.05
-0.05
-0.05
-0.05
-0.05
-0.05
-0.05
-0.05
-0.05
-0.05
-0.05
-0.05
-0.05
-0.05
-0.05
-0.05
-0.05
-0.05
-0.05
-0.05
-0.05
-0.05
-0.05
-0.05
-0.05
-0.05
-0.05
-0.05
-0.05
-0.05
-0.05
-0.05
-0.05
-0.05
-0.05
-0.05
-0.05
-0.05
-0.05
-0.05
-0.05
-0.05
-0.05
-0.05
-0.05
-0.05
-0.05
-0.05
-0.05
-0.05
-0.05
-0.05
-0.05
-0.05
-0.05
-0.05
-0.05
-0.05
-0.05
-0.05
-0.05
-0.05
-0.05
-0.05
-0.05
-0.05
-0.05
-0.05
-0.05
-0.05
-0.05
-0.05
-0.05
-0.05
-0.05
-0.05
-0.05
-0.05
-0.05
-0.05
-0.05
-0.05
-0.05
-0.05
-0.05
-0.05
-0.05
-0.05
-0.05
-0.05
-0.05
-0.05
-0.05
-0.05
-0.05
-0.05
-0.05
-0.05
-0.05
-0.05
-0.05
-0.05
-0.05
-0.05
-0.05
-0.05
-0.05
-0.05
-0.05
-0.05
-0.05
-0.05
-0.05
-0.05
-0.05
-0.05
-0.05
-0.05
-0.05
-0.05
-0.05
-0.05
-0.05
-0.05
-0.05
-0.05
-0.05
-0.05
-0.05
-0.05
-0.05
-0.05
-0.05
-0.05
-0.05
-0.05
-0.05
-0.05
-0.05
-0.05
-0.05
-0.05
-0.05
-0.05
-0.05
-0.05
-0.05
-0.05
-0.05
-0.05
-0.05
-0.05
-0.05
-0.05
-0.05
-0.05
-0.05
-0.05
-0.05
-0.05
-0.05
-0.05
-0.05
-0.05
-0.05
-0.05
-0.05
-0.05
-0.05
-0.05
-0.05
-0.05
-0.05
-0.05
-0.05
-0.05
-0.05
-0.05
-0.05
-0.05
-0.05
-0.05
-0.05
-0.05
-0.05
-0.05
-0.05
-0.05
-0.05
-0.05
-0.05
-0.05
-0.05
-0.05
-0.05
-0.05
-0.05
-0.05
-0.05
-0.05
-0.05
-0.05
-0.05
-0.05
-0.05
-0.05
-0.05
-0.05
-0.05
-0.05
-0.05
-0.05
-0.05
-0.05
-0.05
-0.05
-0.05
-0.05
-0.05
-0.05
-0.05
-0.05
-0.05
-0.05
-0.05
-0.05
-0.05
-0.05
-0.05
-0.05
-0.05
-0.05
-0.05
-0.05
-0.05
-0.05
-0.05
-0.05
-0.05
-0.05
-0.05
-0.05
-0.05
-0.05
-0.05
-0.05
-0.05
-0.05
-0.05
-0.05
-0.05
-0.05
-0.05
-0.05
-0.05
-0.05
-0.05
-0.05
-0.05
-0.05
-0.05
-0.05
-0.05
-0.05
-0.05
-0.05
-0.05
-0.05
-0.05
-0.049895127
-0.049774186
-0.049653465
-0.049532962
-0.049412677
-0.04929261
-0.04917276
-0.049053128
-0.048933712
-0.048814512
-0.048695528
-0.048576759
-0.048458206
-0.048339867
-0.048221742
-0.048103831
-0.047986134
-0.04786865
-0.047751378
-0.047634319
-0.047517472
-0.047400836
-0.047284411
-0.047168198
-0.047052194
-0.046936401
-0.046820817
-0.046705443
-0.046590277
-0.04647532
-0.046360571
-0.04624603
-0.046131696
-0.04601757
-0.04590365
-0.045789936
-0.045676428
-0.045563125
-0.045450028
-0.045337135
-0.045224447
-0.045111963
-0.044999682
-0.044887605
-0.044775731
-0.044664059
-0.044552589
-0.044441322
-0.044330255
-0.04421939
-0.044108726
-0.043998261
-0.043887997
-0.043777933
-0.043668068
-0.043558401
-0.043448933
-0.043339664
-0.043230592
-0.043121718
-0.043013041
-0.04290456
-0.042796276
-0.042688188
-0.042580296
-0.042472599
-0.042365097
-0.04225779
-0.042150677
-0.042043758
-0.041937032
-0.0418305
-0.041724161
-0.041618014
-0.041512059
-0.041406296
-0.041300725
-0.041195345
-0.041090155
-0.040985156
-0.040880347
-0.040775728
-0.040671298
-0.040567058
-0.040463006
-0.040359142
-0.040255467
-0.040151979
-0.040048679
-0.039945565
-0.039842638
-0.039739898
-0.039637344
-0.039534975
-0.039432792
-0.039330793
-0.03922898
-0.03912735
-0.039025905
-0.038924643
-0.038823565
-0.03872267
-0.038621957
-0.038521427
-0.038421079
-0.038320912
-0.038220927
-0.038121122
-0.038021499
-0.037922056
-0.037822793
-0.037723709
-0.037624805
-0.03752608
-0.037427534
-0.037329166
-0.037230977
-0.037132965
-0.03703513
-0.036937473
-0.036839992
-0.036742688
-0.03664556
-0.036548608
-0.036451832
-0.036355231
-0.036258804
-0.036162553
-0.036066475
-0.035970571
-0.035874841
-0.035779285
-0.035683901
-0.03558869
-0.035493652
-0.035398785
-0.035304091
-0.035209567
-0.035115215
-0.035021034
-0.034927023
-0.034833182
-0.034739512
-0.034646011
-0.034552679
-0.034459516
-0.034366522
-0.034273696
-0.034181038
-0.034088548
-0.033996226
-0.033904071
-0.033812082
-0.03372026
-0.033628604
-0.033537115
-0.03344579
-0.033354632
-0.033263638
-0.033172809
-0.033082144
-0.032991644
-0.032901307
-0.032811134
-0.032721125
-0.032631278
-0.032541594
-0.032452072
-0.032362712
-0.032273514
-0.032184478
-0.032095603
-0.032006888
-0.031918335
-0.031829942
-0.031741708
-0.031653635
-0.031565721
-0.031477966
-0.03139037
-0.031302932
-0.031215653
-0.031128532
-0.031041569
-0.030954763
-0.030868114
-0.030781622
-0.030695287
-0.030609108
-0.030523085
-0.030437218
-0.030351506
-0.030265949
-0.030180548
-0.030095301
-0.030010208
-0.029925269
-0.029840484
-0.029755853
-0.029671375
-0.02958705
-0.029502877
-0.029418857
-0.029334989
-0.029251273
-0.029167708
-0.029084295
-0.029001033
-0.028917921
-0.02883496
-0.028752149
-0.028669488
-0.028586977
-0.028504615
-0.028422403
-0.028340339
-0.028258423
-0.028176656
-0.028095037
-0.028013566
-0.027932242
-0.027851066
-0.027770036
-0.027689154
-0.027608417
-0.027527827
-0.027447383
-0.027367084
-0.027286931
-0.027206923
-0.02712706
-0.027047341
-0.026967767
-0.026888336
-0.02680905
-0.026729907
-0.026650907
-0.026572051
-0.026493337
-0.026414766
-0.026336336
-0.026258049
-0.026179904
-0.0261019
-0.026024038
-0.025946316
-0.025868735
-0.025791295
-0.025713994
-0.025636834
-0.025559813
-0.025482932
-0.02540619
-0.025329587
-0.025253123
-0.025176797
-0.025100609
-0.02502456
-0.024948648
-0.024872873
-0.024797235
-0.024721735
-0.024646371
-0.024571144
-0.024496053
-0.024421097
-0.024346278
-0.024271594
-0.024197045
-0.024122631
-0.024048352
-0.023974207
-0.023900197
-0.023826321
-0.023752578
-0.023678969
-0.023605493
-0.02353215
-0.02345894
-0.023385862
-0.023312917
-0.023240104
-0.023167423
-0.023094873
-0.023022455
-0.022950168
-0.022878011
-0.022805985
-0.02273409
-0.022662325
-0.02259069
-0.022519184
-0.022447808
-0.022376561
-0.022305443
-0.022234454
-0.022163594
-0.022092862
-0.022022257
-0.021951781
-0.021881432
-0.021811211
-0.021741116
-0.021671149
-0.021601308
-0.021531594
-0.021462006
-0.021392544
-0.021323208
-0.021253997
-0.021184912
-0.021115951
-0.021047116
-0.020978405
-0.020909818
-0.020841356
-0.020773018
-0.020704803
-0.020636712
-0.020568744
-0.020500899
-0.020433177
-0.020365578
-0.020298101
-0.020230746
-0.020163514
-0.020096402
-0.020029413
-0.019962545
-0.019895797
-0.019829171
-0.019762665
-0.01969628
-0.019630015
-0.019563869
-0.019497844
-0.019431938
-0.019366151
-0.019300484
-0.019234935
-0.019169506
-0.019104194
-0.019039001
-0.018973926
-0.018908968
-0.018844129
-0.018779406
-0.018714801
-0.018650313
-0.018585942
-0.018521687
-0.018457548
-0.018393526
-0.018329619
-0.018265828
-0.018202153
-0.018138593
-0.018075148
-0.018011818
-0.017948602
-0.017885501
-0.017822515
-0.017759642
-0.017696883
-0.017634238
-0.017571706
-0.017509287
-0.017446982
-0.017384789
-0.017322709
-0.017260741
-0.017198885
-0.017137142
-0.01707551
-0.01701399
-0.016952581
-0.016891283
-0.016830096
-0.016769021
-0.016708055
-0.0166472
-0.016586455
-0.016525821
-0.016465296
-0.01640488
-0.016344574
-0.016284377
-0.016224289
-0.01616431
-0.01610444
-0.016044678
-0.015985024
-0.015925478
-0.01586604
-0.015806709
-0.015747486
-0.01568837
-0.015629362
-0.01557046
-0.015511664
-0.015452975
-0.015394393
-0.015335916
-0.015277545
-0.01521928
-0.015161121
-0.015103067
-0.015045118
-0.014987273
-0.014929534
-0.014871899
-0.014814368
-0.014756942
-0.01469962
-0.014642401
-0.014585286
-0.014528274
-0.014471366
-0.01441456
-0.014357858
-0.014301258
-0.01424476
-0.014188365
-0.014132072
-0.014075881
-0.014019792
-0.013963804
-0.013907917
-0.013852132
-0.013796448
-0.013740864
-0.013685381
-0.013629999
-0.013574717
-0.013519535
-0.013464453
-0.01340947
-0.013354588
-0.013299804
-0.01324512
-0.013190535
-0.013136048
-0.01308166
-0.013027371
-0.01297318
-0.012919087
-0.012865092
-0.012811195
-0.012757395
-0.012703693
-0.012650088
-0.01259658
-0.012543169
-0.012489854
-0.012436636
-0.012383515
-0.01233049
-0.01227756
-0.012224727
-0.012171989
-0.012119347
-0.0120668
-0.012014348
-0.011961991
-0.011909728
-0.011857561
-0.011805488
-0.011753509
-0.011701624
-0.011649834
-0.011598137
-0.011546533
-0.011495023
-0.011443606
-0.011392283
-0.011341052
-0.011289914
-0.011238869
-0.011187916
-0.011137055
-0.011086287
-0.01103561
-0.010985025
-0.010934532
-0.01088413
-0.010833819
-0.010783599
-0.010733471
-0.010683433
-0.010633485
-0.010583629
-0.010533862
-0.010484185
-0.010434599
-0.010385102
-0.010335695
-0.010286377
-0.010237149
-0.010188009
-0.010138959
-0.010089997
-0.010041124
-0.00999234
-0.009943644
-0.009895036
-0.009846516
-0.009798084
-0.00974974
-0.009701483
-0.009653313
-0.009605231
-0.009557236
-0.009509327
-0.009461506
-0.009413771
-0.009366122
-0.00931856
-0.009271084
-0.009223693
-0.009176389
-0.00912917
-0.009082037
-0.009034989
-0.008988026
-0.008941148
-0.008894355
-0.008847647
-0.008801024
-0.008754484
-0.00870803
-0.008661659
-0.008615372
-0.008569169
-0.008523049
-0.008477013
-0.008431061
-0.008385191
-0.008339405
-0.008293702
-0.008248081
-0.008202543
-0.008157087
-0.008111714
-0.008066423
-0.008021213
-0.007976086
-0.00793104
-0.007886076
-0.007841194
-0.007796392
-0.007751672
-0.007707033
-0.007662474
-0.007617996
-0.007573599
-0.007529282
-0.007485045
-0.007440889
-0.007396812
-0.007352815
-0.007308898
-0.00726506
-0.007221302
-0.007177623
-0.007134023
-0.007090502
-0.007047059
-0.007003696
-0.006960411
-0.006917204
-0.006874075
-0.006831025
-0.006788052
-0.006745158
-0.006702341
-0.006659601
-0.006616939
-0.006574354
-0.006531846
-0.006489416
-0.006447062
-0.006404784
-0.006362583
-0.006320459
-0.006278411
-0.006236439
-0.006194543
-0.006152723
-0.006110978
-0.006069309
-0.006027716
-0.005986198
-0.005944755
-0.005903387
-0.005862094
-0.005820876
-0.005779732
-0.005738663
-0.005697668
-0.005656748
-0.005615901
-0.005575129
-0.00553443
-0.005493805
-0.005453254
-0.005412776
-0.005372371
-0.005332039
-0.005291781
-0.005251595
-0.005211482
-0.005171442
-0.005131474
-0.005091579
-0.005051755
-0.005012004
-0.004972325
-0.004932718
-0.004893182
-0.004853718
-0.004814326
-0.004775004
-0.004735754
-0.004696575
-0.004657467
-0.00461843
-0.004579463
-0.004540567
-0.004501742
-0.004462987
-0.004424301
-0.004385686
-0.004347141
-0.004308666
-0.00427026
-0.004231924
-0.004193657
-0.004155459
-0.004117331
-0.004079272
-0.004041281
-0.00400336
-0.003965507
-0.003927722
-0.003890006
-0.003852358
-0.003814779
-0.003777267
-0.003739824
-0.003702448
-0.00366514
-0.003627899
-0.003590726
-0.00355362
-0.003516581
-0.003479609
-0.003442705
-0.003405867
-0.003369096
-0.003332391
-0.003295753
-0.003259181
-0.003222675
-0.003186236
-0.003149862
-0.003113554
-0.003077312
-0.003041136
-0.003005025
-0.00296898
-0.002933
-0.002897084
-0.002861234
-0.002825449
-0.002789729
-0.002754073
-0.002718482
-0.002682955
-0.002647493
-0.002612095
-0.002576761
-0.002541491
-0.002506284
-0.002471142
-0.002436063
-0.002401048
-0.002366096
-0.002331207
-0.002296381
-0.002261619
-0.002226919
-0.002192283
-0.002157709
-0.002123197
-0.002088748
-0.002054362
-0.002020037
-0.001985775
-0.001951575
-0.001917437
-0.00188336
-0.001849346
-0.001815393
-0.001781501
-0.001747671
-0.001713902
-0.001680194
-0.001646547
-0.001612961
-0.001579436
-0.001545971
-0.001512567
-0.001479224
-0.001445941
-0.001412718
-0.001379556
-0.001346453
-0.001313411
-0.001280428
-0.001247505
-0.001214641
-0.001181837
-0.001149093
-0.001116407
-0.001083781
-0.001051214
-0.001018706
-0.000986257
-0.000953866
-0.000921534
-0.000889261
-0.000857046
-0.00082489
-0.000792791
-0.000760751
-0.000728769
-0.000696845
-0.000664978
-0.000633169
-0.000601418
-0.000569724
-0.000538088
-0.000506509
-0.000474987
-0.000443522
-0.000412114
-0.000380763
-0.000349469
-0.000318232
-0.000287051
-0.000255926
-0.000224858
-0.000193846
-0.00016289
-0.00013199
-0.000101146
-7.0358e-05
-3.9626e-05
-8.95e-06
2.1672e-05
5.2237e-05
8.2747e-05
0.000113203
0.000143602
0.000173947
0.000204237
0.000234472
0.000264653
0.000294778
0.00032485
0.000354866
0.000384829
0.000414737
0.000444591
0.000474391
0.000504137
0.000533829
0.000563467
0.000593052
0.000622583
0.000652061
0.000681485
0.000710856
0.000740174
0.000769439
0.00079865
0.000827809
0.000856915
0.000885969
0.00091497
0.000943918
0.000972814
0.001001657
0.001030449
0.001059188
0.001087875
0.00111651
0.001145094
0.001173625
0.001202105
0.001230534
0.001258911
0.001287236
0.001315511
0.001343734
0.001371906
0.001400027
0.001428097
0.001456116
0.001484085
0.001512003
0.00153987
0.001567687
0.001595453
0.00162317
0.001650836
0.001678452
0.001706018
0.001733534
0.001761
0.001788417
0.001815784
0.001843101
0.001870369
0.001897588
0.001924757
0.001951877
0.001978948
0.00200597
0.002032943
0.002059867
0.002086742
0.002113569
0.002140347
0.002167077
0.002193759
0.002220392
0.002246976
0.002273513
0.002300002
0.002326442
0.002352835
0.00237918
0.002405478
0.002431727
0.00245793
0.002484084
0.002510192
0.002536252
0.002562265
0.002588231
0.002614149
0.002640021
0.002665846
0.002691625
0.002717356
0.002743042
0.00276868
0.002794272
0.002819818
0.002845318
0.002870771
0.002896178
0.00292154
0.002946855
0.002972124
0.002997348
0.003022526
0.003047659
0.003072746
0.003097788
0.003122784
0.003147735
0.003172641
0.003197502
0.003222317
0.003247088
0.003271814
0.003296495
0.003321132
0.003345724
0.003370271
0.003394774
0.003419233
0.003443647
0.003468017
0.003492343
0.003516625
0.003540863
0.003565057
0.003589207
0.003613314
0.003637377
0.003661396
0.003685372
0.003709305
0.003733194
0.00375704
0.003780842
0.003804602
0.003828318
0.003851992
0.003875623
0.003899211
0.003922756
0.003946259
0.003969719
0.003993137
0.004016512
0.004039845
0.004063136
0.004086384
0.00410959
0.004132755
0.004155877
0.004178958
0.004201997
0.004224994
0.004247949
0.004270863
0.004293736
0.004316567
0.004339356
0.004362105
0.004384812
0.004407478
0.004430103
0.004452687
0.00447523
0.004497733
0.004520195
0.004542616
0.004564996
0.004587336
0.004609635
0.004631894
0.004654113
0.004676292
0.00469843
0.004720528
0.004742587
0.004764605
0.004786584
0.004808522
0.004830421
0.004852281
0.0048741
0.004895881
0.004917621
0.004939323
0.004960985
0.004982608
0.005004192
0.005025737
0.005047242
0.005068709
0.005090137
0.005111526
0.005132876
0.005154188
0.005175461
0.005196696
0.005217892
0.00523905
0.005260169
0.005281251
0.005302294
0.005323299
0.005344266
0.005365195
0.005386086
0.005406939
0.005427755
0.005448533
0.005469273
0.005489976
0.005510641
0.005531269
0.005551859
0.005572412
0.005592928
0.005613407
0.005633849
0.005654253
0.005674621
0.005694952
0.005715246
0.005735504
0.005755724
0.005775908
0.005796056
0.005816167
0.005836241
0.00585628
0.005876282
0.005896248
0.005916177
0.005936071
0.005955928
0.00597575
0.005995536
0.006015286
0.006035
0.006054678
0.006074321
0.006093928
0.0061135
0.006133036
0.006152537
0.006172003
0.006191433
0.006210828
0.006230188
0.006249513
0.006268804
0.006288059
0.006307279
0.006326464
0.006345615
0.006364731
0.006383813
0.00640286
0.006421872
0.00644085
0.006459794
0.006478703
0.006497578
0.006516419
0.006535226
0.006553999
0.006572737
0.006591442
0.006610113
0.00662875
0.006647354
0.006665924
0.00668446
0.006702962
0.006721431
0.006739867
0.006758269
0.006776638
0.006794974
0.006813276
0.006831546
0.006849782
0.006867985
0.006886156
0.006904293
0.006922398
0.006940469
0.006958508
0.006976515
0.006994489
0.00701243
0.007030339
0.007048215
0.007066059
0.007083871
0.00710165
0.007119397
0.007137113
0.007154796
0.007172447
0.007190066
0.007207653
0.007225208
0.007242732
0.007260224
0.007277684
0.007295112
0.007312509
0.007329875
0.007347209
0.007364512
0.007381783
0.007399023
0.007416232
0.007433409
0.007450556
0.007467672
0.007484756
0.00750181
0.007518833
0.007535825
0.007552786
0.007569716
0.007586616
0.007603485
0.007620324
0.007637132
0.00765391
0.007670657
0.007687374
0.007704061
0.007720718
0.007737344
0.00775394
0.007770507
0.007787043
0.007803549
0.007820026
0.007836472
0.007852889
0.007869276
0.007885634
0.007901962
0.00791826
0.007934529
0.007950768
0.007966978
0.007983159
0.00799931
0.008015432
0.008031525
0.008047588
0.008063623
0.008079629
0.008095605
0.008111553
0.008127472
0.008143362
0.008159223
0.008175055
0.008190859
0.008206634
0.008222381
0.008238099
0.008253789
0.00826945
0.008285083
0.008300688
0.008316264
0.008331812
0.008347332
0.008362824
0.008378288
0.008393724
0.008409132
0.008424512
0.008439864
0.008455189
0.008470485
0.008485754
0.008500996
0.008516209
0.008531396
0.008546554
0.008561686
0.008576789
0.008591866
0.008606915
0.008621937
0.008636932
0.008651899
0.00866684
0.008681753
0.00869664
0.008711499
0.008726332
0.008741138
0.008755917
0.008770669
0.008785394
0.008800093
0.008814765
0.008829411
0.00884403
0.008858623
0.008873189
0.008887729
0.008902242
0.00891673
0.008931191
0.008945626
0.008960034
0.008974417
0.008988773
0.009003104
0.009017409
0.009031687
0.00904594
0.009060167
0.009074369
0.009088544
0.009102694
0.009116819
0.009130917
0.009144991
0.009159038
0.009173061
0.009187058
0.009201029
0.009214976
0.009228897
0.009242793
0.009256663
0.009270509
0.009284329
0.009298125
0.009311895
0.009325641
0.009339362
0.009353058
0.009366729
0.009380375
0.009393996
0.009407593
0.009421166
0.009434713
0.009448237
0.009461735
0.00947521
0.00948866
0.009502085
0.009515486
0.009528863
0.009542216
0.009555545
0.009568849
0.00958213
0.009595386
0.009608618
0.009621827
0.009635011
0.009648172
0.009661308
0.009674421
0.009687511
0.009700576
0.009713618
0.009726636
0.009739631
0.009752602
0.00976555
0.009778474
0.009791375
0.009804252
0.009817106
0.009829937
0.009842745
0.009855529
0.009868291
0.009881029
0.009893744
0.009906436
0.009919105
0.009931752
0.009944375
0.009956975
0.009969553
0.009982108
0.00999464
0.01000902
0.010024232
0.010039466
0.010054722
0.010070001
0.010085302
0.010100626
0.010115972
0.010131341
0.010146732
0.010162146
0.010177583
0.010193042
0.010208523
0.010224028
0.010239555
0.010255105
0.010270678
0.010286273
0.010301892
0.010317533
0.010333197
0.010348884
0.010364595
0.010380328
0.010396084
0.010411864
0.010427666
0.010443492
0.010459341
0.010475213
0.010491109
0.010507028
0.01052297
0.010538935
0.010554924
0.010570937
0.010586973
0.010603032
0.010619115
0.010635221
0.010651352
0.010667505
0.010683683
0.010699884
0.010716109
0.010732358
0.01074863
0.010764927
0.010781247
0.010797591
0.01081396
0.010830352
0.010846768
0.010863208
0.010879673
0.010896162
0.010912674
0.010929211
0.010945773
0.010962358
0.010978968
0.010995602
0.011012261
0.011028944
0.011045651
0.011062383
0.01107914
0.011095921
0.011112727
0.011129557
0.011146412
0.011163292
0.011180196
0.011197126
0.01121408
0.011231059
0.011248063
0.011265091
0.011282145
0.011299224
0.011316328
0.011333457
0.011350611
0.01136779
0.011384994
0.011402224
0.011419479
0.011436759
0.011454065
0.011471395
0.011488752
0.011506133
0.011523541
0.011540974
0.011558432
0.011575916
0.011593425
0.011610961
0.011628522
0.011646108
0.011663721
0.011681359
0.011699023
0.011716714
0.01173443
0.011752172
0.01176994
0.011787734
0.011805554
0.0118234
0.011841273
0.011859172
0.011877096
0.011895048
0.011913025
0.011931029
0.01194906
0.011967116
0.0119852
0.012003309
0.012021446
0.012039609
0.012057798
0.012076014
0.012094257
0.012112527
0.012130823
0.012149147
0.012167497
0.012185874
0.012204278
0.012222709
0.012241167
0.012259652
0.012278164
0.012296704
0.01231527
0.012333864
0.012352485
0.012371134
0.012389809
0.012408512
0.012427243
0.012446001
0.012464786
0.012483599
0.01250244
0.012521308
0.012540204
0.012559128
0.012578079
0.012597058
0.012616065
0.0126351
0.012654163
0.012673254
0.012692372
0.012711519
0.012730694
0.012749897
0.012769128
0.012788387
0.012807675
0.012826991
0.012846335
0.012865708
0.012885109
0.012904538
0.012923996
0.012943482
0.012962997
0.012982541
0.013002113
0.013021714
0.013041344
0.013061002
0.01308069
0.013100406
0.013120151
0.013139925
0.013159728
0.01317956
0.013199421
0.013219312
0.013239231
0.01325918
0.013279158
0.013299165
0.013319202
0.013339268
0.013359363
0.013379488
0.013399642
0.013419826
0.01344004
0.013460283
0.013480556
0.013500858
0.013521191
0.013541553
0.013561945
0.013582367
0.013602819
0.013623301
0.013643812
0.013664354
0.013684926
0.013705529
0.013726161
0.013746824
0.013767517
0.01378824
0.013808994
0.013829778
0.013850593
0.013871438
0.013892314
0.01391322
0.013934157
0.013955125
0.013976124
0.013997153
0.014018213
0.014039304
0.014060426
0.014081579
0.014102763
0.014123978
0.014145224
0.014166501
0.01418781
0.014209149
0.01423052
0.014251923
0.014273356
0.014294821
