PixelManager-master/config.ocio
# OpenColorIO configuration file for Blender
#
# ACEScg and ACES2065-1 spaces using OpenColorIO's BuiltinTransforms
#
# Filmic Dynamic Range LUT configuration crafted by Troy James Sobotka with
# special thanks and feedback from Guillermo, Claudio Rocha, Bassam Kurdali,
# Eugenio Pignataro, Henri Hebeisen, Jason Clarke, Haarm-Peter Duiker, Thomas
# Mansencal, and Timothy Lottes.
#
# Based on original AgX by Troy Sobotka: https://github.com/sobotka/AgX https://github.com/sobotka/SB2383-Configuration-Generation
# Further Developed by Zijun Eary Zhou???, Mark Faderbauer, and Sakari Kapanen
# Repository for AgX config: https://github.com/EaryChow/AgX
#
# Further expanded upon by Genco Uney.
# PixelManager OCIO config https://github.com/Joegenco/PixelManager/
# With contributions from Nihal Rahman.
#
# ---- Additional sources ----
# OpenDRT and JzDT from Jed Smith - Jedy Pod, https://github.com/jedypod/open-display-transform
# Using ACES 1.3 via OCIO 2.1 https://github.com/AcademySoftwareFoundation/OpenColorIO-Config-ACES/releases/tag/v2.0.0
# ACES 2.0 Luts generated via DaVinciResolve 20.1 (I want to keep this config OCIO v2.0 or 2.1 at most.)
# Filmlight TCAMv2 TCAMv3 for Baselight via Truelight Colour Spaces OCIO config https://www.filmlight.ltd.uk/support/customer-login/colourspaces/colourspaces.php
# JP-2499DRT from Juan Pablo Zambrano https://github.com/JuanPabloZambrano/DCTL
# Khronos "PBR Neutrar" from KhronosGroup https://github.com/KhronosGroup/ToneMapping/tree/main
# See ocio-license.txt for details.
# flim/grace by Hadi Farid (Bean) https://github.com/bean-mhm
# Unreal Engine DCTL by https://github.com/mlleemiles

ocio_profile_version: 2.0
# ACES LMT now uses a baked LUT, allowing OCIO 2.0 but with minor inaccuracy.
# Nuke users may switch this to 2.0 and remove "LOOK" starting with line 2389 "ACES - 1.3 Reference Gamut Compression" entirely. 

environment:
  {}
search_path: "luts:filmic:ARRI:Canon:RWG:TCAMv2:OpenDRT:2499DRT:Sony:BMD:ACES:TCAMv3:flim"
strictparsing: true
luma: [0.2126, 0.7152, 0.0722]

description: RRT version ut33

roles:
  reference: Linear CIE-XYZ E

  # Internal scene linear space
  scene_linear: Linear Rec.2020
  rendering: Linear Rec.2020

  # Default color space for byte image
  default_byte: sRGB

  # Default color space for float images
  default_float: Linear Rec.2020

  # Default color space sequencer is working in
  default_sequencer: sRGB

  # Distribution of colors in color picker
  color_picking: Linear Rec.2020

  # Non-color data
  data: Raw

  # For interop between configs, and to determine XYZ for rendering
  aces_interchange: ACES2065-1
  cie_xyz_d65_interchange: Linear CIE-XYZ D65

  # Specified by OCIO, not used in Blender
  color_timing: 2499DRT Log (2499)
  compositing_log: 2499DRT Log (2499)
  default: Linear Rec.2020
  matte_paint: Linear Rec.709
  texture_paint: Linear Rec.2020
  mari_monitor: sRGB
  mari_scalar_monitor: sRGB
  mari_color_picker: sRGB
  mari_working: Linear Rec.2020
  mari_int8: sRGB
  mari_int16: sRGB
  mari_int_scalar: Raw
  mari_scalar8: Raw
  mari_float: Linear Rec.2020
  srgb_linear: Linear Rec.709
  substance_3d_painter_standard_srgb: sRGB
  substance_3d_painter_bitmap_import_8bit: sRGB
  substance_3d_painter_bitmap_import_16bit: sRGB
  substance_3d_painter_bitmap_import_floating: Linear Rec.2020
  substance_3d_painter_bitmap_export_8bit: sRGB
  substance_3d_painter_bitmap_export_16bit: sRGB
  substance_3d_painter_bitmap_export_floating: Linear Rec.2020
  substance_3d_painter_substance_material: sRGB
  
# When using Spectral Renderer, Change XYZ role to I-E
#  XYZ: Linear CIE-XYZ D65

file_rules:
  - !<Rule> {name: PBRMaps, regex: ".*(_(Normal|normal|Roughness|roughness|Metallic|metallic|Metal|metal|Height|height|Displacement|displacement|AmbientOcclusion|ambientOcclusion|AO|ao|Specular|specular|Glossiness|glossiness|Gloss|gloss|Cavity|cavity|Subsurface|subsurface|SubsurfaceScattering|subsurfaceScattering|SSS|sss|Alpha|alpha|Opacity|opacity|_nm|_rm|_mm|_hm|_dm|_ao|_sm|_gm|_cm|_ss|_sssm|_sss|_am|_om|_arm|_orm)).*", colorspace: Raw}
  - !<Rule> {name: OpenEXR, extension: "exr", pattern: "*", colorspace: Linear Rec.2020}
  - !<Rule> {name: hdr, extension: "hdr", pattern: "*", colorspace: Linear Rec.2020}
  - !<Rule> {name: ColorSpaceNamePathSearch}
  - !<Rule> {name: Default, colorspace: Linear Rec.2020}
 
displays: 
  sRGB:
    - !<View> {name: AgX, colorspace: AgX Base sRGB}
    - !<View> {name: AgX Kraken, colorspace: AgX Base Kraken sRGB}
    - !<View> {name: AgX Kraken 800T, colorspace: AgX Base Kraken 800T sRGB}
    - !<View> {name: AgX NR2383, colorspace: AgX NR2383 sRGB}
    - !<View> {name: AgX SB2383, colorspace: AgX SB2383 Base sRGB}
    - !<View> {name: flim (default), colorspace: flim (default) sRGB}
    - !<View> {name: flim (silver), colorspace: flim (silver) sRGB}
    - !<View> {name: JP2499DRT, colorspace: 2499DRT Base sRGB}
    - !<View> {name: JP2499DRT - Editorial Soft, colorspace: 2499DRT Base sRGB, looks: "JP2499DRT - Editorial Soft"}
    - !<View> {name: JP2499DRT - Editorial Split, colorspace: 2499DRT Base sRGB, looks: "JP2499DRT - Editorial Split"}
    - !<View> {name: JP2499DRT - Hard Contrast, colorspace: 2499DRT Base sRGB, looks: "JP2499DRT - Hard Contrast"}
    - !<View> {name: JP2499DRT - Film Dense, colorspace: 2499DRT Base sRGB, looks: "JP2499DRT - Film Dense"}
    - !<View> {name: JP2499DRT - Photochemical, colorspace: 2499DRT Base sRGB, looks: "JP2499DRT - Photochemical"}
    - !<View> {name: JP2499DRT - Chemical Drift, colorspace: 2499DRT Base sRGB, looks: "JP2499DRT - Chemical Drift"}
    - !<View> {name: JP2499DRT - Tarnished Print, colorspace: 2499DRT Base sRGB, looks: "JP2499DRT - Tarnished Print"}
    - !<View> {name: JP2499DRT - Negative Dust, colorspace: 2499DRT Base sRGB, looks: "JP2499DRT - Negative Dust"}
    - !<View> {name: JP2499DRT - Archival Warm-Gray, colorspace: 2499DRT Base sRGB, looks: "JP2499DRT - Archival Warm-Gray"}
    - !<View> {name: JP2499DRT - Archival Extreme Matte, colorspace: 2499DRT Base sRGB, looks: "JP2499DRT - Archival Extreme Matte"}
    - !<View> {name: JP2499DRT - Graphite Matte, colorspace: 2499DRT Base sRGB, looks: "JP2499DRT - Graphite Matte"}
    - !<View> {name: JP2499DRT - Soot, colorspace: 2499DRT Base sRGB, looks: "JP2499DRT - Soot"}
    - !<View> {name: JP2499DRT - Carbon Plate, colorspace: 2499DRT Base sRGB, looks: "JP2499DRT - Carbon Plate"}
    - !<View> {name: JP2499DRT - Carbon Black, colorspace: 2499DRT Base sRGB, looks: "JP2499DRT - Carbon Black"}
    - !<View> {name: JP2499DRT - Cold Steel Neutral, colorspace: 2499DRT Base sRGB, looks: "JP2499DRT - Cold Steel Neutral"}
    - !<View> {name: JP2499DRT - Blue Carbon Print, colorspace: 2499DRT Base sRGB, looks: "JP2499DRT - Blue Carbon Print"}
    - !<View> {name: JP2499DRT - Funeral Bronze, colorspace: 2499DRT Base sRGB, looks: "JP2499DRT - Funeral Bronze"}
    - !<View> {name: JP2499DRT - Verdigris Shadow, colorspace: 2499DRT Base sRGB, looks: "JP2499DRT - Verdigris Shadow"}
    - !<View> {name: JP2499DRT - Phoenix Drift, colorspace: 2499DRT Base sRGB, looks: "JP2499DRT - Phoenix Drift"}
    - !<View> {name: JP2499DRT - Power Purity Boost 1, colorspace: 2499DRT Base sRGB, looks: JP2499DRT - Power Purity Boost 1}
    - !<View> {name: JP2499DRT - Power Purity Boost 2, colorspace: 2499DRT Base sRGB, looks: JP2499DRT - Power Purity Boost 2}
    - !<View> {name: JP2499DRT - Power Purity Boost 3, colorspace: 2499DRT Base sRGB, looks: JP2499DRT - Power Purity Boost 3}
    - !<View> {name: JP2499DRT - Power Purity Boost 4, colorspace: 2499DRT Base sRGB, looks: JP2499DRT - Power Purity Boost 4}
    - !<View> {name: JP2499DRT - BnWX, colorspace: 2499DRT Base sRGB, looks: JP2499DRT - BnWX}
    - !<View> {name: JP2499DRT - ClassicNegative, colorspace: 2499DRT Base sRGB, looks: JP2499DRT - ClassicNegative}
    - !<View> {name: JP2499DRT - ClassicCinemaNegative, colorspace: 2499DRT Base sRGB, looks: JP2499DRT - ClassicCinemaNegative}
    - !<View> {name: JP2499DRT - ClassicReversal, colorspace: 2499DRT Base sRGB, looks: JP2499DRT - ClassicReversal}
    - !<View> {name: JP2499DRT - CrazyNegative, colorspace: 2499DRT Base sRGB, looks: JP2499DRT - CrazyNegative}
    - !<View> {name: JP2499DRT - InstantFilm, colorspace: 2499DRT Base sRGB, looks: JP2499DRT - InstantFilm}
    - !<View> {name: JP2499DRT - PrintV1, colorspace: 2499DRT Base sRGB, looks: JP2499DRT - PrintV1}
    - !<View> {name: JP2499DRT - PrintV2, colorspace: 2499DRT Base sRGB, looks: JP2499DRT - PrintV2}
    - !<View> {name: JP2499DRT - PrintV3, colorspace: 2499DRT Base sRGB, looks: JP2499DRT - PrintV3}
    - !<View> {name: OpenDRT Default, colorspace: OpenDRT Default sRGB}
    - !<View> {name: OpenDRT Colorful, colorspace: OpenDRT Colorful sRGB}
    - !<View> {name: OpenDRT Umbra, colorspace: OpenDRT Umbra sRGB}
    - !<View> {name: TCAMv3, colorspace: TCAMv3 sRGB}
    - !<View> {name: ACES 2, colorspace: ACES 2 sRGB}
    - !<View> {name: ARRI K1S1, colorspace: ARRI K1S1 sRGB}
    - !<View> {name: ARRI ALF2, colorspace: ARRI ALF2 sRGB}
    - !<View> {name: ARRI Reveal, colorspace: ARRI Reveal sRGB}
    - !<View> {name: Sony S-Cinetone, colorspace: Sony S-Cinetone sRGB}
    - !<View> {name: None, colorspace: Raw}
  Display P3:
    - !<View> {name: AgX, colorspace: AgX Base Display P3}
    - !<View> {name: AgX Kraken, colorspace: AgX Base Kraken Display P3}
    - !<View> {name: AgX Kraken 800T, colorspace: AgX Base Kraken 800T Display P3}
    - !<View> {name: AgX NR2383, colorspace: AgX NR2383 Display P3}
    - !<View> {name: JP2499DRT, colorspace: 2499DRT Base Display P3}
    - !<View> {name: JP2499DRT - Editorial Soft, colorspace: 2499DRT Base Display P3, looks: "JP2499DRT - Editorial Soft"}
    - !<View> {name: JP2499DRT - Editorial Split, colorspace: 2499DRT Base Display P3, looks: "JP2499DRT - Editorial Split"}
    - !<View> {name: JP2499DRT - Hard Contrast, colorspace: 2499DRT Base Display P3, looks: "JP2499DRT - Hard Contrast"}
    - !<View> {name: JP2499DRT - Film Dense, colorspace: 2499DRT Base Display P3, looks: "JP2499DRT - Film Dense"}
    - !<View> {name: JP2499DRT - Photochemical, colorspace: 2499DRT Base Display P3, looks: "JP2499DRT - Photochemical"}
    - !<View> {name: JP2499DRT - Chemical Drift, colorspace: 2499DRT Base Display P3, looks: "JP2499DRT - Chemical Drift"}
    - !<View> {name: JP2499DRT - Tarnished Print, colorspace: 2499DRT Base Display P3, looks: "JP2499DRT - Tarnished Print"}
    - !<View> {name: JP2499DRT - Negative Dust, colorspace: 2499DRT Base Display P3, looks: "JP2499DRT - Negative Dust"}
    - !<View> {name: JP2499DRT - Archival Warm-Gray, colorspace: 2499DRT Base Display P3, looks: "JP2499DRT - Archival Warm-Gray"}
    - !<View> {name: JP2499DRT - Archival Extreme Matte, colorspace: 2499DRT Base Display P3, looks: "JP2499DRT - Archival Extreme Matte"}
    - !<View> {name: JP2499DRT - Graphite Matte, colorspace: 2499DRT Base Display P3, looks: "JP2499DRT - Graphite Matte"}
    - !<View> {name: JP2499DRT - Soot, colorspace: 2499DRT Base Display P3, looks: "JP2499DRT - Soot"}
    - !<View> {name: JP2499DRT - Carbon Plate, colorspace: 2499DRT Base Display P3, looks: "JP2499DRT - Carbon Plate"}
    - !<View> {name: JP2499DRT - Carbon Black, colorspace: 2499DRT Base Display P3, looks: "JP2499DRT - Carbon Black"}
    - !<View> {name: JP2499DRT - Cold Steel Neutral, colorspace: 2499DRT Base Display P3, looks: "JP2499DRT - Cold Steel Neutral"}
    - !<View> {name: JP2499DRT - Blue Carbon Print, colorspace: 2499DRT Base Display P3, looks: "JP2499DRT - Blue Carbon Print"}
    - !<View> {name: JP2499DRT - Funeral Bronze, colorspace: 2499DRT Base Display P3, looks: "JP2499DRT - Funeral Bronze"}
    - !<View> {name: JP2499DRT - Verdigris Shadow, colorspace: 2499DRT Base Display P3, looks: "JP2499DRT - Verdigris Shadow"}
    - !<View> {name: JP2499DRT - Phoenix Drift, colorspace: 2499DRT Base Display P3, looks: "JP2499DRT - Phoenix Drift"}
    - !<View> {name: JP2499DRT - Power Purity Boost 1, colorspace: 2499DRT Base Display P3, looks: JP2499DRT - Power Purity Boost 1}
    - !<View> {name: JP2499DRT - Power Purity Boost 2, colorspace: 2499DRT Base Display P3, looks: JP2499DRT - Power Purity Boost 2}
    - !<View> {name: JP2499DRT - Power Purity Boost 3, colorspace: 2499DRT Base Display P3, looks: JP2499DRT - Power Purity Boost 3}
    - !<View> {name: JP2499DRT - Power Purity Boost 4, colorspace: 2499DRT Base Display P3, looks: JP2499DRT - Power Purity Boost 4}
    - !<View> {name: JP2499DRT - BnWX, colorspace: 2499DRT Base Display P3, looks: JP2499DRT - BnWX}
    - !<View> {name: JP2499DRT - ClassicNegative, colorspace: 2499DRT Base Display P3, looks: JP2499DRT - ClassicNegative}
    - !<View> {name: JP2499DRT - ClassicCinemaNegative, colorspace: 2499DRT Base Display P3, looks: JP2499DRT - ClassicCinemaNegative}
    - !<View> {name: JP2499DRT - ClassicReversal, colorspace: 2499DRT Base Display P3, looks: JP2499DRT - ClassicReversal}
    - !<View> {name: JP2499DRT - CrazyNegative, colorspace: 2499DRT Base Display P3, looks: JP2499DRT - CrazyNegative}
    - !<View> {name: JP2499DRT - InstantFilm, colorspace: 2499DRT Base Display P3, looks: JP2499DRT - InstantFilm}
    - !<View> {name: JP2499DRT - PrintV1, colorspace: 2499DRT Base Display P3, looks: JP2499DRT - PrintV1}
    - !<View> {name: JP2499DRT - PrintV2, colorspace: 2499DRT Base Display P3, looks: JP2499DRT - PrintV2}
    - !<View> {name: JP2499DRT - PrintV3, colorspace: 2499DRT Base Display P3, looks: JP2499DRT - PrintV3}
    - !<View> {name: OpenDRT Default, colorspace: OpenDRT Default Display P3}
    - !<View> {name: OpenDRT Colorful, colorspace: OpenDRT Colorful Display P3}
    - !<View> {name: OpenDRT Umbra, colorspace: OpenDRT Umbra Display P3}
    - !<View> {name: TCAMv3, colorspace: TCAMv3 Display P3}
    - !<View> {name: ACES 2, colorspace: ACES 2 Display P3}
    - !<View> {name: ARRI K1S1, colorspace: ARRI K1S1 Display P3}
    - !<View> {name: ARRI ALF2, colorspace: ARRI ALF2 Display P3}
    - !<View> {name: ARRI Reveal, colorspace: ARRI Reveal Display P3}
    - !<View> {name: Sony S-Cinetone, colorspace: Sony S-Cinetone Display P3}
    - !<View> {name: None, colorspace: Raw}
  Rec.1886:
    - !<View> {name: AgX, colorspace: AgX Base Rec.1886}
    - !<View> {name: AgX Kraken, colorspace: AgX Base Kraken Rec.1886}
    - !<View> {name: AgX Kraken 800T, colorspace: AgX Base Kraken 800T Rec.1886}
    - !<View> {name: AgX NR2383, colorspace: AgX NR2383 Rec.1886}
    - !<View> {name: JP2499DRT, colorspace: 2499DRT Base Rec.1886}
    - !<View> {name: JP2499DRT - Editorial Soft, colorspace: 2499DRT Base Rec.1886, looks: "JP2499DRT - Editorial Soft"}
    - !<View> {name: JP2499DRT - Editorial Split, colorspace: 2499DRT Base Rec.1886, looks: "JP2499DRT - Editorial Split"}
    - !<View> {name: JP2499DRT - Hard Contrast, colorspace: 2499DRT Base Rec.1886, looks: "JP2499DRT - Hard Contrast"}
    - !<View> {name: JP2499DRT - Film Dense, colorspace: 2499DRT Base Rec.1886, looks: "JP2499DRT - Film Dense"}
    - !<View> {name: JP2499DRT - Photochemical, colorspace: 2499DRT Base Rec.1886, looks: "JP2499DRT - Photochemical"}
    - !<View> {name: JP2499DRT - Chemical Drift, colorspace: 2499DRT Base Rec.1886, looks: "JP2499DRT - Chemical Drift"}
    - !<View> {name: JP2499DRT - Tarnished Print, colorspace: 2499DRT Base Rec.1886, looks: "JP2499DRT - Tarnished Print"}
    - !<View> {name: JP2499DRT - Negative Dust, colorspace: 2499DRT Base Rec.1886, looks: "JP2499DRT - Negative Dust"}
    - !<View> {name: JP2499DRT - Archival Warm-Gray, colorspace: 2499DRT Base Rec.1886, looks: "JP2499DRT - Archival Warm-Gray"}
    - !<View> {name: JP2499DRT - Archival Extreme Matte, colorspace: 2499DRT Base Rec.1886, looks: "JP2499DRT - Archival Extreme Matte"}
    - !<View> {name: JP2499DRT - Graphite Matte, colorspace: 2499DRT Base Rec.1886, looks: "JP2499DRT - Graphite Matte"}
    - !<View> {name: JP2499DRT - Soot, colorspace: 2499DRT Base Rec.1886, looks: "JP2499DRT - Soot"}
    - !<View> {name: JP2499DRT - Carbon Plate, colorspace: 2499DRT Base Rec.1886, looks: "JP2499DRT - Carbon Plate"}
    - !<View> {name: JP2499DRT - Carbon Black, colorspace: 2499DRT Base Rec.1886, looks: "JP2499DRT - Carbon Black"}
    - !<View> {name: JP2499DRT - Cold Steel Neutral, colorspace: 2499DRT Base Rec.1886, looks: "JP2499DRT - Cold Steel Neutral"}
    - !<View> {name: JP2499DRT - Blue Carbon Print, colorspace: 2499DRT Base Rec.1886, looks: "JP2499DRT - Blue Carbon Print"}
    - !<View> {name: JP2499DRT - Funeral Bronze, colorspace: 2499DRT Base Rec.1886, looks: "JP2499DRT - Funeral Bronze"}
    - !<View> {name: JP2499DRT - Verdigris Shadow, colorspace: 2499DRT Base Rec.1886, looks: "JP2499DRT - Verdigris Shadow"}
    - !<View> {name: JP2499DRT - Phoenix Drift, colorspace: 2499DRT Base Rec.1886, looks: "JP2499DRT - Phoenix Drift"}
    - !<View> {name: JP2499DRT - Power Purity Boost 1, colorspace: 2499DRT Base Rec.1886, looks: JP2499DRT - Power Purity Boost 1}
    - !<View> {name: JP2499DRT - Power Purity Boost 2, colorspace: 2499DRT Base Rec.1886, looks: JP2499DRT - Power Purity Boost 2}
    - !<View> {name: JP2499DRT - Power Purity Boost 3, colorspace: 2499DRT Base Rec.1886, looks: JP2499DRT - Power Purity Boost 3}
    - !<View> {name: JP2499DRT - Power Purity Boost 4, colorspace: 2499DRT Base Rec.1886, looks: JP2499DRT - Power Purity Boost 4}
    - !<View> {name: JP2499DRT - BnWX, colorspace: 2499DRT Base Rec.1886, looks: JP2499DRT - BnWX}
    - !<View> {name: JP2499DRT - ClassicNegative, colorspace: 2499DRT Base Rec.1886, looks: JP2499DRT - ClassicNegative}
    - !<View> {name: JP2499DRT - ClassicCinemaNegative, colorspace: 2499DRT Base Rec.1886, looks: JP2499DRT - ClassicCinemaNegative}
    - !<View> {name: JP2499DRT - ClassicReversal, colorspace: 2499DRT Base Rec.1886, looks: JP2499DRT - ClassicReversal}
    - !<View> {name: JP2499DRT - CrazyNegative, colorspace: 2499DRT Base Rec.1886, looks: JP2499DRT - CrazyNegative}
    - !<View> {name: JP2499DRT - InstantFilm, colorspace: 2499DRT Base Rec.1886, looks: JP2499DRT - InstantFilm}
    - !<View> {name: JP2499DRT - PrintV1, colorspace: 2499DRT Base Rec.1886, looks: JP2499DRT - PrintV1}
    - !<View> {name: JP2499DRT - PrintV2, colorspace: 2499DRT Base Rec.1886, looks: JP2499DRT - PrintV2}
    - !<View> {name: JP2499DRT - PrintV3, colorspace: 2499DRT Base Rec.1886, looks: JP2499DRT - PrintV3}
    - !<View> {name: OpenDRT Default, colorspace: OpenDRT Default Rec.1886}
    - !<View> {name: OpenDRT Colorful, colorspace: OpenDRT Colorful Rec.1886}
    - !<View> {name: OpenDRT Umbra, colorspace: OpenDRT Umbra Rec.1886}
    - !<View> {name: TCAMv3, colorspace: TCAMv3 Rec.1886}
    - !<View> {name: ACES 2, colorspace: ACES 2 Rec.1886}
    - !<View> {name: ARRI K1S1, colorspace: ARRI K1S1 Rec.1886}
    - !<View> {name: ARRI ALF2, colorspace: ARRI ALF2 Rec.1886}
    - !<View> {name: ARRI Reveal, colorspace: ARRI Reveal Rec.1886}
    - !<View> {name: Sony S-Cinetone, colorspace: Sony S-Cinetone Rec.1886}
    - !<View> {name: None, colorspace: Raw}
  Log:
    - !<View> {name: JP2499 Log, colorspace: 2499DRT Log (2499)}
    - !<View> {name: AgX Log, colorspace: AgX Log}
    - !<View> {name: AgX Kraken Log, colorspace: AgX Log Kraken}
    - !<View> {name: AgX (SB2383) Log, colorspace: AgX Log (SB2383)}
    - !<View> {name: Filmlight T-Log - E-Gamut, colorspace: T-Log - E-Gamut}
    - !<View> {name: Filmlight T-Log - E-Gamut 2, colorspace: T-Log - E-Gamut 2}
    - !<View> {name: Filmlight T-LogE - E-Gamut 2, colorspace: T-LogeE - E-Gamut 2}
    - !<View> {name: ACEScc, colorspace: ACEScc}
    - !<View> {name: ACEScct, colorspace: ACEScct}
    - !<View> {name: None, colorspace: Raw}
    
active_displays: [sRGB, Display P3, Rec.1886, Log]

active_views: [AgX, AgX Kraken, AgX Kraken 800T, AgX NR2383, AgX SB2383, flim (default), flim (silver), JP2499DRT, JP2499DRT - Editorial Soft, JP2499DRT - Editorial Split, JP2499DRT - Hard Contrast, JP2499DRT - Film Dense, JP2499DRT - Photochemical, JP2499DRT - Chemical Drift, JP2499DRT - Tarnished Print, JP2499DRT - Negative Dust, JP2499DRT - Archival Warm-Gray, JP2499DRT - Archival Extreme Matte, JP2499DRT - Graphite Matte, JP2499DRT - Soot, JP2499DRT - Carbon Plate, JP2499DRT - Carbon Black, JP2499DRT - Cold Steel Neutral, JP2499DRT - Blue Carbon Print, JP2499DRT - Funeral Bronze, JP2499DRT - Verdigris Shadow, JP2499DRT - Phoenix Drift, JP2499DRT - Power Purity Boost 1, JP2499DRT - Power Purity Boost 2, JP2499DRT - Power Purity Boost 3, JP2499DRT - Power Purity Boost 4, JP2499DRT - BnWX, JP2499DRT - ClassicNegative, JP2499DRT - ClassicCinemaNegative, JP2499DRT - ClassicReversal, JP2499DRT - CrazyNegative, JP2499DRT - InstantFilm, JP2499DRT - PrintV1, JP2499DRT - PrintV2, JP2499DRT - PrintV3, OpenDRT Default, OpenDRT Colorful, OpenDRT Umbra, TCAMv3, ACES 2, ARRI K1S1, ARRI ALF2, ARRI Reveal, Sony S-Cinetone, JP2499 Log, AgX Log, AgX Kraken Log, AgX (SB2383) Log, Filmlight T-Log - E-Gamut, Filmlight T-Log - E-Gamut 2, Filmlight T-LogE - E-Gamut 2, ACEScc, ACEScct, None]  

#--------------------------------------------------------------------------------------------------------------------------------------------------------------------------------------------------------

# ************* ONLY ONE INACTIVE SPACE CAN BE UN-COMMENTED AT A TIME. PICK ONE! *********************

# If you're a FUSION user comment-out ALL inactive_colorspaces!!!!

# MINIMAL - Inactive spaces with absolute minimal clutter
