AgXc_all-dccs_OCIO-v2/LUTs/AgX-tonescale-default.spi1d
Version 1
From 0.0000000 1.0000000
Length 4096
Components 1
{
 -0.0000000
 0.0000142
 0.0000283
 0.0000425
 0.0000567
 0.0000710
 0.0000852
 0.0000995
 0.0001138
 0.0001281
 0.0001425
 0.0001568
 0.0001712
 0.0001856
 0.0002001
 0.0002145
 0.0002290
 0.0002435
 0.0002580
 0.0002725
 0.0002871
 0.0003017
 0.0003163
 0.0003309
 0.0003456
 0.0003602
 0.0003749
 0.0003897
 0.0004044
 0.0004192
 0.0004339
 0.0004487
 0.0004636
 0.0004784
 0.0004933
 0.0005082
 0.0005231
 0.0005380
 0.0005530
 0.0005680
 0.0005830
 0.0005980
 0.0006131
 0.0006282
 0.0006433
 0.0006584
 0.0006735
 0.0006887
 0.0007039
 0.0007191
 0.0007343
 0.0007496
 0.0007649
 0.0007802
 0.0007955
 0.0008109
 0.0008263
 0.0008417
 0.0008571
 0.0008725
 0.0008880
 0.0009035
 0.0009190
 0.0009346
 0.0009501
 0.0009657
 0.0009814
 0.0009970
 0.0010127
 0.0010283
 0.0010441
 0.0010598
 0.0010755
 0.0010913
 0.0011071
 0.0011230
 0.0011388
 0.0011547
 0.0011706
 0.0011865
 0.0012025
 0.0012185
 0.0012345
 0.0012505
 0.0012666
 0.0012826
 0.0012987
 0.0013149
 0.0013310
 0.0013472
 0.0013634
 0.0013796
 0.0013959
 0.0014122
 0.0014285
 0.0014448
 0.0014611
 0.0014775
 0.0014939
 0.0015103
 0.0015268
 0.0015433
 0.0015598
 0.0015763
 0.0015929
 0.0016095
 0.0016261
 0.0016427
 0.0016594
 0.0016760
 0.0016927
 0.0017095
 0.0017262
 0.0017430
 0.0017598
 0.0017767
 0.0017936
 0.0018105
 0.0018274
 0.0018443
 0.0018613
 0.0018783
 0.0018953
 0.0019124
 0.0019294
 0.0019466
 0.0019637
 0.0019808
 0.0019980
 0.0020152
 0.0020325
 0.0020497
 0.0020670
 0.0020844
 0.0021017
 0.0021191
 0.0021365
 0.0021539
 0.0021714
 0.0021889
 0.0022064
 0.0022239
 0.0022415
 0.0022591
 0.0022767
 0.0022943
 0.0023120
 0.0023297
 0.0023474
 0.0023652
 0.0023830
 0.0024008
 0.0024187
 0.0024365
 0.0024544
 0.0024724
 0.0024903
 0.0025083
 0.0025263
 0.0025444
 0.0025624
 0.0025805
 0.0025987
 0.0026168
 0.0026350
 0.0026532
 0.0026715
 0.0026897
 0.0027080
 0.0027264
 0.0027447
 0.0027631
 0.0027815
 0.0028000
 0.0028184
 0.0028369
 0.0028555
 0.0028740
 0.0028926
 0.0029112
 0.0029299
 0.0029486
 0.0029673
 0.0029860
 0.0030048
 0.0030236
 0.0030424
 0.0030613
 0.0030802
 0.0030991
 0.0031181
 0.0031370
 0.0031560
 0.0031751
 0.0031942
 0.0032133
 0.0032324
 0.0032516
 0.0032707
 0.0032900
 0.0033092
 0.0033285
 0.0033478
 0.0033672
 0.0033866
 0.0034060
 0.0034254
 0.0034449
 0.0034644
 0.0034839
 0.0035035
 0.0035231
 0.0035427
 0.0035624
 0.0035821
 0.0036018
 0.0036215
 0.0036413
 0.0036611
 0.0036810
 0.0037009
 0.0037208
 0.0037407
 0.0037607
 0.0037807
 0.0038008
 0.0038208
 0.0038410
 0.0038611
 0.0038813
 0.0039015
 0.0039217
 0.0039420
 0.0039623
 0.0039826
 0.0040030
 0.0040234
 0.0040438
 0.0040643
 0.0040848
 0.0041053
 0.0041259
 0.0041465
 0.0041671
 0.0041878
 0.0042085
 0.0042292
 0.0042500
 0.0042708
 0.0042916
 0.0043125
 0.0043334
 0.0043543
 0.0043753
 0.0043963
 0.0044174
 0.0044384
 0.0044595
 0.0044807
 0.0045019
 0.0045231
 0.0045443
 0.0045656
 0.0045869
 0.0046083
 0.0046297
 0.0046511
 0.0046725
 0.0046940
 0.0047155
 0.0047371
 0.0047587
 0.0047803
 0.0048020
 0.0048237
 0.0048454
 0.0048672
 0.0048890
 0.0049109
 0.0049328
 0.0049547
 0.0049766
 0.0049986
 0.0050206
 0.0050427
 0.0050648
 0.0050869
 0.0051091
 0.0051313
 0.0051535
 0.0051758
 0.0051981
 0.0052205
 0.0052429
 0.0052653
 0.0052878
 0.0053103
 0.0053328
 0.0053554
 0.0053780
 0.0054006
 0.0054233
 0.0054461
 0.0054688
 0.0054916
 0.0055145
 0.0055373
 0.0055602
 0.0055832
 0.0056062
 0.0056292
 0.0056523
 0.0056754
 0.0056985
 0.0057217
 0.0057449
 0.0057682
 0.0057915
 0.0058148
 0.0058382
 0.0058616
 0.0058850
 0.0059085
 0.0059320
 0.0059556
 0.0059792
 0.0060029
 0.0060266
 0.0060503
 0.0060740
 0.0060978
 0.0061217
 0.0061456
 0.0061695
 0.0061935
 0.0062175
 0.0062415
 0.0062656
 0.0062897
 0.0063139
 0.0063381
 0.0063623
 0.0063866
 0.0064109
 0.0064353
 0.0064597
 0.0064842
 0.0065087
 0.0065332
 0.0065578
 0.0065824
 0.0066070
 0.0066317
 0.0066565
 0.0066812
 0.0067061
 0.0067309
 0.0067558
 0.0067808
 0.0068058
 0.0068308
 0.0068559
 0.0068810
 0.0069061
 0.0069313
 0.0069566
 0.0069819
 0.0070072
 0.0070325
 0.0070580
 0.0070834
 0.0071089
 0.0071345
 0.0071600
 0.0071857
 0.0072113
 0.0072371
 0.0072628
 0.0072886
 0.0073145
 0.0073403
 0.0073663
 0.0073923
 0.0074183
 0.0074443
 0.0074704
 0.0074966
 0.0075228
 0.0075490
 0.0075753
 0.0076017
 0.0076280
 0.0076545
 0.0076809
 0.0077074
 0.0077340
 0.0077606
 0.0077872
 0.0078139
 0.0078407
 0.0078675
 0.0078943
 0.0079212
 0.0079481
 0.0079750
 0.0080021
 0.0080291
 0.0080562
 0.0080834
 0.0081106
 0.0081378
 0.0081651
 0.0081924
 0.0082198
 0.0082472
 0.0082747
 0.0083023
 0.0083298
 0.0083574
 0.0083851
 0.0084128
 0.0084406
 0.0084684
 0.0084963
 0.0085242
 0.0085521
 0.0085801
 0.0086082
 0.0086363
 0.0086644
 0.0086926
 0.0087208
 0.0087491
 0.0087775
 0.0088059
 0.0088343
 0.0088628
 0.0088913
 0.0089199
 0.0089485
 0.0089772
 0.0090060
 0.0090347
 0.0090636
 0.0090925
 0.0091214
 0.0091504
 0.0091794
 0.0092085
 0.0092376
 0.0092668
 0.0092960
 0.0093253
 0.0093547
 0.0093840
 0.0094135
 0.0094430
 0.0094725
 0.0095021
 0.0095317
 0.0095614
 0.0095912
 0.0096210
 0.0096508
 0.0096807
 0.0097107
 0.0097407
 0.0097707
 0.0098008
 0.0098310
 0.0098612
 0.0098915
 0.0099218
 0.0099522
 0.0099826
 0.0100131
 0.0100436
 0.0100742
 0.0101048
 0.0101355
 0.0101663
 0.0101971
 0.0102279
 0.0102588
 0.0102898
 0.0103208
 0.0103519
 0.0103830
 0.0104142
 0.0104454
 0.0104767
 0.0105081
 0.0105395
 0.0105709
 0.0106024
 0.0106340
 0.0106656
 0.0106973
 0.0107290
 0.0107608
 0.0107926
 0.0108245
 0.0108565
 0.0108885
 0.0109206
 0.0109527
 0.0109849
 0.0110171
 0.0110494
 0.0110818
 0.0111142
 0.0111466
 0.0111792
 0.0112117
 0.0112444
 0.0112771
 0.0113098
 0.0113426
 0.0113755
 0.0114084
 0.0114414
 0.0114745
 0.0115076
 0.0115407
 0.0115739
 0.0116072
 0.0116406
 0.0116739
 0.0117074
 0.0117409
 0.0117745
 0.0118081
 0.0118418
 0.0118756
 0.0119094
 0.0119433
 0.0119772
 0.0120112
 0.0120452
 0.0120794
 0.0121135
 0.0121478
 0.0121821
 0.0122164
 0.0122509
 0.0122853
 0.0123199
 0.0123545
 0.0123892
 0.0124239
 0.0124587
 0.0124935
 0.0125284
 0.0125634
 0.0125985
 0.0126336
 0.0126687
 0.0127040
 0.0127392
 0.0127746
 0.0128100
 0.0128455
 0.0128810
 0.0129167
 0.0129523
 0.0129881
 0.0130239
 0.0130597
 0.0130957
 0.0131317
 0.0131677
 0.0132038
 0.0132400
 0.0132763
 0.0133126
 0.0133490
 0.0133854
 0.0134220
 0.0134585
 0.0134952
 0.0135319
 0.0135687
 0.0136055
 0.0136424
 0.0136794
 0.0137165
 0.0137536
 0.0137907
 0.0138280
 0.0138653
 0.0139027
 0.0139401
 0.0139777
 0.0140152
 0.0140529
 0.0140906
 0.0141284
 0.0141663
 0.0142042
 0.0142422
 0.0142802
 0.0143184
 0.0143566
 0.0143948
 0.0144332
 0.0144716
 0.0145101
 0.0145486
 0.0145873
 0.0146259
 0.0146647
 0.0147035
 0.0147424
 0.0147814
 0.0148204
 0.0148596
 0.0148987
 0.0149380
 0.0149773
 0.0150167
 0.0150562
 0.0150958
 0.0151354
 0.0151751
 0.0152148
 0.0152547
 0.0152946
 0.0153345
 0.0153746
 0.0154147
 0.0154549
 0.0154952
 0.0155355
 0.0155760
 0.0156165
 0.0156570
 0.0156977
 0.0157384
 0.0157792
 0.0158200
 0.0158610
 0.0159020
 0.0159431
 0.0159843
 0.0160255
 0.0160668
 0.0161082
 0.0161497
 0.0161912
 0.0162329
 0.0162746
 0.0163163
 0.0163582
 0.0164001
 0.0164421
 0.0164842
 0.0165264
 0.0165686
 0.0166109
 0.0166533
 0.0166958
 0.0167384
 0.0167810
 0.0168237
 0.0168665
 0.0169094
 0.0169523
 0.0169953
 0.0170384
 0.0170816
 0.0171249
 0.0171682
 0.0172117
 0.0172552
 0.0172988
 0.0173424
 0.0173862
 0.0174300
 0.0174739
 0.0175179
 0.0175620
 0.0176062
 0.0176504
 0.0176947
 0.0177391
 0.0177836
 0.0178282
 0.0178728
 0.0179176
 0.0179624
 0.0180073
 0.0180523
 0.0180973
 0.0181425
 0.0181877
 0.0182330
 0.0182784
 0.0183239
 0.0183695
 0.0184152
 0.0184609
 0.0185067
 0.0185527
 0.0185987
 0.0186447
 0.0186909
 0.0187372
 0.0187835
 0.0188300
 0.0188765
 0.0189231
 0.0189698
 0.0190166
 0.0190634
 0.0191104
 0.0191574
 0.0192046
 0.0192518
 0.0192991
 0.0193465
 0.0193940
 0.0194415
 0.0194892
 0.0195370
 0.0195848
 0.0196327
 0.0196808
 0.0197289
 0.0197771
 0.0198254
 0.0198738
 0.0199223
 0.0199708
 0.0200195
 0.0200682
 0.0201171
 0.0201660
 0.0202150
 0.0202642
 0.0203134
 0.0203627
 0.0204121
 0.0204616
 0.0205112
 0.0205608
 0.0206106
 0.0206605
 0.0207104
 0.0207605
 0.0208107
 0.0208609
 0.0209112
 0.0209617
 0.0210122
 0.0210628
 0.0211136
 0.0211644
 0.0212153
 0.0212663
 0.0213174
 0.0213686
 0.0214199
 0.0214713
 0.0215228
 0.0215744
 0.0216261
 0.0216779
 0.0217298
 0.0217818
 0.0218339
 0.0218860
 0.0219383
 0.0219907
 0.0220432
 0.0220958
 0.0221485
 0.0222013
 0.0222541
 0.0223071
 0.0223602
 0.0224134
 0.0224667
 0.0225201
 0.0225736
 0.0226272
 0.0226809
 0.0227347
 0.0227886
 0.0228426
 0.0228967
 0.0229509
 0.0230052
 0.0230596
 0.0231142
 0.0231688
 0.0232235
 0.0232784
 0.0233333
 0.0233883
 0.0234435
 0.0234988
 0.0235541
 0.0236096
 0.0236652
 0.0237208
 0.0237766
 0.0238325
 0.0238885
 0.0239446
 0.0240009
 0.0240572
 0.0241136
 0.0241702
 0.0242268
 0.0242836
 0.0243405
 0.0243974
 0.0244545
 0.0245117
 0.0245690
 0.0246265
 0.0246840
 0.0247416
 0.0247994
 0.0248572
 0.0249152
 0.0249733
 0.0250315
 0.0250898
 0.0251482
 0.0252068
 0.0252654
 0.0253242
 0.0253831
 0.0254420
 0.0255011
 0.0255604
 0.0256197
 0.0256791
 0.0257387
 0.0257984
 0.0258582
 0.0259181
 0.0259781
 0.0260382
 0.0260985
 0.0261589
 0.0262194
 0.0262800
 0.0263407
 0.0264015
 0.0264625
 0.0265236
 0.0265848
 0.0266461
 0.0267075
 0.0267691
 0.0268308
 0.0268925
 0.0269545
 0.0270165
 0.0270786
 0.0271409
 0.0272033
 0.0272658
 0.0273285
 0.0273912
 0.0274541
 0.0275171
 0.0275802
 0.0276435
 0.0277069
 0.0277704
 0.0278340
 0.0278977
 0.0279616
 0.0280256
 0.0280897
 0.0281540
 0.0282183
 0.0282828
 0.0283474
 0.0284122
 0.0284771
 0.0285421
 0.0286072
 0.0286724
 0.0287378
 0.0288033
 0.0288690
 0.0289347
 0.0290006
 0.0290667
 0.0291328
 0.0291991
 0.0292655
 0.0293320
 0.0293987
 0.0294655
 0.0295324
 0.0295995
 0.0296667
 0.0297340
 0.0298015
 0.0298691
 0.0299368
 0.0300047
 0.0300727
 0.0301408
 0.0302090
 0.0302774
 0.0303460
 0.0304146
 0.0304834
 0.0305523
 0.0306214
 0.0306906
 0.0307599
 0.0308294
 0.0308990
 0.0309688
 0.0310387
 0.0311087
 0.0311788
 0.0312491
 0.0313196
 0.0313902
 0.0314609
 0.0315317
 0.0316027
 0.0316739
 0.0317451
 0.0318165
 0.0318881
 0.0319598
 0.0320316
 0.0321036
 0.0321757
 0.0322480
 0.0323204
 0.0323930
 0.0324656
 0.0325385
 0.0326115
 0.0326846
 0.0327579
 0.0328313
 0.0329048
 0.0329785
 0.0330524
 0.0331264
 0.0332005
 0.0332748
 0.0333492
 0.0334238
 0.0334986
 0.0335734
 0.0336485
 0.0337236
 0.0337990
 0.0338745
 0.0339501
 0.0340258
 0.0341018
 0.0341778
 0.0342541
 0.0343305
 0.0344070
 0.0344837
 0.0345605
 0.0346375
 0.0347146
 0.0347919
 0.0348694
 0.0349470
 0.0350247
 0.0351026
 0.0351807
 0.0352589
 0.0353373
 0.0354158
 0.0354945
 0.0355733
 0.0356523
 0.0357315
 0.0358108
 0.0358903
 0.0359699
 0.0360497
 0.0361296
 0.0362097
 0.0362900
 0.0363704
 0.0364510
 0.0365317
 0.0366127
 0.0366937
 0.0367750
 0.0368563
 0.0369379
 0.0370196
 0.0371015
 0.0371835
 0.0372657
 0.0373481
 0.0374306
 0.0375133
 0.0375962
 0.0376792
 0.0377624
 0.0378458
 0.0379293
 0.0380130
 0.0380969
 0.0381809
 0.0382651
 0.0383495
 0.0384340
 0.0385187
 0.0386036
 0.0386886
 0.0387739
 0.0388592
 0.0389448
 0.0390305
 0.0391164
 0.0392025
 0.0392887
 0.0393751
 0.0394617
 0.0395485
 0.0396354
 0.0397225
 0.0398098
 0.0398973
 0.0399849
 0.0400727
 0.0401607
 0.0402489
 0.0403372
 0.0404257
 0.0405144
 0.0406033
 0.0406923
 0.0407816
 0.0408710
 0.0409606
 0.0410503
 0.0411403
 0.0412304
 0.0413207
 0.0414112
 0.0415019
 0.0415927
 0.0416837
 0.0417750
 0.0418664
 0.0419579
 0.0420497
 0.0421417
 0.0422338
 0.0423261
 0.0424186
 0.0425113
 0.0426042
 0.0426973
 0.0427905
 0.0428840
 0.0429776
 0.0430714
 0.0431654
 0.0432596
 0.0433540
 0.0434486
 0.0435433
 0.0436383
 0.0437334
 0.0438288
 0.0439243
 0.0440200
 0.0441159
 0.0442121
 0.0443084
 0.0444048
 0.0445015
 0.0445984
 0.0446955
 0.0447928
 0.0448902
 0.0449879
 0.0450858
 0.0451838
 0.0452821
 0.0453806
 0.0454792
 0.0455781
 0.0456771
 0.0457764
 0.0458758
 0.0459755
 0.0460753
 0.0461754
 0.0462756
 0.0463761
 0.0464768
 0.0465776
 0.0466787
 0.0467800
 0.0468814
 0.0469831
 0.0470850
 0.0471871
 0.0472894
 0.0473919
 0.0474946
 0.0475975
 0.0477007
 0.0478040
 0.0479075
 0.0480113
 0.0481152
 0.0482194
 0.0483238
 0.0484284
 0.0485332
 0.0486382
 0.0487434
 0.0488489
 0.0489545
 0.0490604
 0.0491665
 0.0492728
 0.0493793
 0.0494860
 0.0495929
 0.0497001
 0.0498074
 0.0499150
 0.0500228
 0.0501309
 0.0502391
 0.0503476
 0.0504562
 0.0505651
 0.0506742
 0.0507836
 0.0508931
 0.0510029
 0.0511129
 0.0512231
 0.0513336
 0.0514443
 0.0515551
 0.0516663
 0.0517776
 0.0518892
 0.0520010
 0.0521130
 0.0522252
 0.0523377
 0.0524504
 0.0525633
 0.0526765
 0.0527898
 0.0529035
 0.0530173
 0.0531314
 0.0532457
 0.0533602
 0.0534750
 0.0535900
 0.0537052
 0.0538206
 0.0539363
 0.0540523
 0.0541684
 0.0542848
 0.0544014
 0.0545183
 0.0546354
 0.0547527
 0.0548703
 0.0549881
 0.0551062
 0.0552245
 0.0553430
 0.0554618
 0.0555808
 0.0557000
 0.0558195
 0.0559392
 0.0560592
 0.0561794
 0.0562999
 0.0564206
 0.0565415
 0.0566627
 0.0567841
 0.0569058
 0.0570277
 0.0571499
 0.0572723
 0.0573950
 0.0575179
 0.0576410
 0.0577644
 0.0578881
 0.0580120
 0.0581361
 0.0582605
 0.0583852
 0.0585101
 0.0586353
 0.0587607
 0.0588863
 0.0590123
 0.0591384
 0.0592649
 0.0593915
 0.0595185
 0.0596457
 0.0597731
 0.0599008
 0.0600288
 0.0601570
 0.0602855
 0.0604142
 0.0605432
 0.0606725
 0.0608020
 0.0609318
 0.0610618
 0.0611921
 0.0613227
 0.0614535
 0.0615846
 0.0617159
 0.0618475
 0.0619794
 0.0621116
 0.0622440
 0.0623767
 0.0625096
 0.0626428
 0.0627763
 0.0629101
 0.0630441
 0.0631784
 0.0633129
 0.0634477
 0.0635828
 0.0637182
 0.0638539
 0.0639898
 0.0641260
 0.0642624
 0.0643992
 0.0645362
 0.0646735
 0.0648110
 0.0649489
 0.0650870
 0.0652254
 0.0653641
 0.0655030
 0.0656422
 0.0657817
 0.0659215
 0.0660616
 0.0662019
 0.0663426
 0.0664835
 0.0666247
 0.0667661
 0.0669079
 0.0670499
 0.0671923
 0.0673349
 0.0674778
 0.0676210
 0.0677644
 0.0679082
 0.0680522
 0.0681966
 0.0683412
 0.0684861
 0.0686313
 0.0687768
 0.0689226
 0.0690687
 0.0692150
 0.0693617
 0.0695086
 0.0696559
 0.0698034
 0.0699513
 0.0700994
 0.0702478
 0.0703965
 0.0705455
 0.0706949
 0.0708445
 0.0709944
 0.0711446
 0.0712951
 0.0714459
 0.0715970
 0.0717484
 0.0719001
 0.0720522
 0.0722045
 0.0723571
 0.0725100
 0.0726632
 0.0728168
 0.0729706
 0.0731247
 0.0732792
 0.0734339
 0.0735890
 0.0737444
 0.0739001
 0.0740560
 0.0742123
 0.0743690
 0.0745259
 0.0746831
 0.0748406
 0.0749985
 0.0751567
 0.0753151
 0.0754739
 0.0756330
 0.0757925
 0.0759522
 0.0761123
 0.0762726
 0.0764333
 0.0765943
 0.0767556
 0.0769173
 0.0770793
 0.0772415
 0.0774041
 0.0775671
 0.0777303
 0.0778939
 0.0780578
 0.0782220
 0.0783865
 0.0785514
 0.0787166
 0.0788821
 0.0790479
 0.0792141
 0.0793806
 0.0795474
 0.0797145
 0.0798820
 0.0800498
 0.0802179
 0.0803864
 0.0805552
 0.0807243
 0.0808938
 0.0810636
 0.0812337
 0.0814041
 0.0815749
 0.0817460
 0.0819175
 0.0820893
 0.0822614
 0.0824339
 0.0826067
 0.0827798
 0.0829533
 0.0831271
 0.0833013
 0.0834758
 0.0836506
 0.0838258
 0.0840013
 0.0841772
 0.0843534
 0.0845300
 0.0847069
 0.0848841
 0.0850617
 0.0852396
 0.0854179
 0.0855965
 0.0857755
 0.0859548
 0.0861345
 0.0863145
 0.0864948
 0.0866755
 0.0868566
 0.0870380
 0.0872198
 0.0874019
 0.0875844
 0.0877672
 0.0879504
 0.0881339
 0.0883178
 0.0885020
 0.0886866
 0.0888716
 0.0890569
 0.0892425
 0.0894286
 0.0896150
 0.0898017
 0.0899888
 0.0901763
 0.0903641
 0.0905523
 0.0907408
 0.0909297
 0.0911190
 0.0913086
 0.0914986
 0.0916890
 0.0918797
 0.0920708
 0.0922622
 0.0924541
 0.0926463
 0.0928388
 0.0930317
 0.0932250
 0.0934187
 0.0936127
 0.0938071
 0.0940019
 0.0941970
 0.0943926
 0.0945885
 0.0947847
 0.0949813
 0.0951784
 0.0953757
 0.0955735
 0.0957716
 0.0959701
 0.0961690
 0.0963683
 0.0965679
 0.0967679
 0.0969683
 0.0971691
 0.0973703
 0.0975718
 0.0977737
 0.0979760
 0.0981787
 0.0983818
 0.0985852
 0.0987890
 0.0989932
 0.0991978
 0.0994028
 0.0996082
 0.0998139
 0.1000201
 0.1002266
 0.1004335
 0.1006408
 0.1008485
 0.1010565
 0.1012650
 0.1014739
 0.1016831
 0.1018927
 0.1021028
 0.1023132
 0.1025240
 0.1027352
 0.1029468
 0.1031588
 0.1033712
 0.1035839
 0.1037971
 0.1040107
 0.1042247
 0.1044390
 0.1046538
 0.1048689
 0.1050845
 0.1053004
 0.1055168
 0.1057336
 0.1059507
 0.1061683
 0.1063862
 0.1066046
 0.1068233
 0.1070425
 0.1072621
 0.1074820
 0.1077024
 0.1079232
 0.1081443
 0.1083659
 0.1085879
 0.1088103
 0.1090331
 0.1092563
 0.1094800
 0.1097040
 0.1099284
 0.1101533
 0.1103785
 0.1106042
 0.1108303
 0.1110567
 0.1112836
 0.1115109
 0.1117387
 0.1119668
 0.1121953
 0.1124243
 0.1126537
 0.1128835
 0.1131137
 0.1133443
 0.1135753
 0.1138068
 0.1140387
 0.1142709
 0.1145036
 0.1147368
 0.1149703
 0.1152043
 0.1154386
 0.1156734
 0.1159086
 0.1161443
 0.1163803
 0.1166168
 0.1168537
 0.1170910
 0.1173288
 0.1175670
 0.1178056
 0.1180446
 0.1182840
 0.1185239
 0.1187642
 0.1190049
 0.1192460
 0.1194876
 0.1197296
 0.1199720
 0.1202149
 0.1204581
 0.1207019
 0.1209460
 0.1211906
 0.1214355
 0.1216810
 0.1219268
 0.1221731
 0.1224198
 0.1226670
 0.1229145
 0.1231626
 0.1234110
 0.1236599
 0.1239092
 0.1241589
 0.1244091
 0.1246597
 0.1249108
 0.1251622
 0.1254142
 0.1256665
 0.1259193
 0.1261725
 0.1264262
 0.1266803
 0.1269348
 0.1271898
 0.1274452
 0.1277011
 0.1279574
 0.1282141
 0.1284712
 0.1287289
 0.1289869
 0.1292454
 0.1295043
 0.1297637
 0.1300235
 0.1302838
 0.1305445
 0.1308056
 0.1310672
 0.1313292
 0.1315917
 0.1318546
 0.1321179
 0.1323817
 0.1326460
 0.1329107
 0.1331758
 0.1334414
 0.1337074
 0.1339739
 0.1342408
 0.1345082
 0.1347760
 0.1350443
 0.1353130
 0.1355821
 0.1358517
 0.1361218
 0.1363923
 0.1366632
 0.1369346
 0.1372065
 0.1374788
 0.1377515
 0.1380247
 0.1382984
 0.1385724
 0.1388470
 0.1391220
 0.1393974
 0.1396733
 0.1399497
 0.1402265
 0.1405038
 0.1407815
 0.1410596
 0.1413383
 0.1416173
 0.1418968
 0.1421768
 0.1424573
 0.1427381
 0.1430195
 0.1433013
 0.1435835
 0.1438662
 0.1441494
 0.1444330
 0.1447170
 0.1450016
 0.1452865
 0.1455720
 0.1458579
 0.1461442
 0.1464310
 0.1467183
 0.1470060
 0.1472942
 0.1475828
 0.1478719
 0.1481614
 0.1484514
 0.1487419
 0.1490328
 0.1493242
 0.1496160
 0.1499083
 0.1502011
 0.1504943
 0.1507879
 0.1510821
 0.1513766
 0.1516717
 0.1519672
 0.1522631
 0.1525596
 0.1528564
 0.1531538
 0.1534516
 0.1537498
 0.1540486
 0.1543477
 0.1546474
 0.1549475
 0.1552480
 0.1555491
 0.1558505
 0.1561525
 0.1564549
 0.1567577
 0.1570611
 0.1573648
 0.1576691
 0.1579738
 0.1582789
 0.1585846
 0.1588907
 0.1591972
 0.1595042
 0.1598117
 0.1601196
 0.1604280
 0.1607369
 0.1610462
 0.1613559
 0.1616662
 0.1619769
 0.1622880
 0.1625996
 0.1629117
 0.1632243
 0.1635373
 0.1638507
 0.1641647
 0.1644790
 0.1647939
 0.1651092
 0.1654250
 0.1657412
 0.1660579
 0.1663750
 0.1666927
 0.1670107
 0.1673293
 0.1676483
 0.1679677
 0.1682876
 0.1686080
 0.1689288
 0.1692501
 0.1695719
 0.1698941
 0.1702168
 0.1705399
 0.1708635
 0.1711876
 0.1715121
 0.1718371
 0.1721625
 0.1724884
 0.1728148
 0.1731416
 0.1734689
 0.1737966
 0.1741248
 0.1744535
 0.1747826
 0.1751121
 0.1754422
 0.1757727
 0.1761036
 0.1764350
 0.1767669
 0.1770992
 0.1774320
 0.1777652
 0.1780989
 0.1784331
 0.1787677
 0.1791027
 0.1794383
 0.1797742
 0.1801107
 0.1804476
 0.1807849
 0.1811227
 0.1814610
 0.1817997
 0.1821388
 0.1824785
 0.1828185
 0.1831591
 0.1835001
 0.1838415
 0.1841834
 0.1845258
 0.1848686
 0.1852118
 0.1855555
 0.1858997
 0.1862443
 0.1865894
 0.1869349
 0.1872808
 0.1876273
 0.1879741
 0.1883215
 0.1886692
 0.1890175
 0.1893661
 0.1897153
 0.1900648
 0.1904148
 0.1907653
 0.1911162
 0.1914676
 0.1918194
 0.1921717
 0.1925244
 0.1928776
 0.1932312
 0.1935852
 0.1939397
 0.1942946
 0.1946500
 0.1950059
 0.1953621
 0.1957189
 0.1960760
 0.1964336
 0.1967917
 0.1971502
 0.1975091
 0.1978685
 0.1982283
 0.1985886
 0.1989493
 0.1993105
 0.1996720
 0.2000341
 0.2003965
 0.2007594
 0.2011228
 0.2014866
 0.2018508
 0.2022155
 0.2025805
 0.2029461
 0.2033120
 0.2036785
 0.2040453
 0.2044126
 0.2047803
 0.2051484
 0.2055170
 0.2058860
 0.2062555
 0.2066253
 0.2069956
 0.2073664
 0.2077375
 0.2081091
 0.2084812
 0.2088536
 0.2092265
 0.2095998
 0.2099736
 0.2103478
 0.2107224
 0.2110974
 0.2114728
 0.2118487
 0.2122250
 0.2126018
 0.2129789
 0.2133565
 0.2137345
 0.2141129
 0.2144917
 0.2148710
 0.2152507
 0.2156308
 0.2160113
 0.2163923
 0.2167736
 0.2171554
 0.2175376
 0.2179202
 0.2183033
 0.2186867
 0.2190706
 0.2194549
 0.2198396
 0.2202247
 0.2206102
 0.2209961
 0.2213825
 0.2217692
 0.2221564
 0.2225440
 0.2229319
 0.2233203
 0.2237091
 0.2240984
 0.2244880
 0.2248780
 0.2252684
 0.2256593
 0.2260505
 0.2264421
 0.2268342
 0.2272266
 0.2276195
 0.2280128
 0.2284064
 0.2288005
 0.2291949
 0.2295898
 0.2299850
 0.2303807
 0.2307767
 0.2311731
 0.2315700
 0.2319672
 0.2323648
 0.2327629
 0.2331613
 0.2335601
 0.2339593
 0.2343589
 0.2347588
 0.2351592
 0.2355599
 0.2359611
 0.2363626
 0.2367645
 0.2371668
 0.2375695
 0.2379726
 0.2383760
 0.2387799
 0.2391841
 0.2395887
 0.2399937
 0.2403990
 0.2408048
 0.2412109
 0.2416174
 0.2420242
 0.2424315
 0.2428391
 0.2432471
 0.2436555
 0.2440642
 0.2444733
 0.2448828
 0.2452927
 0.2457029
 0.2461135
 0.2465245
 0.2469358
 0.2473475
 0.2477596
 0.2481720
 0.2485848
 0.2489980
 0.2494115
 0.2498254
 0.2502396
 0.2506543
 0.2510692
 0.2514846
 0.2519002
 0.2523163
 0.2527327
 0.2531494
 0.2535665
 0.2539840
 0.2544018
 0.2548200
 0.2552385
 0.2556574
 0.2560766
 0.2564962
 0.2569161
 0.2573364
 0.2577570
 0.2581779
 0.2585992
 0.2590209
 0.2594429
 0.2598652
 0.2602879
 0.2607109
 0.2611343
 0.2615580
 0.2619820
 0.2624064
 0.2628311
 0.2632561
 0.2636815
 0.2641072
 0.2645332
 0.2649596
 0.2653863
 0.2658133
 0.2662407
 0.2666684
 0.2670964
 0.2675248
 0.2679534
 0.2683824
 0.2688117
 0.2692414
 0.2696714
 0.2701016
 0.2705323
 0.2709632
 0.2713944
 0.2718260
 0.2722579
 0.2726901
 0.2731226
 0.2735554
 0.2739885
 0.2744220
 0.2748557
 0.2752898
 0.2757242
 0.2761589
 0.2765939
 0.2770292
 0.2774648
 0.2779007
 0.2783369
 0.2787734
 0.2792103
 0.2796474
 0.2800848
 0.2805225
 0.2809606
 0.2813989
 0.2818375
 0.2822764
 0.2827156
 0.2831551
 0.2835949
 0.2840350
 0.2844754
 0.2849160
 0.2853570
 0.2857982
 0.2862397
 0.2866815
 0.2871236
 0.2875660
 0.2880087
 0.2884516
 0.2888949
 0.2893384
 0.2897822
 0.2902262
 0.2906706
 0.2911152
 0.2915601
 0.2920053
 0.2924507
 0.2928964
 0.2933424
 0.2937887
 0.2942352
 0.2946820
 0.2951291
 0.2955764
 0.2960240
 0.2964719
 0.2969200
 0.2973684
 0.2978170
 0.2982659
 0.2987151
 0.2991645
 0.2996142
 0.3000642
 0.3005144
 0.3009648
 0.3014155
 0.3018665
 0.3023177
 0.3027692
 0.3032209
 0.3036729
 0.3041251
 0.3045776
 0.3050303
 0.3054832
 0.3059364
 0.3063899
 0.3068436
 0.3072975
 0.3077517
 0.3082061
 0.3086607
 0.3091156
 0.3095707
 0.3100261
 0.3104817
 0.3109375
 0.3113936
 0.3118499
 0.3123064
 0.3127631
 0.3132201
 0.3136773
 0.3141348
 0.3145924
 0.3150503
 0.3155084
 0.3159667
 0.3164253
 0.3168841
 0.3173431
 0.3178023
 0.3182617
 0.3187214
 0.3191812
 0.3196413
 0.3201016
 0.3205621
 0.3210229
 0.3214838
 0.3219449
 0.3224063
 0.3228678
 0.3233296
 0.3237916
 0.3242538
 0.3247162
 0.3251788
 0.3256416
 0.3261045
 0.3265677
 0.3270311
 0.3274947
 0.3279585
 0.3284225
 0.3288867
 0.3293511
 0.3298157
 0.3302804
 0.3307454
 0.3312105
 0.3316759
 0.3321414
 0.3326071
 0.3330730
 0.3335391
 0.3340054
 0.3344719
 0.3349385
 0.3354054
 0.3358724
 0.3363396
 0.3368069
 0.3372745
 0.3377422
 0.3382101
 0.3386782
 0.3391465
 0.3396149
 0.3400835
 0.3405523
 0.3410212
 0.3414903
 0.3419596
 0.3424291
 0.3428987
 0.3433685
 0.3438385
 0.3443086
 0.3447789
 0.3452493
 0.3457199
 0.3461907
 0.3466617
 0.3471327
 0.3476040
 0.3480754
 0.3485470
 0.3490187
 0.3494906
 0.3499626
 0.3504348
 0.3509071
 0.3513796
