AgXc_all-dccs_OCIO-v2/LUTs/AgX-tonescale-hardtoe.spi1d
Version 1
From 0.0000000 1.0000000
Length 4096
Components 1
{
 0.0000000
 0.0000005
 0.0000011
 0.0000016
 0.0000022
 0.0000027
 0.0000033
 0.0000038
 0.0000044
 0.0000050
 0.0000055
 0.0000061
 0.0000066
 0.0000072
 0.0000077
 0.0000083
 0.0000089
 0.0000094
 0.0000100
 0.0000106
 0.0000111
 0.0000117
 0.0000123
 0.0000128
 0.0000134
 0.0000140
 0.0000145
 0.0000151
 0.0000157
 0.0000163
 0.0000168
 0.0000174
 0.0000180
 0.0000186
 0.0000192
 0.0000197
 0.0000203
 0.0000209
 0.0000215
 0.0000221
 0.0000227
 0.0000233
 0.0000239
 0.0000244
 0.0000250
 0.0000256
 0.0000262
 0.0000268
 0.0000274
 0.0000280
 0.0000286
 0.0000292
 0.0000298
 0.0000304
 0.0000310
 0.0000316
 0.0000322
 0.0000328
 0.0000334
 0.0000340
 0.0000347
 0.0000353
 0.0000359
 0.0000365
 0.0000371
 0.0000377
 0.0000383
 0.0000390
 0.0000396
 0.0000402
 0.0000408
 0.0000414
 0.0000421
 0.0000427
 0.0000433
 0.0000439
 0.0000446
 0.0000452
 0.0000458
 0.0000465
 0.0000471
 0.0000477
 0.0000484
 0.0000490
 0.0000496
 0.0000503
 0.0000509
 0.0000516
 0.0000522
 0.0000528
 0.0000535
 0.0000541
 0.0000548
 0.0000554
 0.0000561
 0.0000567
 0.0000574
 0.0000580
 0.0000587
 0.0000593
 0.0000600
 0.0000607
 0.0000613
 0.0000620
 0.0000626
 0.0000633
 0.0000640
 0.0000646
 0.0000653
 0.0000660
 0.0000666
 0.0000673
 0.0000680
 0.0000687
 0.0000693
 0.0000700
 0.0000707
 0.0000714
 0.0000720
 0.0000727
 0.0000734
 0.0000741
 0.0000748
 0.0000755
 0.0000762
 0.0000768
 0.0000775
 0.0000782
 0.0000789
 0.0000796
 0.0000803
 0.0000810
 0.0000817
 0.0000824
 0.0000831
 0.0000838
 0.0000845
 0.0000852
 0.0000859
 0.0000866
 0.0000873
 0.0000881
 0.0000888
 0.0000895
 0.0000902
 0.0000909
 0.0000916
 0.0000923
 0.0000931
 0.0000938
 0.0000945
 0.0000952
 0.0000960
 0.0000967
 0.0000974
 0.0000982
 0.0000989
 0.0000996
 0.0001004
 0.0001011
 0.0001018
 0.0001026
 0.0001033
 0.0001040
 0.0001048
 0.0001055
 0.0001063
 0.0001070
 0.0001078
 0.0001085
 0.0001093
 0.0001100
 0.0001108
 0.0001115
 0.0001123
 0.0001131
 0.0001138
 0.0001146
 0.0001153
 0.0001161
 0.0001169
 0.0001176
 0.0001184
 0.0001192
 0.0001200
 0.0001207
 0.0001215
 0.0001223
 0.0001231
 0.0001238
 0.0001246
 0.0001254
 0.0001262
 0.0001270
 0.0001278
 0.0001286
 0.0001294
 0.0001301
 0.0001309
 0.0001317
 0.0001325
 0.0001333
 0.0001341
 0.0001349
 0.0001357
 0.0001365
 0.0001374
 0.0001382
 0.0001390
 0.0001398
 0.0001406
 0.0001414
 0.0001422
 0.0001431
 0.0001439
 0.0001447
 0.0001455
 0.0001463
 0.0001472
 0.0001480
 0.0001488
 0.0001497
 0.0001505
 0.0001513
 0.0001522
 0.0001530
 0.0001538
 0.0001547
 0.0001555
 0.0001564
 0.0001572
 0.0001581
 0.0001589
 0.0001598
 0.0001606
 0.0001615
 0.0001623
 0.0001632
 0.0001641
 0.0001649
 0.0001658
 0.0001666
 0.0001675
 0.0001684
 0.0001692
 0.0001701
 0.0001710
 0.0001719
 0.0001728
 0.0001736
 0.0001745
 0.0001754
 0.0001763
 0.0001772
 0.0001781
 0.0001789
 0.0001798
 0.0001807
 0.0001816
 0.0001825
 0.0001834
 0.0001843
 0.0001852
 0.0001861
 0.0001870
 0.0001879
 0.0001889
 0.0001898
 0.0001907
 0.0001916
 0.0001925
 0.0001934
 0.0001944
 0.0001953
 0.0001962
 0.0001971
 0.0001981
 0.0001990
 0.0001999
 0.0002009
 0.0002018
 0.0002027
 0.0002037
 0.0002046
 0.0002056
 0.0002065
 0.0002075
 0.0002084
 0.0002094
 0.0002103
 0.0002113
 0.0002122
 0.0002132
 0.0002142
 0.0002151
 0.0002161
 0.0002171
 0.0002180
 0.0002190
 0.0002200
 0.0002210
 0.0002219
 0.0002229
 0.0002239
 0.0002249
 0.0002259
 0.0002269
 0.0002278
 0.0002288
 0.0002298
 0.0002308
 0.0002318
 0.0002328
 0.0002338
 0.0002348
 0.0002358
 0.0002369
 0.0002379
 0.0002389
 0.0002399
 0.0002409
 0.0002419
 0.0002430
 0.0002440
 0.0002450
 0.0002460
 0.0002471
 0.0002481
 0.0002491
 0.0002502
 0.0002512
 0.0002522
 0.0002533
 0.0002543
 0.0002554
 0.0002564
 0.0002575
 0.0002585
 0.0002596
 0.0002607
 0.0002617
 0.0002628
 0.0002639
 0.0002649
 0.0002660
 0.0002671
 0.0002681
 0.0002692
 0.0002703
 0.0002714
 0.0002725
 0.0002735
 0.0002746
 0.0002757
 0.0002768
 0.0002779
 0.0002790
 0.0002801
 0.0002812
 0.0002823
 0.0002834
 0.0002845
 0.0002856
 0.0002868
 0.0002879
 0.0002890
 0.0002901
 0.0002912
 0.0002924
 0.0002935
 0.0002946
 0.0002958
 0.0002969
 0.0002980
 0.0002992
 0.0003003
 0.0003015
 0.0003026
 0.0003038
 0.0003049
 0.0003061
 0.0003072
 0.0003084
 0.0003096
 0.0003107
 0.0003119
 0.0003131
 0.0003142
 0.0003154
 0.0003166
 0.0003178
 0.0003190
 0.0003201
 0.0003213
 0.0003225
 0.0003237
 0.0003249
 0.0003261
 0.0003273
 0.0003285
 0.0003297
 0.0003309
 0.0003321
 0.0003334
 0.0003346
 0.0003358
 0.0003370
 0.0003382
 0.0003395
 0.0003407
 0.0003419
 0.0003432
 0.0003444
 0.0003456
 0.0003469
 0.0003481
 0.0003494
 0.0003506
 0.0003519
 0.0003531
 0.0003544
 0.0003557
 0.0003569
 0.0003582
 0.0003595
 0.0003607
 0.0003620
 0.0003633
 0.0003646
 0.0003659
 0.0003672
 0.0003685
 0.0003697
 0.0003710
 0.0003723
 0.0003736
 0.0003750
 0.0003763
 0.0003776
 0.0003789
 0.0003802
 0.0003815
 0.0003828
 0.0003842
 0.0003855
 0.0003868
 0.0003882
 0.0003895
 0.0003908
 0.0003922
 0.0003935
 0.0003949
 0.0003962
 0.0003976
 0.0003989
 0.0004003
 0.0004017
 0.0004030
 0.0004044
 0.0004058
 0.0004072
 0.0004085
 0.0004099
 0.0004113
 0.0004127
 0.0004141
 0.0004155
 0.0004169
 0.0004183
 0.0004197
 0.0004211
 0.0004225
 0.0004239
 0.0004253
 0.0004268
 0.0004282
 0.0004296
 0.0004310
 0.0004325
 0.0004339
 0.0004354
 0.0004368
 0.0004382
 0.0004397
 0.0004411
 0.0004426
 0.0004441
 0.0004455
 0.0004470
 0.0004485
 0.0004499
 0.0004514
 0.0004529
 0.0004544
 0.0004559
 0.0004573
 0.0004588
 0.0004603
 0.0004618
 0.0004633
 0.0004648
 0.0004664
 0.0004679
 0.0004694
 0.0004709
 0.0004724
 0.0004740
 0.0004755
 0.0004770
 0.0004786
 0.0004801
 0.0004816
 0.0004832
 0.0004847
 0.0004863
 0.0004879
 0.0004894
 0.0004910
 0.0004926
 0.0004941
 0.0004957
 0.0004973
 0.0004989
 0.0005005
 0.0005021
 0.0005036
 0.0005052
 0.0005068
 0.0005085
 0.0005101
 0.0005117
 0.0005133
 0.0005149
 0.0005165
 0.0005182
 0.0005198
 0.0005214
 0.0005231
 0.0005247
 0.0005264
 0.0005280
 0.0005297
 0.0005313
 0.0005330
 0.0005347
 0.0005363
 0.0005380
 0.0005397
 0.0005414
 0.0005431
 0.0005448
 0.0005464
 0.0005481
 0.0005498
 0.0005516
 0.0005533
 0.0005550
 0.0005567
 0.0005584
 0.0005601
 0.0005619
 0.0005636
 0.0005654
 0.0005671
 0.0005688
 0.0005706
 0.0005723
 0.0005741
 0.0005759
 0.0005776
 0.0005794
 0.0005812
 0.0005830
 0.0005848
 0.0005865
 0.0005883
 0.0005901
 0.0005919
 0.0005937
 0.0005955
 0.0005974
 0.0005992
 0.0006010
 0.0006028
 0.0006047
 0.0006065
 0.0006083
 0.0006102
 0.0006120
 0.0006139
 0.0006157
 0.0006176
 0.0006195
 0.0006213
 0.0006232
 0.0006251
 0.0006270
 0.0006289
 0.0006308
 0.0006327
 0.0006346
 0.0006365
 0.0006384
 0.0006403
 0.0006422
 0.0006441
 0.0006461
 0.0006480
 0.0006500
 0.0006519
 0.0006538
 0.0006558
 0.0006578
 0.0006597
 0.0006617
 0.0006637
 0.0006656
 0.0006676
 0.0006696
 0.0006716
 0.0006736
 0.0006756
 0.0006776
 0.0006796
 0.0006816
 0.0006837
 0.0006857
 0.0006877
 0.0006897
 0.0006918
 0.0006938
 0.0006959
 0.0006979
 0.0007000
 0.0007021
 0.0007041
 0.0007062
 0.0007083
 0.0007104
 0.0007125
 0.0007146
 0.0007167
 0.0007188
 0.0007209
 0.0007230
 0.0007251
 0.0007272
 0.0007294
 0.0007315
 0.0007337
 0.0007358
 0.0007380
 0.0007401
 0.0007423
 0.0007445
 0.0007466
 0.0007488
 0.0007510
 0.0007532
 0.0007554
 0.0007576
 0.0007598
 0.0007620
 0.0007642
 0.0007664
 0.0007687
 0.0007709
 0.0007732
 0.0007754
 0.0007776
 0.0007799
 0.0007822
 0.0007844
 0.0007867
 0.0007890
 0.0007913
 0.0007936
 0.0007959
 0.0007982
 0.0008005
 0.0008028
 0.0008051
 0.0008074
 0.0008098
 0.0008121
 0.0008144
 0.0008168
 0.0008192
 0.0008215
 0.0008239
 0.0008263
 0.0008286
 0.0008310
 0.0008334
 0.0008358
 0.0008382
 0.0008406
 0.0008430
 0.0008455
 0.0008479
 0.0008503
 0.0008528
 0.0008552
 0.0008577
 0.0008601
 0.0008626
 0.0008650
 0.0008675
 0.0008700
 0.0008725
 0.0008750
 0.0008775
 0.0008800
 0.0008825
 0.0008850
 0.0008876
 0.0008901
 0.0008926
 0.0008952
 0.0008977
 0.0009003
 0.0009029
 0.0009054
 0.0009080
 0.0009106
 0.0009132
 0.0009158
 0.0009184
 0.0009210
 0.0009236
 0.0009263
 0.0009289
 0.0009315
 0.0009342
 0.0009368
 0.0009395
 0.0009422
 0.0009448
 0.0009475
 0.0009502
 0.0009529
 0.0009556
 0.0009583
 0.0009610
 0.0009638
 0.0009665
 0.0009692
 0.0009720
 0.0009747
 0.0009775
 0.0009803
 0.0009830
 0.0009858
 0.0009886
 0.0009914
 0.0009942
 0.0009970
 0.0009998
 0.0010026
 0.0010055
 0.0010083
 0.0010112
 0.0010140
 0.0010169
 0.0010197
 0.0010226
 0.0010255
 0.0010284
 0.0010313
 0.0010342
 0.0010371
 0.0010400
 0.0010430
 0.0010459
 0.0010489
 0.0010518
 0.0010548
 0.0010577
 0.0010607
 0.0010637
 0.0010667
 0.0010697
 0.0010727
 0.0010757
 0.0010787
 0.0010818
 0.0010848
 0.0010879
 0.0010909
 0.0010940
 0.0010971
 0.0011001
 0.0011032
 0.0011063
 0.0011094
 0.0011125
 0.0011157
 0.0011188
 0.0011219
 0.0011251
 0.0011282
 0.0011314
 0.0011346
 0.0011378
 0.0011409
 0.0011441
 0.0011474
 0.0011506
 0.0011538
 0.0011570
 0.0011603
 0.0011635
 0.0011668
 0.0011700
 0.0011733
 0.0011766
 0.0011799
 0.0011832
 0.0011865
 0.0011898
 0.0011932
 0.0011965
 0.0011999
 0.0012032
 0.0012066
 0.0012100
 0.0012133
 0.0012167
 0.0012201
 0.0012236
 0.0012270
 0.0012304
 0.0012338
 0.0012373
 0.0012408
 0.0012442
 0.0012477
 0.0012512
 0.0012547
 0.0012582
 0.0012617
 0.0012652
 0.0012688
 0.0012723
 0.0012759
 0.0012794
 0.0012830
 0.0012866
 0.0012902
 0.0012938
 0.0012974
 0.0013010
 0.0013047
 0.0013083
 0.0013120
 0.0013156
 0.0013193
 0.0013230
 0.0013267
 0.0013304
 0.0013341
 0.0013378
 0.0013416
 0.0013453
 0.0013491
 0.0013528
 0.0013566
 0.0013604
 0.0013642
 0.0013680
 0.0013718
 0.0013757
 0.0013795
 0.0013834
 0.0013872
 0.0013911
 0.0013950
 0.0013989
 0.0014028
 0.0014067
 0.0014106
 0.0014146
 0.0014185
 0.0014225
 0.0014265
 0.0014304
 0.0014344
 0.0014384
 0.0014425
 0.0014465
 0.0014505
 0.0014546
 0.0014586
 0.0014627
 0.0014668
 0.0014709
 0.0014750
 0.0014791
 0.0014833
 0.0014874
 0.0014916
 0.0014957
 0.0014999
 0.0015041
 0.0015083
 0.0015125
 0.0015168
 0.0015210
 0.0015253
 0.0015295
 0.0015338
 0.0015381
 0.0015424
 0.0015467
 0.0015510
 0.0015554
 0.0015597
 0.0015641
 0.0015684
 0.0015728
 0.0015772
 0.0015816
 0.0015861
 0.0015905
 0.0015950
 0.0015994
 0.0016039
 0.0016084
 0.0016129
 0.0016174
 0.0016219
 0.0016265
 0.0016310
 0.0016356
 0.0016402
 0.0016448
 0.0016494
 0.0016540
 0.0016587
 0.0016633
 0.0016680
 0.0016726
 0.0016773
 0.0016820
 0.0016868
 0.0016915
 0.0016962
 0.0017010
 0.0017058
 0.0017105
 0.0017153
 0.0017202
 0.0017250
 0.0017298
 0.0017347
 0.0017396
 0.0017444
 0.0017493
 0.0017543
 0.0017592
 0.0017641
 0.0017691
 0.0017741
 0.0017791
 0.0017841
 0.0017891
 0.0017941
 0.0017991
 0.0018042
 0.0018093
 0.0018144
 0.0018195
 0.0018246
 0.0018297
 0.0018349
 0.0018401
 0.0018452
 0.0018504
 0.0018557
 0.0018609
 0.0018661
 0.0018714
 0.0018767
 0.0018820
 0.0018873
 0.0018926
 0.0018979
 0.0019033
 0.0019087
 0.0019141
 0.0019195
 0.0019249
 0.0019303
 0.0019358
 0.0019412
 0.0019467
 0.0019522
 0.0019577
 0.0019633
 0.0019688
 0.0019744
 0.0019800
 0.0019856
 0.0019912
 0.0019969
 0.0020025
 0.0020082
 0.0020139
 0.0020196
 0.0020253
 0.0020310
 0.0020368
 0.0020426
 0.0020484
 0.0020542
 0.0020600
 0.0020658
 0.0020717
 0.0020776
 0.0020835
 0.0020894
 0.0020954
 0.0021013
 0.0021073
 0.0021133
 0.0021193
 0.0021253
 0.0021314
 0.0021374
 0.0021435
 0.0021496
 0.0021557
 0.0021619
 0.0021680
 0.0021742
 0.0021804
 0.0021866
 0.0021929
 0.0021991
 0.0022054
 0.0022117
 0.0022180
 0.0022243
 0.0022307
 0.0022371
 0.0022434
 0.0022499
 0.0022563
 0.0022627
 0.0022692
 0.0022757
 0.0022822
 0.0022888
 0.0022953
 0.0023019
 0.0023085
 0.0023151
 0.0023217
 0.0023284
 0.0023351
 0.0023418
 0.0023485
 0.0023552
 0.0023620
 0.0023688
 0.0023756
 0.0023824
 0.0023893
 0.0023961
 0.0024030
 0.0024099
 0.0024169
 0.0024238
 0.0024308
 0.0024378
 0.0024448
 0.0024519
 0.0024589
 0.0024660
 0.0024731
 0.0024803
 0.0024874
 0.0024946
 0.0025018
 0.0025091
 0.0025163
 0.0025236
 0.0025309
 0.0025382
 0.0025455
 0.0025529
 0.0025603
 0.0025677
 0.0025752
 0.0025826
 0.0025901
 0.0025976
 0.0026051
 0.0026127
 0.0026203
 0.0026279
 0.0026355
 0.0026432
 0.0026509
 0.0026586
 0.0026663
 0.0026741
 0.0026818
 0.0026897
 0.0026975
 0.0027053
 0.0027132
 0.0027211
 0.0027291
 0.0027370
 0.0027450
 0.0027530
 0.0027611
 0.0027691
 0.0027772
 0.0027853
 0.0027935
 0.0028017
 0.0028099
 0.0028181
 0.0028263
 0.0028346
 0.0028429
 0.0028513
 0.0028596
 0.0028680
 0.0028764
 0.0028849
 0.0028933
 0.0029018
 0.0029104
 0.0029189
 0.0029275
 0.0029361
 0.0029448
 0.0029534
 0.0029621
 0.0029708
 0.0029796
 0.0029884
 0.0029972
 0.0030060
 0.0030149
 0.0030238
 0.0030328
 0.0030417
 0.0030507
 0.0030597
 0.0030688
 0.0030779
 0.0030870
 0.0030961
 0.0031053
 0.0031145
 0.0031237
 0.0031330
 0.0031423
 0.0031516
 0.0031610
 0.0031704
 0.0031798
 0.0031893
 0.0031988
 0.0032083
 0.0032178
 0.0032274
 0.0032370
 0.0032467
 0.0032564
 0.0032661
 0.0032758
 0.0032856
 0.0032954
 0.0033053
 0.0033152
 0.0033251
 0.0033350
 0.0033450
 0.0033550
 0.0033651
 0.0033752
 0.0033853
 0.0033954
 0.0034056
 0.0034158
 0.0034261
 0.0034364
 0.0034467
 0.0034571
 0.0034675
 0.0034779
 0.0034884
 0.0034989
 0.0035095
 0.0035200
 0.0035307
 0.0035413
 0.0035520
 0.0035627
 0.0035735
 0.0035843
 0.0035952
 0.0036060
 0.0036169
 0.0036279
 0.0036389
 0.0036499
 0.0036610
 0.0036721
 0.0036832
 0.0036944
 0.0037057
 0.0037169
 0.0037282
 0.0037396
 0.0037509
 0.0037624
 0.0037738
 0.0037853
 0.0037969
 0.0038085
 0.0038201
 0.0038318
 0.0038435
 0.0038552
 0.0038670
 0.0038788
 0.0038907
 0.0039026
 0.0039146
 0.0039266
 0.0039386
 0.0039507
 0.0039628
 0.0039750
 0.0039872
 0.0039995
 0.0040118
 0.0040241
 0.0040365
 0.0040489
 0.0040614
 0.0040739
 0.0040865
 0.0040991
 0.0041118
 0.0041245
 0.0041372
 0.0041500
 0.0041628
 0.0041757
 0.0041887
 0.0042016
 0.0042147
 0.0042277
 0.0042408
 0.0042540
 0.0042672
 0.0042805
 0.0042938
 0.0043071
 0.0043206
 0.0043340
 0.0043475
 0.0043611
 0.0043747
 0.0043883
 0.0044020
 0.0044158
 0.0044296
 0.0044434
 0.0044573
 0.0044713
 0.0044853
 0.0044993
 0.0045134
 0.0045276
 0.0045418
 0.0045560
 0.0045704
 0.0045847
 0.0045991
 0.0046136
 0.0046281
 0.0046427
 0.0046573
 0.0046720
 0.0046868
 0.0047015
 0.0047164
 0.0047313
 0.0047463
 0.0047613
 0.0047763
 0.0047915
 0.0048066
 0.0048219
 0.0048372
 0.0048525
 0.0048679
 0.0048834
 0.0048989
 0.0049145
 0.0049301
 0.0049458
 0.0049616
 0.0049774
 0.0049933
 0.0050092
 0.0050252
 0.0050412
 0.0050574
 0.0050735
 0.0050898
 0.0051061
 0.0051224
 0.0051388
 0.0051553
 0.0051719
 0.0051885
 0.0052051
 0.0052219
 0.0052386
 0.0052555
 0.0052724
 0.0052894
 0.0053065
 0.0053236
 0.0053407
 0.0053580
 0.0053753
 0.0053927
 0.0054101
 0.0054276
 0.0054452
 0.0054628
 0.0054805
 0.0054983
 0.0055162
 0.0055341
 0.0055521
 0.0055701
 0.0055882
 0.0056064
 0.0056247
 0.0056430
 0.0056614
 0.0056799
 0.0056984
 0.0057170
 0.0057357
 0.0057545
 0.0057733
 0.0057922
 0.0058112
 0.0058302
 0.0058494
 0.0058686
 0.0058878
 0.0059072
 0.0059266
 0.0059461
 0.0059657
 0.0059853
 0.0060050
 0.0060248
 0.0060447
 0.0060647
 0.0060847
 0.0061048
 0.0061250
 0.0061453
 0.0061657
 0.0061861
 0.0062066
 0.0062272
 0.0062479
 0.0062686
 0.0062895
 0.0063104
 0.0063314
 0.0063525
 0.0063736
 0.0063949
 0.0064162
 0.0064376
 0.0064591
 0.0064807
 0.0065024
 0.0065242
 0.0065460
 0.0065679
 0.0065900
 0.0066121
 0.0066343
 0.0066566
 0.0066789
 0.0067014
 0.0067239
 0.0067466
 0.0067693
 0.0067922
 0.0068151
 0.0068381
 0.0068612
 0.0068844
 0.0069077
 0.0069310
 0.0069545
 0.0069781
 0.0070018
 0.0070255
 0.0070494
 0.0070733
 0.0070974
 0.0071215
 0.0071458
 0.0071701
 0.0071945
 0.0072191
 0.0072437
 0.0072685
 0.0072933
 0.0073182
 0.0073433
 0.0073684
 0.0073937
 0.0074190
 0.0074445
 0.0074700
 0.0074957
 0.0075215
 0.0075474
 0.0075733
 0.0075994
 0.0076256
 0.0076519
 0.0076783
 0.0077048
 0.0077315
 0.0077582
 0.0077851
 0.0078120
 0.0078391
 0.0078663
 0.0078935
 0.0079210
 0.0079485
 0.0079761
 0.0080039
 0.0080317
 0.0080597
 0.0080878
 0.0081160
 0.0081443
 0.0081728
 0.0082013
 0.0082300
 0.0082588
 0.0082878
 0.0083168
 0.0083460
 0.0083753
 0.0084047
 0.0084342
 0.0084639
 0.0084936
 0.0085236
 0.0085536
 0.0085838
 0.0086140
 0.0086445
 0.0086750
 0.0087057
 0.0087365
 0.0087674
 0.0087985
 0.0088297
 0.0088610
 0.0088924
 0.0089240
 0.0089558
 0.0089876
 0.0090196
 0.0090517
 0.0090840
 0.0091164
 0.0091490
 0.0091816
 0.0092145
 0.0092474
 0.0092805
 0.0093138
 0.0093472
 0.0093807
 0.0094144
 0.0094482
 0.0094821
 0.0095163
 0.0095505
 0.0095849
 0.0096195
 0.0096542
 0.0096890
 0.0097240
 0.0097592
 0.0097945
 0.0098299
 0.0098655
 0.0099013
 0.0099372
 0.0099733
 0.0100095
 0.0100459
 0.0100824
 0.0101191
 0.0101560
 0.0101930
 0.0102302
 0.0102676
 0.0103051
 0.0103427
 0.0103806
 0.0104186
 0.0104567
 0.0104951
 0.0105336
 0.0105722
 0.0106111
 0.0106501
 0.0106893
 0.0107286
 0.0107682
 0.0108079
 0.0108477
 0.0108878
 0.0109280
 0.0109684
 0.0110090
 0.0110498
 0.0110907
 0.0111319
 0.0111732
 0.0112146
 0.0112563
 0.0112982
 0.0113402
 0.0113825
 0.0114249
 0.0114675
 0.0115103
 0.0115533
 0.0115964
 0.0116398
 0.0116834
 0.0117271
 0.0117711
 0.0118153
 0.0118596
 0.0119042
 0.0119489
 0.0119938
 0.0120390
 0.0120843
 0.0121299
 0.0121757
 0.0122216
 0.0122678
 0.0123142
 0.0123608
 0.0124076
 0.0124546
 0.0125018
 0.0125493
 0.0125969
 0.0126448
 0.0126929
 0.0127412
 0.0127897
 0.0128384
 0.0128874
 0.0129366
 0.0129860
 0.0130356
 0.0130855
 0.0131356
 0.0131859
 0.0132364
 0.0132872
 0.0133382
 0.0133894
 0.0134409
 0.0134926
 0.0135446
 0.0135967
 0.0136492
 0.0137018
 0.0137547
 0.0138079
 0.0138613
 0.0139149
 0.0139688
 0.0140229
 0.0140773
 0.0141319
 0.0141868
 0.0142419
 0.0142973
 0.0143530
 0.0144089
 0.0144650
 0.0145215
 0.0145782
 0.0146351
 0.0146923
 0.0147498
 0.0148075
 0.0148655
 0.0149238
 0.0149824
 0.0150412
 0.0151003
 0.0151597
 0.0152193
 0.0152792
 0.0153394
 0.0153999
 0.0154607
 0.0155217
 0.0155831
 0.0156447
 0.0157066
 0.0157688
 0.0158313
 0.0158941
 0.0159572
 0.0160206
 0.0160843
 0.0161482
 0.0162125
 0.0162771
 0.0163420
 0.0164072
 0.0164727
 0.0165385
 0.0166046
 0.0166710
 0.0167378
 0.0168048
 0.0168722
 0.0169399
 0.0170079
 0.0170762
 0.0171449
 0.0172139
 0.0172832
 0.0173528
 0.0174228
 0.0174931
 0.0175638
 0.0176347
 0.0177060
 0.0177777
 0.0178497
 0.0179220
 0.0179947
 0.0180677
 0.0181411
 0.0182148
 0.0182889
 0.0183634
 0.0184381
 0.0185133
 0.0185888
 0.0186647
 0.0187409
 0.0188175
 0.0188945
 0.0189718
 0.0190495
 0.0191276
 0.0192060
 0.0192849
 0.0193641
 0.0194437
 0.0195236
 0.0196040
 0.0196848
 0.0197659
 0.0198474
 0.0199293
 0.0200117
 0.0200944
 0.0201775
 0.0202610
 0.0203449
 0.0204292
 0.0205140
 0.0205991
 0.0206847
 0.0207706
 0.0208570
 0.0209438
 0.0210310
 0.0211187
 0.0212068
 0.0212953
 0.0213842
 0.0214736
 0.0215634
 0.0216536
 0.0217443
 0.0218354
 0.0219270
 0.0220190
 0.0221114
 0.0222043
 0.0222977
 0.0223915
 0.0224858
 0.0225805
 0.0226757
 0.0227713
 0.0228675
 0.0229641
 0.0230611
 0.0231587
 0.0232567
 0.0233552
 0.0234542
 0.0235536
 0.0236536
 0.0237540
 0.0238550
 0.0239564
 0.0240583
 0.0241608
 0.0242637
 0.0243671
 0.0244711
 0.0245755
 0.0246805
 0.0247860
 0.0248920
 0.0249985
 0.0251056
 0.0252131
 0.0253212
 0.0254299
 0.0255390
 0.0256487
 0.0257590
 0.0258698
 0.0259811
 0.0260930
 0.0262054
 0.0263184
 0.0264320
 0.0265461
 0.0266607
 0.0267760
 0.0268918
 0.0270082
 0.0271251
 0.0272426
 0.0273607
 0.0274794
 0.0275987
 0.0277186
 0.0278390
 0.0279601
 0.0280817
 0.0282040
 0.0283268
 0.0284503
 0.0285744
 0.0286991
 0.0288244
 0.0289503
 0.0290768
 0.0292040
 0.0293318
 0.0294603
 0.0295893
 0.0297190
 0.0298494
 0.0299804
 0.0301120
 0.0302443
 0.0303773
 0.0305109
 0.0306451
 0.0307801
 0.0309157
 0.0310519
 0.0311889
 0.0313265
 0.0314648
 0.0316038
 0.0317435
 0.0318838
 0.0320249
 0.0321666
 0.0323091
 0.0324523
 0.0325961
 0.0327407
 0.0328860
 0.0330320
 0.0331788
 0.0333262
 0.0334744
 0.0336234
 0.0337730
 0.0339234
 0.0340746
 0.0342265
 0.0343791
 0.0345325
 0.0346867
 0.0348416
 0.0349972
 0.0351537
 0.0353109
 0.0354689
 0.0356277
 0.0357872
 0.0359476
 0.0361087
 0.0362706
 0.0364334
 0.0365969
 0.0367612
 0.0369264
 0.0370923
 0.0372591
 0.0374267
 0.0375951
 0.0377643
 0.0379344
 0.0381053
 0.0382771
 0.0384497
 0.0386231
 0.0387974
 0.0389725
 0.0391485
 0.0393254
 0.0395031
 0.0396817
 0.0398612
 0.0400416
 0.0402228
 0.0404049
 0.0405879
 0.0407718
 0.0409566
 0.0411424
 0.0413290
 0.0415165
 0.0417049
 0.0418943
 0.0420845
 0.0422757
 0.0424679
 0.0426609
 0.0428549
 0.0430499
 0.0432457
 0.0434426
 0.0436404
 0.0438391
 0.0440388
 0.0442395
 0.0444411
 0.0446438
 0.0448473
 0.0450519
 0.0452575
 0.0454640
 0.0456716
 0.0458801
 0.0460897
 0.0463002
 0.0465118
 0.0467244
 0.0469380
 0.0471526
 0.0473682
 0.0475849
 0.0478026
 0.0480214
 0.0482412
 0.0484620
 0.0486839
 0.0489069
 0.0491309
 0.0493559
 0.0495821
 0.0498093
 0.0500376
 0.0502670
 0.0504974
 0.0507289
 0.0509616
 0.0511953
 0.0514301
 0.0516661
 0.0519031
 0.0521413
 0.0523805
 0.0526209
 0.0528624
 0.0531051
 0.0533489
 0.0535938
 0.0538398
 0.0540870
 0.0543354
 0.0545849
 0.0548355
 0.0550874
 0.0553403
 0.0555945
 0.0558498
 0.0561063
 0.0563640
 0.0566229
 0.0568829
 0.0571442
 0.0574066
 0.0576703
 0.0579351
 0.0582012
 0.0584684
 0.0587369
 0.0590066
 0.0592775
 0.0595497
 0.0598231
 0.0600977
 0.0603735
 0.0606506
 0.0609289
 0.0612085
 0.0614894
 0.0617715
 0.0620548
 0.0623394
 0.0626253
 0.0629125
 0.0632009
 0.0634906
 0.0637816
 0.0640739
 0.0643675
 0.0646623
 0.0649585
 0.0652559
 0.0655547
 0.0658547
 0.0661561
 0.0664588
 0.0667628
 0.0670681
 0.0673747
 0.0676827
 0.0679920
 0.0683026
 0.0686145
 0.0689278
 0.0692424
 0.0695584
 0.0698757
 0.0701944
 0.0705144
 0.0708358
 0.0711586
 0.0714826
 0.0718081
 0.0721349
 0.0724631
 0.0727927
 0.0731237
 0.0734560
 0.0737897
 0.0741248
 0.0744613
 0.0747991
 0.0751384
 0.0754790
 0.0758211
 0.0761645
 0.0765093
 0.0768556
 0.0772032
 0.0775523
 0.0779028
 0.0782546
 0.0786079
 0.0789626
 0.0793187
 0.0796763
 0.0800353
 0.0803956
 0.0807575
 0.0811207
 0.0814854
 0.0818515
 0.0822190
 0.0825880
 0.0829584
 0.0833302
 0.0837035
 0.0840782
 0.0844544
 0.0848320
 0.0852110
 0.0855915
 0.0859734
 0.0863568
 0.0867417
 0.0871279
 0.0875157
 0.0879049
 0.0882955
 0.0886876
 0.0890812
 0.0894762
 0.0898726
 0.0902705
 0.0906699
 0.0910708
 0.0914730
 0.0918768
 0.0922820
 0.0926887
 0.0930968
 0.0935064
 0.0939174
 0.0943300
 0.0947439
 0.0951594
 0.0955763
 0.0959946
 0.0964144
 0.0968357
 0.0972584
 0.0976826
 0.0981083
 0.0985354
 0.0989640
 0.0993940
 0.0998255
 0.1002584
 0.1006928
 0.1011287
 0.1015660
 0.1020047
 0.1024450
 0.1028866
 0.1033297
 0.1037743
 0.1042203
 0.1046678
 0.1051167
 0.1055670
 0.1060188
 0.1064720
 0.1069267
 0.1073828
 0.1078404
 0.1082993
 0.1087598
 0.1092216
 0.1096849
 0.1101496
 0.1106157
 0.1110832
 0.1115522
 0.1120226
 0.1124944
 0.1129676
 0.1134423
 0.1139183
 0.1143957
 0.1148746
 0.1153548
 0.1158365
 0.1163195
 0.1168040
 0.1172898
 0.1177770
 0.1182656
 0.1187556
 0.1192470
 0.1197397
 0.1202338
 0.1207293
 0.1212262
 0.1217244
 0.1222239
 0.1227249
 0.1232271
 0.1237308
 0.1242357
 0.1247421
 0.1252497
 0.1257587
 0.1262690
 0.1267806
 0.1272936
 0.1278079
 0.1283235
 0.1288404
 0.1293586
 0.1298781
 0.1303989
 0.1309210
 0.1314444
 0.1319690
 0.1324950
 0.1330222
 0.1335507
 0.1340805
 0.1346115
 0.1351438
 0.1356773
 0.1362121
 0.1367481
 0.1372853
 0.1378238
 0.1383635
 0.1389045
 0.1394466
 0.1399900
 0.1405346
 0.1410804
 0.1416273
 0.1421755
 0.1427248
 0.1432754
 0.1438271
 0.1443799
 0.1449340
 0.1454892
 0.1460455
 0.1466030
 0.1471616
 0.1477214
 0.1482823
 0.1488443
 0.1494075
 0.1499717
 0.1505371
 0.1511036
 0.1516711
 0.1522398
 0.1528095
 0.1533803
 0.1539522
 0.1545251
 0.1550992
 0.1556742
 0.1562503
 0.1568275
 0.1574056
 0.1579849
 0.1585651
 0.1591463
 0.1597286
