latest-w-arri/luts/LogC3_EI800_to_Linear.cube
LUT_1D_SIZE 16384
-0.01729049 -0.01729049 -0.01729049
-0.01727911 -0.01727911 -0.01727911
-0.01726774 -0.01726774 -0.01726774
-0.01725637 -0.01725637 -0.01725637
-0.01724500 -0.01724500 -0.01724500
-0.01723363 -0.01723363 -0.01723363
-0.01722226 -0.01722226 -0.01722226
-0.01721088 -0.01721088 -0.01721088
-0.01719951 -0.01719951 -0.01719951
-0.01718814 -0.01718814 -0.01718814
-0.01717677 -0.01717677 -0.01717677
-0.01716540 -0.01716540 -0.01716540
-0.01715403 -0.01715403 -0.01715403
-0.01714265 -0.01714265 -0.01714265
-0.01713128 -0.01713128 -0.01713128
-0.01711991 -0.01711991 -0.01711991
-0.01710854 -0.01710854 -0.01710854
-0.01709717 -0.01709717 -0.01709717
-0.01708580 -0.01708580 -0.01708580
-0.01707442 -0.01707442 -0.01707442
-0.01706305 -0.01706305 -0.01706305
-0.01705168 -0.01705168 -0.01705168
-0.01704031 -0.01704031 -0.01704031
-0.01702894 -0.01702894 -0.01702894
-0.01701757 -0.01701757 -0.01701757
-0.01700620 -0.01700620 -0.01700620
-0.01699482 -0.01699482 -0.01699482
-0.01698345 -0.01698345 -0.01698345
-0.01697208 -0.01697208 -0.01697208
-0.01696071 -0.01696071 -0.01696071
-0.01694934 -0.01694934 -0.01694934
-0.01693797 -0.01693797 -0.01693797
-0.01692659 -0.01692659 -0.01692659
-0.01691522 -0.01691522 -0.01691522
-0.01690385 -0.01690385 -0.01690385
-0.01689248 -0.01689248 -0.01689248
-0.01688111 -0.01688111 -0.01688111
-0.01686974 -0.01686974 -0.01686974
-0.01685836 -0.01685836 -0.01685836
-0.01684699 -0.01684699 -0.01684699
-0.01683562 -0.01683562 -0.01683562
-0.01682425 -0.01682425 -0.01682425
-0.01681288 -0.01681288 -0.01681288
-0.01680151 -0.01680151 -0.01680151
-0.01679013 -0.01679013 -0.01679013
-0.01677876 -0.01677876 -0.01677876
-0.01676739 -0.01676739 -0.01676739
-0.01675602 -0.01675602 -0.01675602
-0.01674465 -0.01674465 -0.01674465
-0.01673328 -0.01673328 -0.01673328
-0.01672190 -0.01672190 -0.01672190
-0.01671053 -0.01671053 -0.01671053
-0.01669916 -0.01669916 -0.01669916
-0.01668779 -0.01668779 -0.01668779
-0.01667642 -0.01667642 -0.01667642
-0.01666505 -0.01666505 -0.01666505
-0.01665368 -0.01665368 -0.01665368
-0.01664230 -0.01664230 -0.01664230
-0.01663093 -0.01663093 -0.01663093
-0.01661956 -0.01661956 -0.01661956
-0.01660819 -0.01660819 -0.01660819
-0.01659682 -0.01659682 -0.01659682
-0.01658545 -0.01658545 -0.01658545
-0.01657407 -0.01657407 -0.01657407
-0.01656270 -0.01656270 -0.01656270
-0.01655133 -0.01655133 -0.01655133
-0.01653996 -0.01653996 -0.01653996
-0.01652859 -0.01652859 -0.01652859
-0.01651722 -0.01651722 -0.01651722
-0.01650584 -0.01650584 -0.01650584
-0.01649447 -0.01649447 -0.01649447
-0.01648310 -0.01648310 -0.01648310
-0.01647173 -0.01647173 -0.01647173
-0.01646036 -0.01646036 -0.01646036
-0.01644899 -0.01644899 -0.01644899
-0.01643761 -0.01643761 -0.01643761
-0.01642624 -0.01642624 -0.01642624
-0.01641487 -0.01641487 -0.01641487
-0.01640350 -0.01640350 -0.01640350
-0.01639213 -0.01639213 -0.01639213
-0.01638076 -0.01638076 -0.01638076
-0.01636938 -0.01636938 -0.01636938
-0.01635801 -0.01635801 -0.01635801
-0.01634664 -0.01634664 -0.01634664
-0.01633527 -0.01633527 -0.01633527
-0.01632390 -0.01632390 -0.01632390
-0.01631253 -0.01631253 -0.01631253
-0.01630116 -0.01630116 -0.01630116
-0.01628978 -0.01628978 -0.01628978
-0.01627841 -0.01627841 -0.01627841
-0.01626704 -0.01626704 -0.01626704
-0.01625567 -0.01625567 -0.01625567
-0.01624430 -0.01624430 -0.01624430
-0.01623293 -0.01623293 -0.01623293
-0.01622155 -0.01622155 -0.01622155
-0.01621018 -0.01621018 -0.01621018
-0.01619881 -0.01619881 -0.01619881
-0.01618744 -0.01618744 -0.01618744
-0.01617607 -0.01617607 -0.01617607
-0.01616470 -0.01616470 -0.01616470
-0.01615332 -0.01615332 -0.01615332
-0.01614195 -0.01614195 -0.01614195
-0.01613058 -0.01613058 -0.01613058
-0.01611921 -0.01611921 -0.01611921
-0.01610784 -0.01610784 -0.01610784
-0.01609647 -0.01609647 -0.01609647
-0.01608509 -0.01608509 -0.01608509
-0.01607372 -0.01607372 -0.01607372
-0.01606235 -0.01606235 -0.01606235
-0.01605098 -0.01605098 -0.01605098
-0.01603961 -0.01603961 -0.01603961
-0.01602824 -0.01602824 -0.01602824
-0.01601687 -0.01601687 -0.01601687
-0.01600549 -0.01600549 -0.01600549
-0.01599412 -0.01599412 -0.01599412
-0.01598275 -0.01598275 -0.01598275
-0.01597138 -0.01597138 -0.01597138
-0.01596001 -0.01596001 -0.01596001
-0.01594864 -0.01594864 -0.01594864
-0.01593726 -0.01593726 -0.01593726
-0.01592589 -0.01592589 -0.01592589
-0.01591452 -0.01591452 -0.01591452
-0.01590315 -0.01590315 -0.01590315
-0.01589178 -0.01589178 -0.01589178
-0.01588041 -0.01588041 -0.01588041
-0.01586903 -0.01586903 -0.01586903
-0.01585766 -0.01585766 -0.01585766
-0.01584629 -0.01584629 -0.01584629
-0.01583492 -0.01583492 -0.01583492
-0.01582355 -0.01582355 -0.01582355
-0.01581218 -0.01581218 -0.01581218
-0.01580080 -0.01580080 -0.01580080
-0.01578943 -0.01578943 -0.01578943
-0.01577806 -0.01577806 -0.01577806
-0.01576669 -0.01576669 -0.01576669
-0.01575532 -0.01575532 -0.01575532
-0.01574395 -0.01574395 -0.01574395
-0.01573257 -0.01573257 -0.01573257
-0.01572120 -0.01572120 -0.01572120
-0.01570983 -0.01570983 -0.01570983
-0.01569846 -0.01569846 -0.01569846
-0.01568709 -0.01568709 -0.01568709
-0.01567572 -0.01567572 -0.01567572
-0.01566435 -0.01566435 -0.01566435
-0.01565297 -0.01565297 -0.01565297
-0.01564160 -0.01564160 -0.01564160
-0.01563023 -0.01563023 -0.01563023
-0.01561886 -0.01561886 -0.01561886
-0.01560749 -0.01560749 -0.01560749
-0.01559612 -0.01559612 -0.01559612
-0.01558474 -0.01558474 -0.01558474
-0.01557337 -0.01557337 -0.01557337
-0.01556200 -0.01556200 -0.01556200
-0.01555063 -0.01555063 -0.01555063
-0.01553926 -0.01553926 -0.01553926
-0.01552789 -0.01552789 -0.01552789
-0.01551651 -0.01551651 -0.01551651
-0.01550514 -0.01550514 -0.01550514
-0.01549377 -0.01549377 -0.01549377
-0.01548240 -0.01548240 -0.01548240
-0.01547103 -0.01547103 -0.01547103
-0.01545966 -0.01545966 -0.01545966
-0.01544828 -0.01544828 -0.01544828
-0.01543691 -0.01543691 -0.01543691
-0.01542554 -0.01542554 -0.01542554
-0.01541417 -0.01541417 -0.01541417
-0.01540280 -0.01540280 -0.01540280
-0.01539143 -0.01539143 -0.01539143
-0.01538005 -0.01538005 -0.01538005
-0.01536868 -0.01536868 -0.01536868
-0.01535731 -0.01535731 -0.01535731
-0.01534594 -0.01534594 -0.01534594
-0.01533457 -0.01533457 -0.01533457
-0.01532320 -0.01532320 -0.01532320
-0.01531183 -0.01531183 -0.01531183
-0.01530045 -0.01530045 -0.01530045
-0.01528908 -0.01528908 -0.01528908
-0.01527771 -0.01527771 -0.01527771
-0.01526634 -0.01526634 -0.01526634
-0.01525497 -0.01525497 -0.01525497
-0.01524360 -0.01524360 -0.01524360
-0.01523222 -0.01523222 -0.01523222
-0.01522085 -0.01522085 -0.01522085
-0.01520948 -0.01520948 -0.01520948
-0.01519811 -0.01519811 -0.01519811
-0.01518674 -0.01518674 -0.01518674
-0.01517537 -0.01517537 -0.01517537
-0.01516399 -0.01516399 -0.01516399
-0.01515262 -0.01515262 -0.01515262
-0.01514125 -0.01514125 -0.01514125
-0.01512988 -0.01512988 -0.01512988
-0.01511851 -0.01511851 -0.01511851
-0.01510714 -0.01510714 -0.01510714
-0.01509576 -0.01509576 -0.01509576
-0.01508439 -0.01508439 -0.01508439
-0.01507302 -0.01507302 -0.01507302
-0.01506165 -0.01506165 -0.01506165
-0.01505028 -0.01505028 -0.01505028
-0.01503891 -0.01503891 -0.01503891
-0.01502753 -0.01502753 -0.01502753
-0.01501616 -0.01501616 -0.01501616
-0.01500479 -0.01500479 -0.01500479
-0.01499342 -0.01499342 -0.01499342
-0.01498205 -0.01498205 -0.01498205
-0.01497068 -0.01497068 -0.01497068
-0.01495931 -0.01495931 -0.01495931
-0.01494793 -0.01494793 -0.01494793
-0.01493656 -0.01493656 -0.01493656
-0.01492519 -0.01492519 -0.01492519
-0.01491382 -0.01491382 -0.01491382
-0.01490245 -0.01490245 -0.01490245
-0.01489108 -0.01489108 -0.01489108
-0.01487970 -0.01487970 -0.01487970
-0.01486833 -0.01486833 -0.01486833
-0.01485696 -0.01485696 -0.01485696
-0.01484559 -0.01484559 -0.01484559
-0.01483422 -0.01483422 -0.01483422
-0.01482285 -0.01482285 -0.01482285
-0.01481147 -0.01481147 -0.01481147
-0.01480010 -0.01480010 -0.01480010
-0.01478873 -0.01478873 -0.01478873
-0.01477736 -0.01477736 -0.01477736
-0.01476599 -0.01476599 -0.01476599
-0.01475462 -0.01475462 -0.01475462
-0.01474324 -0.01474324 -0.01474324
-0.01473187 -0.01473187 -0.01473187
-0.01472050 -0.01472050 -0.01472050
-0.01470913 -0.01470913 -0.01470913
-0.01469776 -0.01469776 -0.01469776
-0.01468639 -0.01468639 -0.01468639
-0.01467501 -0.01467501 -0.01467501
-0.01466364 -0.01466364 -0.01466364
-0.01465227 -0.01465227 -0.01465227
-0.01464090 -0.01464090 -0.01464090
-0.01462953 -0.01462953 -0.01462953
-0.01461816 -0.01461816 -0.01461816
-0.01460679 -0.01460679 -0.01460679
-0.01459541 -0.01459541 -0.01459541
-0.01458404 -0.01458404 -0.01458404
-0.01457267 -0.01457267 -0.01457267
-0.01456130 -0.01456130 -0.01456130
-0.01454993 -0.01454993 -0.01454993
-0.01453856 -0.01453856 -0.01453856
-0.01452718 -0.01452718 -0.01452718
-0.01451581 -0.01451581 -0.01451581
-0.01450444 -0.01450444 -0.01450444
-0.01449307 -0.01449307 -0.01449307
-0.01448170 -0.01448170 -0.01448170
-0.01447033 -0.01447033 -0.01447033
-0.01445895 -0.01445895 -0.01445895
-0.01444758 -0.01444758 -0.01444758
-0.01443621 -0.01443621 -0.01443621
-0.01442484 -0.01442484 -0.01442484
-0.01441347 -0.01441347 -0.01441347
-0.01440210 -0.01440210 -0.01440210
-0.01439072 -0.01439072 -0.01439072
-0.01437935 -0.01437935 -0.01437935
-0.01436798 -0.01436798 -0.01436798
-0.01435661 -0.01435661 -0.01435661
-0.01434524 -0.01434524 -0.01434524
-0.01433387 -0.01433387 -0.01433387
-0.01432249 -0.01432249 -0.01432249
-0.01431112 -0.01431112 -0.01431112
-0.01429975 -0.01429975 -0.01429975
-0.01428838 -0.01428838 -0.01428838
-0.01427701 -0.01427701 -0.01427701
-0.01426564 -0.01426564 -0.01426564
-0.01425427 -0.01425427 -0.01425427
-0.01424289 -0.01424289 -0.01424289
-0.01423152 -0.01423152 -0.01423152
-0.01422015 -0.01422015 -0.01422015
-0.01420878 -0.01420878 -0.01420878
-0.01419741 -0.01419741 -0.01419741
-0.01418604 -0.01418604 -0.01418604
-0.01417466 -0.01417466 -0.01417466
-0.01416329 -0.01416329 -0.01416329
-0.01415192 -0.01415192 -0.01415192
-0.01414055 -0.01414055 -0.01414055
-0.01412918 -0.01412918 -0.01412918
-0.01411781 -0.01411781 -0.01411781
-0.01410643 -0.01410643 -0.01410643
-0.01409506 -0.01409506 -0.01409506
-0.01408369 -0.01408369 -0.01408369
-0.01407232 -0.01407232 -0.01407232
-0.01406095 -0.01406095 -0.01406095
-0.01404958 -0.01404958 -0.01404958
-0.01403820 -0.01403820 -0.01403820
-0.01402683 -0.01402683 -0.01402683
-0.01401546 -0.01401546 -0.01401546
-0.01400409 -0.01400409 -0.01400409
-0.01399272 -0.01399272 -0.01399272
-0.01398135 -0.01398135 -0.01398135
-0.01396998 -0.01396998 -0.01396998
-0.01395860 -0.01395860 -0.01395860
-0.01394723 -0.01394723 -0.01394723
-0.01393586 -0.01393586 -0.01393586
-0.01392449 -0.01392449 -0.01392449
-0.01391312 -0.01391312 -0.01391312
-0.01390175 -0.01390175 -0.01390175
-0.01389037 -0.01389037 -0.01389037
-0.01387900 -0.01387900 -0.01387900
-0.01386763 -0.01386763 -0.01386763
-0.01385626 -0.01385626 -0.01385626
-0.01384489 -0.01384489 -0.01384489
-0.01383352 -0.01383352 -0.01383352
-0.01382214 -0.01382214 -0.01382214
-0.01381077 -0.01381077 -0.01381077
-0.01379940 -0.01379940 -0.01379940
-0.01378803 -0.01378803 -0.01378803
-0.01377666 -0.01377666 -0.01377666
-0.01376529 -0.01376529 -0.01376529
-0.01375391 -0.01375391 -0.01375391
-0.01374254 -0.01374254 -0.01374254
-0.01373117 -0.01373117 -0.01373117
-0.01371980 -0.01371980 -0.01371980
-0.01370843 -0.01370843 -0.01370843
-0.01369706 -0.01369706 -0.01369706
-0.01368568 -0.01368568 -0.01368568
-0.01367431 -0.01367431 -0.01367431
-0.01366294 -0.01366294 -0.01366294
-0.01365157 -0.01365157 -0.01365157
-0.01364020 -0.01364020 -0.01364020
-0.01362883 -0.01362883 -0.01362883
-0.01361746 -0.01361746 -0.01361746
-0.01360608 -0.01360608 -0.01360608
-0.01359471 -0.01359471 -0.01359471
-0.01358334 -0.01358334 -0.01358334
-0.01357197 -0.01357197 -0.01357197
-0.01356060 -0.01356060 -0.01356060
-0.01354923 -0.01354923 -0.01354923
-0.01353785 -0.01353785 -0.01353785
-0.01352648 -0.01352648 -0.01352648
-0.01351511 -0.01351511 -0.01351511
-0.01350374 -0.01350374 -0.01350374
-0.01349237 -0.01349237 -0.01349237
-0.01348100 -0.01348100 -0.01348100
-0.01346962 -0.01346962 -0.01346962
-0.01345825 -0.01345825 -0.01345825
-0.01344688 -0.01344688 -0.01344688
-0.01343551 -0.01343551 -0.01343551
-0.01342414 -0.01342414 -0.01342414
-0.01341277 -0.01341277 -0.01341277
-0.01340139 -0.01340139 -0.01340139
-0.01339002 -0.01339002 -0.01339002
-0.01337865 -0.01337865 -0.01337865
-0.01336728 -0.01336728 -0.01336728
-0.01335591 -0.01335591 -0.01335591
-0.01334454 -0.01334454 -0.01334454
-0.01333316 -0.01333316 -0.01333316
-0.01332179 -0.01332179 -0.01332179
-0.01331042 -0.01331042 -0.01331042
-0.01329905 -0.01329905 -0.01329905
-0.01328768 -0.01328768 -0.01328768
-0.01327631 -0.01327631 -0.01327631
-0.01326494 -0.01326494 -0.01326494
-0.01325356 -0.01325356 -0.01325356
-0.01324219 -0.01324219 -0.01324219
-0.01323082 -0.01323082 -0.01323082
-0.01321945 -0.01321945 -0.01321945
-0.01320808 -0.01320808 -0.01320808
-0.01319671 -0.01319671 -0.01319671
-0.01318533 -0.01318533 -0.01318533
-0.01317396 -0.01317396 -0.01317396
-0.01316259 -0.01316259 -0.01316259
-0.01315122 -0.01315122 -0.01315122
-0.01313985 -0.01313985 -0.01313985
-0.01312848 -0.01312848 -0.01312848
-0.01311710 -0.01311710 -0.01311710
-0.01310573 -0.01310573 -0.01310573
-0.01309436 -0.01309436 -0.01309436
-0.01308299 -0.01308299 -0.01308299
-0.01307162 -0.01307162 -0.01307162
-0.01306025 -0.01306025 -0.01306025
-0.01304887 -0.01304887 -0.01304887
-0.01303750 -0.01303750 -0.01303750
-0.01302613 -0.01302613 -0.01302613
-0.01301476 -0.01301476 -0.01301476
-0.01300339 -0.01300339 -0.01300339
-0.01299202 -0.01299202 -0.01299202
-0.01298064 -0.01298064 -0.01298064
-0.01296927 -0.01296927 -0.01296927
-0.01295790 -0.01295790 -0.01295790
-0.01294653 -0.01294653 -0.01294653
-0.01293516 -0.01293516 -0.01293516
-0.01292379 -0.01292379 -0.01292379
-0.01291242 -0.01291242 -0.01291242
-0.01290104 -0.01290104 -0.01290104
-0.01288967 -0.01288967 -0.01288967
-0.01287830 -0.01287830 -0.01287830
-0.01286693 -0.01286693 -0.01286693
-0.01285556 -0.01285556 -0.01285556
-0.01284419 -0.01284419 -0.01284419
-0.01283281 -0.01283281 -0.01283281
-0.01282144 -0.01282144 -0.01282144
-0.01281007 -0.01281007 -0.01281007
-0.01279870 -0.01279870 -0.01279870
-0.01278733 -0.01278733 -0.01278733
-0.01277596 -0.01277596 -0.01277596
-0.01276458 -0.01276458 -0.01276458
-0.01275321 -0.01275321 -0.01275321
-0.01274184 -0.01274184 -0.01274184
-0.01273047 -0.01273047 -0.01273047
-0.01271910 -0.01271910 -0.01271910
-0.01270773 -0.01270773 -0.01270773
-0.01269635 -0.01269635 -0.01269635
-0.01268498 -0.01268498 -0.01268498
-0.01267361 -0.01267361 -0.01267361
-0.01266224 -0.01266224 -0.01266224
-0.01265087 -0.01265087 -0.01265087
-0.01263950 -0.01263950 -0.01263950
-0.01262812 -0.01262812 -0.01262812
-0.01261675 -0.01261675 -0.01261675
-0.01260538 -0.01260538 -0.01260538
-0.01259401 -0.01259401 -0.01259401
-0.01258264 -0.01258264 -0.01258264
-0.01257127 -0.01257127 -0.01257127
-0.01255990 -0.01255990 -0.01255990
-0.01254852 -0.01254852 -0.01254852
-0.01253715 -0.01253715 -0.01253715
-0.01252578 -0.01252578 -0.01252578
-0.01251441 -0.01251441 -0.01251441
-0.01250304 -0.01250304 -0.01250304
-0.01249167 -0.01249167 -0.01249167
-0.01248029 -0.01248029 -0.01248029
-0.01246892 -0.01246892 -0.01246892
-0.01245755 -0.01245755 -0.01245755
-0.01244618 -0.01244618 -0.01244618
-0.01243481 -0.01243481 -0.01243481
-0.01242344 -0.01242344 -0.01242344
-0.01241206 -0.01241206 -0.01241206
-0.01240069 -0.01240069 -0.01240069
-0.01238932 -0.01238932 -0.01238932
-0.01237795 -0.01237795 -0.01237795
-0.01236658 -0.01236658 -0.01236658
-0.01235521 -0.01235521 -0.01235521
-0.01234383 -0.01234383 -0.01234383
-0.01233246 -0.01233246 -0.01233246
-0.01232109 -0.01232109 -0.01232109
-0.01230972 -0.01230972 -0.01230972
-0.01229835 -0.01229835 -0.01229835
-0.01228698 -0.01228698 -0.01228698
-0.01227561 -0.01227561 -0.01227561
-0.01226423 -0.01226423 -0.01226423
-0.01225286 -0.01225286 -0.01225286
-0.01224149 -0.01224149 -0.01224149
-0.01223012 -0.01223012 -0.01223012
-0.01221875 -0.01221875 -0.01221875
-0.01220738 -0.01220738 -0.01220738
-0.01219600 -0.01219600 -0.01219600
-0.01218463 -0.01218463 -0.01218463
-0.01217326 -0.01217326 -0.01217326
-0.01216189 -0.01216189 -0.01216189
-0.01215052 -0.01215052 -0.01215052
-0.01213915 -0.01213915 -0.01213915
-0.01212777 -0.01212777 -0.01212777
-0.01211640 -0.01211640 -0.01211640
-0.01210503 -0.01210503 -0.01210503
-0.01209366 -0.01209366 -0.01209366
-0.01208229 -0.01208229 -0.01208229
-0.01207092 -0.01207092 -0.01207092
-0.01205954 -0.01205954 -0.01205954
-0.01204817 -0.01204817 -0.01204817
-0.01203680 -0.01203680 -0.01203680
-0.01202543 -0.01202543 -0.01202543
-0.01201406 -0.01201406 -0.01201406
-0.01200269 -0.01200269 -0.01200269
-0.01199131 -0.01199131 -0.01199131
-0.01197994 -0.01197994 -0.01197994
-0.01196857 -0.01196857 -0.01196857
-0.01195720 -0.01195720 -0.01195720
-0.01194583 -0.01194583 -0.01194583
-0.01193446 -0.01193446 -0.01193446
-0.01192309 -0.01192309 -0.01192309
-0.01191171 -0.01191171 -0.01191171
-0.01190034 -0.01190034 -0.01190034
-0.01188897 -0.01188897 -0.01188897
-0.01187760 -0.01187760 -0.01187760
-0.01186623 -0.01186623 -0.01186623
-0.01185486 -0.01185486 -0.01185486
-0.01184348 -0.01184348 -0.01184348
-0.01183211 -0.01183211 -0.01183211
-0.01182074 -0.01182074 -0.01182074
-0.01180937 -0.01180937 -0.01180937
-0.01179800 -0.01179800 -0.01179800
-0.01178663 -0.01178663 -0.01178663
-0.01177525 -0.01177525 -0.01177525
-0.01176388 -0.01176388 -0.01176388
-0.01175251 -0.01175251 -0.01175251
-0.01174114 -0.01174114 -0.01174114
-0.01172977 -0.01172977 -0.01172977
-0.01171840 -0.01171840 -0.01171840
-0.01170702 -0.01170702 -0.01170702
-0.01169565 -0.01169565 -0.01169565
-0.01168428 -0.01168428 -0.01168428
-0.01167291 -0.01167291 -0.01167291
-0.01166154 -0.01166154 -0.01166154
-0.01165017 -0.01165017 -0.01165017
-0.01163879 -0.01163879 -0.01163879
-0.01162742 -0.01162742 -0.01162742
-0.01161605 -0.01161605 -0.01161605
-0.01160468 -0.01160468 -0.01160468
-0.01159331 -0.01159331 -0.01159331
-0.01158194 -0.01158194 -0.01158194
-0.01157057 -0.01157057 -0.01157057
-0.01155919 -0.01155919 -0.01155919
-0.01154782 -0.01154782 -0.01154782
-0.01153645 -0.01153645 -0.01153645
-0.01152508 -0.01152508 -0.01152508
-0.01151371 -0.01151371 -0.01151371
-0.01150234 -0.01150234 -0.01150234
-0.01149096 -0.01149096 -0.01149096
-0.01147959 -0.01147959 -0.01147959
-0.01146822 -0.01146822 -0.01146822
-0.01145685 -0.01145685 -0.01145685
-0.01144548 -0.01144548 -0.01144548
-0.01143411 -0.01143411 -0.01143411
-0.01142273 -0.01142273 -0.01142273
-0.01141136 -0.01141136 -0.01141136
-0.01139999 -0.01139999 -0.01139999
-0.01138862 -0.01138862 -0.01138862
-0.01137725 -0.01137725 -0.01137725
-0.01136588 -0.01136588 -0.01136588
-0.01135450 -0.01135450 -0.01135450
-0.01134313 -0.01134313 -0.01134313
-0.01133176 -0.01133176 -0.01133176
-0.01132039 -0.01132039 -0.01132039
-0.01130902 -0.01130902 -0.01130902
-0.01129765 -0.01129765 -0.01129765
-0.01128627 -0.01128627 -0.01128627
-0.01127490 -0.01127490 -0.01127490
-0.01126353 -0.01126353 -0.01126353
-0.01125216 -0.01125216 -0.01125216
-0.01124079 -0.01124079 -0.01124079
-0.01122942 -0.01122942 -0.01122942
-0.01121805 -0.01121805 -0.01121805
-0.01120667 -0.01120667 -0.01120667
-0.01119530 -0.01119530 -0.01119530
-0.01118393 -0.01118393 -0.01118393
-0.01117256 -0.01117256 -0.01117256
-0.01116119 -0.01116119 -0.01116119
-0.01114982 -0.01114982 -0.01114982
-0.01113844 -0.01113844 -0.01113844
-0.01112707 -0.01112707 -0.01112707
-0.01111570 -0.01111570 -0.01111570
-0.01110433 -0.01110433 -0.01110433
-0.01109296 -0.01109296 -0.01109296
-0.01108159 -0.01108159 -0.01108159
-0.01107021 -0.01107021 -0.01107021
-0.01105884 -0.01105884 -0.01105884
-0.01104747 -0.01104747 -0.01104747
-0.01103610 -0.01103610 -0.01103610
-0.01102473 -0.01102473 -0.01102473
-0.01101336 -0.01101336 -0.01101336
-0.01100198 -0.01100198 -0.01100198
-0.01099061 -0.01099061 -0.01099061
-0.01097924 -0.01097924 -0.01097924
-0.01096787 -0.01096787 -0.01096787
-0.01095650 -0.01095650 -0.01095650
-0.01094513 -0.01094513 -0.01094513
-0.01093375 -0.01093375 -0.01093375
-0.01092238 -0.01092238 -0.01092238
-0.01091101 -0.01091101 -0.01091101
-0.01089964 -0.01089964 -0.01089964
-0.01088827 -0.01088827 -0.01088827
-0.01087690 -0.01087690 -0.01087690
-0.01086553 -0.01086553 -0.01086553
-0.01085415 -0.01085415 -0.01085415
-0.01084278 -0.01084278 -0.01084278
-0.01083141 -0.01083141 -0.01083141
-0.01082004 -0.01082004 -0.01082004
-0.01080867 -0.01080867 -0.01080867
-0.01079730 -0.01079730 -0.01079730
-0.01078592 -0.01078592 -0.01078592
-0.01077455 -0.01077455 -0.01077455
-0.01076318 -0.01076318 -0.01076318
-0.01075181 -0.01075181 -0.01075181
-0.01074044 -0.01074044 -0.01074044
-0.01072907 -0.01072907 -0.01072907
-0.01071769 -0.01071769 -0.01071769
-0.01070632 -0.01070632 -0.01070632
-0.01069495 -0.01069495 -0.01069495
-0.01068358 -0.01068358 -0.01068358
-0.01067221 -0.01067221 -0.01067221
-0.01066084 -0.01066084 -0.01066084
-0.01064946 -0.01064946 -0.01064946
-0.01063809 -0.01063809 -0.01063809
-0.01062672 -0.01062672 -0.01062672
-0.01061535 -0.01061535 -0.01061535
-0.01060398 -0.01060398 -0.01060398
-0.01059261 -0.01059261 -0.01059261
-0.01058123 -0.01058123 -0.01058123
-0.01056986 -0.01056986 -0.01056986
-0.01055849 -0.01055849 -0.01055849
-0.01054712 -0.01054712 -0.01054712
-0.01053575 -0.01053575 -0.01053575
-0.01052438 -0.01052438 -0.01052438
-0.01051301 -0.01051301 -0.01051301
-0.01050163 -0.01050163 -0.01050163
-0.01049026 -0.01049026 -0.01049026
-0.01047889 -0.01047889 -0.01047889
-0.01046752 -0.01046752 -0.01046752
-0.01045615 -0.01045615 -0.01045615
-0.01044478 -0.01044478 -0.01044478
-0.01043340 -0.01043340 -0.01043340
-0.01042203 -0.01042203 -0.01042203
-0.01041066 -0.01041066 -0.01041066
-0.01039929 -0.01039929 -0.01039929
-0.01038792 -0.01038792 -0.01038792
-0.01037655 -0.01037655 -0.01037655
-0.01036517 -0.01036517 -0.01036517
-0.01035380 -0.01035380 -0.01035380
-0.01034243 -0.01034243 -0.01034243
-0.01033106 -0.01033106 -0.01033106
-0.01031969 -0.01031969 -0.01031969
-0.01030832 -0.01030832 -0.01030832
-0.01029694 -0.01029694 -0.01029694
-0.01028557 -0.01028557 -0.01028557
-0.01027420 -0.01027420 -0.01027420
-0.01026283 -0.01026283 -0.01026283
-0.01025146 -0.01025146 -0.01025146
-0.01024009 -0.01024009 -0.01024009
-0.01022872 -0.01022872 -0.01022872
-0.01021734 -0.01021734 -0.01021734
-0.01020597 -0.01020597 -0.01020597
-0.01019460 -0.01019460 -0.01019460
-0.01018323 -0.01018323 -0.01018323
-0.01017186 -0.01017186 -0.01017186
-0.01016049 -0.01016049 -0.01016049
-0.01014911 -0.01014911 -0.01014911
-0.01013774 -0.01013774 -0.01013774
-0.01012637 -0.01012637 -0.01012637
-0.01011500 -0.01011500 -0.01011500
-0.01010363 -0.01010363 -0.01010363
-0.01009226 -0.01009226 -0.01009226
-0.01008088 -0.01008088 -0.01008088
-0.01006951 -0.01006951 -0.01006951
-0.01005814 -0.01005814 -0.01005814
-0.01004677 -0.01004677 -0.01004677
-0.01003540 -0.01003540 -0.01003540
-0.01002403 -0.01002403 -0.01002403
-0.01001265 -0.01001265 -0.01001265
-0.01000128 -0.01000128 -0.01000128
-0.00998991 -0.00998991 -0.00998991
-0.00997854 -0.00997854 -0.00997854
-0.00996717 -0.00996717 -0.00996717
-0.00995580 -0.00995580 -0.00995580
-0.00994442 -0.00994442 -0.00994442
-0.00993305 -0.00993305 -0.00993305
-0.00992168 -0.00992168 -0.00992168
-0.00991031 -0.00991031 -0.00991031
-0.00989894 -0.00989894 -0.00989894
-0.00988757 -0.00988757 -0.00988757
-0.00987620 -0.00987620 -0.00987620
-0.00986482 -0.00986482 -0.00986482
-0.00985345 -0.00985345 -0.00985345
-0.00984208 -0.00984208 -0.00984208
-0.00983071 -0.00983071 -0.00983071
-0.00981934 -0.00981934 -0.00981934
-0.00980797 -0.00980797 -0.00980797
-0.00979659 -0.00979659 -0.00979659
-0.00978522 -0.00978522 -0.00978522
-0.00977385 -0.00977385 -0.00977385
-0.00976248 -0.00976248 -0.00976248
-0.00975111 -0.00975111 -0.00975111
-0.00973974 -0.00973974 -0.00973974
-0.00972836 -0.00972836 -0.00972836
