latest-w-arri/luts/LogC4_to_Linear.cube
LUT_1D_SIZE 16384
-0.01805700 -0.01805700 -0.01805700
-0.01805006 -0.01805006 -0.01805006
-0.01804312 -0.01804312 -0.01804312
-0.01803617 -0.01803617 -0.01803617
-0.01802922 -0.01802922 -0.01802922
-0.01802227 -0.01802227 -0.01802227
-0.01801531 -0.01801531 -0.01801531
-0.01800835 -0.01800835 -0.01800835
-0.01800138 -0.01800138 -0.01800138
-0.01799441 -0.01799441 -0.01799441
-0.01798743 -0.01798743 -0.01798743
-0.01798045 -0.01798045 -0.01798045
-0.01797346 -0.01797346 -0.01797346
-0.01796647 -0.01796647 -0.01796647
-0.01795948 -0.01795948 -0.01795948
-0.01795248 -0.01795248 -0.01795248
-0.01794547 -0.01794547 -0.01794547
-0.01793846 -0.01793846 -0.01793846
-0.01793145 -0.01793145 -0.01793145
-0.01792443 -0.01792443 -0.01792443
-0.01791741 -0.01791741 -0.01791741
-0.01791038 -0.01791038 -0.01791038
-0.01790335 -0.01790335 -0.01790335
-0.01789631 -0.01789631 -0.01789631
-0.01788927 -0.01788927 -0.01788927
-0.01788223 -0.01788223 -0.01788223
-0.01787518 -0.01787518 -0.01787518
-0.01786812 -0.01786812 -0.01786812
-0.01786106 -0.01786106 -0.01786106
-0.01785400 -0.01785400 -0.01785400
-0.01784693 -0.01784693 -0.01784693
-0.01783986 -0.01783986 -0.01783986
-0.01783278 -0.01783278 -0.01783278
-0.01782570 -0.01782570 -0.01782570
-0.01781861 -0.01781861 -0.01781861
-0.01781152 -0.01781152 -0.01781152
-0.01780442 -0.01780442 -0.01780442
-0.01779732 -0.01779732 -0.01779732
-0.01779021 -0.01779021 -0.01779021
-0.01778310 -0.01778310 -0.01778310
-0.01777599 -0.01777599 -0.01777599
-0.01776887 -0.01776887 -0.01776887
-0.01776174 -0.01776174 -0.01776174
-0.01775462 -0.01775462 -0.01775462
-0.01774748 -0.01774748 -0.01774748
-0.01774034 -0.01774034 -0.01774034
-0.01773320 -0.01773320 -0.01773320
-0.01772605 -0.01772605 -0.01772605
-0.01771890 -0.01771890 -0.01771890
-0.01771174 -0.01771174 -0.01771174
-0.01770458 -0.01770458 -0.01770458
-0.01769742 -0.01769742 -0.01769742
-0.01769024 -0.01769024 -0.01769024
-0.01768307 -0.01768307 -0.01768307
-0.01767589 -0.01767589 -0.01767589
-0.01766870 -0.01766870 -0.01766870
-0.01766151 -0.01766151 -0.01766151
-0.01765432 -0.01765432 -0.01765432
-0.01764712 -0.01764712 -0.01764712
-0.01763992 -0.01763992 -0.01763992
-0.01763271 -0.01763271 -0.01763271
-0.01762550 -0.01762550 -0.01762550
-0.01761828 -0.01761828 -0.01761828
-0.01761105 -0.01761105 -0.01761105
-0.01760383 -0.01760383 -0.01760383
-0.01759659 -0.01759659 -0.01759659
-0.01758936 -0.01758936 -0.01758936
-0.01758212 -0.01758212 -0.01758212
-0.01757487 -0.01757487 -0.01757487
-0.01756762 -0.01756762 -0.01756762
-0.01756036 -0.01756036 -0.01756036
-0.01755310 -0.01755310 -0.01755310
-0.01754584 -0.01754584 -0.01754584
-0.01753857 -0.01753857 -0.01753857
-0.01753129 -0.01753129 -0.01753129
-0.01752401 -0.01752401 -0.01752401
-0.01751673 -0.01751673 -0.01751673
-0.01750944 -0.01750944 -0.01750944
-0.01750215 -0.01750215 -0.01750215
-0.01749485 -0.01749485 -0.01749485
-0.01748754 -0.01748754 -0.01748754
-0.01748024 -0.01748024 -0.01748024
-0.01747292 -0.01747292 -0.01747292
-0.01746561 -0.01746561 -0.01746561
-0.01745828 -0.01745828 -0.01745828
-0.01745096 -0.01745096 -0.01745096
-0.01744362 -0.01744362 -0.01744362
-0.01743629 -0.01743629 -0.01743629
-0.01742895 -0.01742895 -0.01742895
-0.01742160 -0.01742160 -0.01742160
-0.01741425 -0.01741425 -0.01741425
-0.01740689 -0.01740689 -0.01740689
-0.01739953 -0.01739953 -0.01739953
-0.01739217 -0.01739217 -0.01739217
-0.01738480 -0.01738480 -0.01738480
-0.01737742 -0.01737742 -0.01737742
-0.01737004 -0.01737004 -0.01737004
-0.01736266 -0.01736266 -0.01736266
-0.01735527 -0.01735527 -0.01735527
-0.01734787 -0.01734787 -0.01734787
-0.01734047 -0.01734047 -0.01734047
-0.01733307 -0.01733307 -0.01733307
-0.01732566 -0.01732566 -0.01732566
-0.01731825 -0.01731825 -0.01731825
-0.01731083 -0.01731083 -0.01731083
-0.01730340 -0.01730340 -0.01730340
-0.01729598 -0.01729598 -0.01729598
-0.01728854 -0.01728854 -0.01728854
-0.01728110 -0.01728110 -0.01728110
-0.01727366 -0.01727366 -0.01727366
-0.01726621 -0.01726621 -0.01726621
-0.01725876 -0.01725876 -0.01725876
-0.01725130 -0.01725130 -0.01725130
-0.01724384 -0.01724384 -0.01724384
-0.01723637 -0.01723637 -0.01723637
-0.01722890 -0.01722890 -0.01722890
-0.01722142 -0.01722142 -0.01722142
-0.01721394 -0.01721394 -0.01721394
-0.01720646 -0.01720646 -0.01720646
-0.01719896 -0.01719896 -0.01719896
-0.01719147 -0.01719147 -0.01719147
-0.01718397 -0.01718397 -0.01718397
-0.01717646 -0.01717646 -0.01717646
-0.01716895 -0.01716895 -0.01716895
-0.01716143 -0.01716143 -0.01716143
-0.01715391 -0.01715391 -0.01715391
-0.01714639 -0.01714639 -0.01714639
-0.01713885 -0.01713885 -0.01713885
-0.01713132 -0.01713132 -0.01713132
-0.01712378 -0.01712378 -0.01712378
-0.01711623 -0.01711623 -0.01711623
-0.01710868 -0.01710868 -0.01710868
-0.01710113 -0.01710113 -0.01710113
-0.01709357 -0.01709357 -0.01709357
-0.01708600 -0.01708600 -0.01708600
-0.01707843 -0.01707843 -0.01707843
-0.01707085 -0.01707085 -0.01707085
-0.01706327 -0.01706327 -0.01706327
-0.01705569 -0.01705569 -0.01705569
-0.01704810 -0.01704810 -0.01704810
-0.01704050 -0.01704050 -0.01704050
-0.01703290 -0.01703290 -0.01703290
-0.01702530 -0.01702530 -0.01702530
-0.01701769 -0.01701769 -0.01701769
-0.01701007 -0.01701007 -0.01701007
-0.01700245 -0.01700245 -0.01700245
-0.01699483 -0.01699483 -0.01699483
-0.01698720 -0.01698720 -0.01698720
-0.01697956 -0.01697956 -0.01697956
-0.01697192 -0.01697192 -0.01697192
-0.01696428 -0.01696428 -0.01696428
-0.01695663 -0.01695663 -0.01695663
-0.01694898 -0.01694898 -0.01694898
-0.01694132 -0.01694132 -0.01694132
-0.01693365 -0.01693365 -0.01693365
-0.01692598 -0.01692598 -0.01692598
-0.01691831 -0.01691831 -0.01691831
-0.01691063 -0.01691063 -0.01691063
-0.01690294 -0.01690294 -0.01690294
-0.01689525 -0.01689525 -0.01689525
-0.01688756 -0.01688756 -0.01688756
-0.01687986 -0.01687986 -0.01687986
-0.01687215 -0.01687215 -0.01687215
-0.01686444 -0.01686444 -0.01686444
-0.01685673 -0.01685673 -0.01685673
-0.01684901 -0.01684901 -0.01684901
-0.01684128 -0.01684128 -0.01684128
-0.01683355 -0.01683355 -0.01683355
-0.01682582 -0.01682582 -0.01682582
-0.01681808 -0.01681808 -0.01681808
-0.01681033 -0.01681033 -0.01681033
-0.01680258 -0.01680258 -0.01680258
-0.01679482 -0.01679482 -0.01679482
-0.01678706 -0.01678706 -0.01678706
-0.01677930 -0.01677930 -0.01677930
-0.01677153 -0.01677153 -0.01677153
-0.01676375 -0.01676375 -0.01676375
-0.01675597 -0.01675597 -0.01675597
-0.01674818 -0.01674818 -0.01674818
-0.01674039 -0.01674039 -0.01674039
-0.01673260 -0.01673260 -0.01673260
-0.01672480 -0.01672480 -0.01672480
-0.01671699 -0.01671699 -0.01671699
-0.01670918 -0.01670918 -0.01670918
-0.01670136 -0.01670136 -0.01670136
-0.01669354 -0.01669354 -0.01669354
-0.01668571 -0.01668571 -0.01668571
-0.01667788 -0.01667788 -0.01667788
-0.01667005 -0.01667005 -0.01667005
-0.01666220 -0.01666220 -0.01666220
-0.01665436 -0.01665436 -0.01665436
-0.01664650 -0.01664650 -0.01664650
-0.01663865 -0.01663865 -0.01663865
-0.01663078 -0.01663078 -0.01663078
-0.01662292 -0.01662292 -0.01662292
-0.01661504 -0.01661504 -0.01661504
-0.01660717 -0.01660717 -0.01660717
-0.01659928 -0.01659928 -0.01659928
-0.01659139 -0.01659139 -0.01659139
-0.01658350 -0.01658350 -0.01658350
-0.01657560 -0.01657560 -0.01657560
-0.01656770 -0.01656770 -0.01656770
-0.01655979 -0.01655979 -0.01655979
-0.01655188 -0.01655188 -0.01655188
-0.01654396 -0.01654396 -0.01654396
-0.01653603 -0.01653603 -0.01653603
-0.01652810 -0.01652810 -0.01652810
-0.01652017 -0.01652017 -0.01652017
-0.01651223 -0.01651223 -0.01651223
-0.01650428 -0.01650428 -0.01650428
-0.01649633 -0.01649633 -0.01649633
-0.01648838 -0.01648838 -0.01648838
-0.01648042 -0.01648042 -0.01648042
-0.01647245 -0.01647245 -0.01647245
-0.01646448 -0.01646448 -0.01646448
-0.01645650 -0.01645650 -0.01645650
-0.01644852 -0.01644852 -0.01644852
-0.01644053 -0.01644053 -0.01644053
-0.01643254 -0.01643254 -0.01643254
-0.01642455 -0.01642455 -0.01642455
-0.01641654 -0.01641654 -0.01641654
-0.01640854 -0.01640854 -0.01640854
-0.01640052 -0.01640052 -0.01640052
-0.01639250 -0.01639250 -0.01639250
-0.01638448 -0.01638448 -0.01638448
-0.01637645 -0.01637645 -0.01637645
-0.01636842 -0.01636842 -0.01636842
-0.01636038 -0.01636038 -0.01636038
-0.01635234 -0.01635234 -0.01635234
-0.01634429 -0.01634429 -0.01634429
-0.01633623 -0.01633623 -0.01633623
-0.01632817 -0.01632817 -0.01632817
-0.01632011 -0.01632011 -0.01632011
-0.01631204 -0.01631204 -0.01631204
-0.01630396 -0.01630396 -0.01630396
-0.01629588 -0.01629588 -0.01629588
-0.01628779 -0.01628779 -0.01628779
-0.01627970 -0.01627970 -0.01627970
-0.01627160 -0.01627160 -0.01627160
-0.01626350 -0.01626350 -0.01626350
-0.01625539 -0.01625539 -0.01625539
-0.01624728 -0.01624728 -0.01624728
-0.01623916 -0.01623916 -0.01623916
-0.01623104 -0.01623104 -0.01623104
-0.01622291 -0.01622291 -0.01622291
-0.01621478 -0.01621478 -0.01621478
-0.01620664 -0.01620664 -0.01620664
-0.01619849 -0.01619849 -0.01619849
-0.01619034 -0.01619034 -0.01619034
-0.01618219 -0.01618219 -0.01618219
-0.01617403 -0.01617403 -0.01617403
-0.01616586 -0.01616586 -0.01616586
-0.01615769 -0.01615769 -0.01615769
-0.01614951 -0.01614951 -0.01614951
-0.01614133 -0.01614133 -0.01614133
-0.01613314 -0.01613314 -0.01613314
-0.01612495 -0.01612495 -0.01612495
-0.01611675 -0.01611675 -0.01611675
-0.01610855 -0.01610855 -0.01610855
-0.01610034 -0.01610034 -0.01610034
-0.01609212 -0.01609212 -0.01609212
-0.01608391 -0.01608391 -0.01608391
-0.01607568 -0.01607568 -0.01607568
-0.01606745 -0.01606745 -0.01606745
-0.01605921 -0.01605921 -0.01605921
-0.01605097 -0.01605097 -0.01605097
-0.01604273 -0.01604273 -0.01604273
-0.01603448 -0.01603448 -0.01603448
-0.01602622 -0.01602622 -0.01602622
-0.01601796 -0.01601796 -0.01601796
-0.01600969 -0.01600969 -0.01600969
-0.01600141 -0.01600141 -0.01600141
-0.01599314 -0.01599314 -0.01599314
-0.01598485 -0.01598485 -0.01598485
-0.01597656 -0.01597656 -0.01597656
-0.01596827 -0.01596827 -0.01596827
-0.01595997 -0.01595997 -0.01595997
-0.01595166 -0.01595166 -0.01595166
-0.01594335 -0.01594335 -0.01594335
-0.01593503 -0.01593503 -0.01593503
-0.01592671 -0.01592671 -0.01592671
-0.01591838 -0.01591838 -0.01591838
-0.01591005 -0.01591005 -0.01591005
-0.01590171 -0.01590171 -0.01590171
-0.01589337 -0.01589337 -0.01589337
-0.01588502 -0.01588502 -0.01588502
-0.01587666 -0.01587666 -0.01587666
-0.01586830 -0.01586830 -0.01586830
-0.01585994 -0.01585994 -0.01585994
-0.01585157 -0.01585157 -0.01585157
-0.01584319 -0.01584319 -0.01584319
-0.01583481 -0.01583481 -0.01583481
-0.01582642 -0.01582642 -0.01582642
-0.01581803 -0.01581803 -0.01581803
-0.01580963 -0.01580963 -0.01580963
-0.01580122 -0.01580122 -0.01580122
-0.01579281 -0.01579281 -0.01579281
-0.01578440 -0.01578440 -0.01578440
-0.01577598 -0.01577598 -0.01577598
-0.01576755 -0.01576755 -0.01576755
-0.01575912 -0.01575912 -0.01575912
-0.01575068 -0.01575068 -0.01575068
-0.01574224 -0.01574224 -0.01574224
-0.01573379 -0.01573379 -0.01573379
-0.01572534 -0.01572534 -0.01572534
-0.01571688 -0.01571688 -0.01571688
-0.01570842 -0.01570842 -0.01570842
-0.01569995 -0.01569995 -0.01569995
-0.01569147 -0.01569147 -0.01569147
-0.01568299 -0.01568299 -0.01568299
-0.01567450 -0.01567450 -0.01567450
-0.01566601 -0.01566601 -0.01566601
-0.01565751 -0.01565751 -0.01565751
-0.01564901 -0.01564901 -0.01564901
-0.01564050 -0.01564050 -0.01564050
-0.01563199 -0.01563199 -0.01563199
-0.01562347 -0.01562347 -0.01562347
-0.01561494 -0.01561494 -0.01561494
-0.01560641 -0.01560641 -0.01560641
-0.01559787 -0.01559787 -0.01559787
-0.01558933 -0.01558933 -0.01558933
-0.01558078 -0.01558078 -0.01558078
-0.01557223 -0.01557223 -0.01557223
-0.01556367 -0.01556367 -0.01556367
-0.01555510 -0.01555510 -0.01555510
-0.01554653 -0.01554653 -0.01554653
-0.01553796 -0.01553796 -0.01553796
-0.01552938 -0.01552938 -0.01552938
-0.01552079 -0.01552079 -0.01552079
-0.01551220 -0.01551220 -0.01551220
-0.01550360 -0.01550360 -0.01550360
-0.01549500 -0.01549500 -0.01549500
-0.01548639 -0.01548639 -0.01548639
-0.01547777 -0.01547777 -0.01547777
-0.01546915 -0.01546915 -0.01546915
-0.01546052 -0.01546052 -0.01546052
-0.01545189 -0.01545189 -0.01545189
-0.01544325 -0.01544325 -0.01544325
-0.01543461 -0.01543461 -0.01543461
-0.01542596 -0.01542596 -0.01542596
-0.01541731 -0.01541731 -0.01541731
-0.01540865 -0.01540865 -0.01540865
-0.01539998 -0.01539998 -0.01539998
-0.01539131 -0.01539131 -0.01539131
-0.01538263 -0.01538263 -0.01538263
-0.01537395 -0.01537395 -0.01537395
-0.01536526 -0.01536526 -0.01536526
-0.01535657 -0.01535657 -0.01535657
-0.01534787 -0.01534787 -0.01534787
-0.01533916 -0.01533916 -0.01533916
-0.01533045 -0.01533045 -0.01533045
-0.01532173 -0.01532173 -0.01532173
-0.01531301 -0.01531301 -0.01531301
-0.01530428 -0.01530428 -0.01530428
-0.01529555 -0.01529555 -0.01529555
-0.01528681 -0.01528681 -0.01528681
-0.01527806 -0.01527806 -0.01527806
-0.01526931 -0.01526931 -0.01526931
-0.01526055 -0.01526055 -0.01526055
-0.01525179 -0.01525179 -0.01525179
-0.01524302 -0.01524302 -0.01524302
-0.01523425 -0.01523425 -0.01523425
-0.01522547 -0.01522547 -0.01522547
-0.01521668 -0.01521668 -0.01521668
-0.01520789 -0.01520789 -0.01520789
-0.01519909 -0.01519909 -0.01519909
-0.01519029 -0.01519029 -0.01519029
-0.01518148 -0.01518148 -0.01518148
-0.01517267 -0.01517267 -0.01517267
-0.01516385 -0.01516385 -0.01516385
-0.01515502 -0.01515502 -0.01515502
-0.01514619 -0.01514619 -0.01514619
-0.01513735 -0.01513735 -0.01513735
-0.01512851 -0.01512851 -0.01512851
-0.01511966 -0.01511966 -0.01511966
-0.01511081 -0.01511081 -0.01511081
-0.01510195 -0.01510195 -0.01510195
-0.01509308 -0.01509308 -0.01509308
-0.01508421 -0.01508421 -0.01508421
-0.01507533 -0.01507533 -0.01507533
-0.01506645 -0.01506645 -0.01506645
-0.01505756 -0.01505756 -0.01505756
-0.01504866 -0.01504866 -0.01504866
-0.01503976 -0.01503976 -0.01503976
-0.01503085 -0.01503085 -0.01503085
-0.01502194 -0.01502194 -0.01502194
-0.01501302 -0.01501302 -0.01501302
-0.01500410 -0.01500410 -0.01500410
-0.01499517 -0.01499517 -0.01499517
-0.01498623 -0.01498623 -0.01498623
-0.01497729 -0.01497729 -0.01497729
-0.01496834 -0.01496834 -0.01496834
-0.01495939 -0.01495939 -0.01495939
-0.01495043 -0.01495043 -0.01495043
-0.01494146 -0.01494146 -0.01494146
-0.01493249 -0.01493249 -0.01493249
-0.01492352 -0.01492352 -0.01492352
-0.01491453 -0.01491453 -0.01491453
-0.01490554 -0.01490554 -0.01490554
-0.01489655 -0.01489655 -0.01489655
-0.01488755 -0.01488755 -0.01488755
-0.01487854 -0.01487854 -0.01487854
-0.01486953 -0.01486953 -0.01486953
-0.01486051 -0.01486051 -0.01486051
-0.01485149 -0.01485149 -0.01485149
-0.01484246 -0.01484246 -0.01484246
-0.01483342 -0.01483342 -0.01483342
-0.01482438 -0.01482438 -0.01482438
-0.01481533 -0.01481533 -0.01481533
-0.01480628 -0.01480628 -0.01480628
-0.01479722 -0.01479722 -0.01479722
-0.01478816 -0.01478816 -0.01478816
-0.01477908 -0.01477908 -0.01477908
-0.01477001 -0.01477001 -0.01477001
-0.01476092 -0.01476092 -0.01476092
-0.01475184 -0.01475184 -0.01475184
-0.01474274 -0.01474274 -0.01474274
-0.01473364 -0.01473364 -0.01473364
-0.01472453 -0.01472453 -0.01472453
-0.01471542 -0.01471542 -0.01471542
-0.01470630 -0.01470630 -0.01470630
-0.01469718 -0.01469718 -0.01469718
-0.01468805 -0.01468805 -0.01468805
-0.01467891 -0.01467891 -0.01467891
-0.01466977 -0.01466977 -0.01466977
-0.01466062 -0.01466062 -0.01466062
-0.01465146 -0.01465146 -0.01465146
-0.01464230 -0.01464230 -0.01464230
-0.01463314 -0.01463314 -0.01463314
-0.01462396 -0.01462396 -0.01462396
-0.01461479 -0.01461479 -0.01461479
-0.01460560 -0.01460560 -0.01460560
-0.01459641 -0.01459641 -0.01459641
-0.01458721 -0.01458721 -0.01458721
-0.01457801 -0.01457801 -0.01457801
-0.01456880 -0.01456880 -0.01456880
-0.01455959 -0.01455959 -0.01455959
-0.01455037 -0.01455037 -0.01455037
-0.01454114 -0.01454114 -0.01454114
-0.01453191 -0.01453191 -0.01453191
-0.01452267 -0.01452267 -0.01452267
-0.01451343 -0.01451343 -0.01451343
-0.01450417 -0.01450417 -0.01450417
-0.01449492 -0.01449492 -0.01449492
-0.01448566 -0.01448566 -0.01448566
-0.01447639 -0.01447639 -0.01447639
-0.01446711 -0.01446711 -0.01446711
-0.01445783 -0.01445783 -0.01445783
-0.01444854 -0.01444854 -0.01444854
-0.01443925 -0.01443925 -0.01443925
-0.01442995 -0.01442995 -0.01442995
-0.01442065 -0.01442065 -0.01442065
-0.01441133 -0.01441133 -0.01441133
-0.01440202 -0.01440202 -0.01440202
-0.01439269 -0.01439269 -0.01439269
-0.01438336 -0.01438336 -0.01438336
-0.01437403 -0.01437403 -0.01437403
-0.01436469 -0.01436469 -0.01436469
-0.01435534 -0.01435534 -0.01435534
-0.01434599 -0.01434599 -0.01434599
-0.01433663 -0.01433663 -0.01433663
-0.01432726 -0.01432726 -0.01432726
-0.01431789 -0.01431789 -0.01431789
-0.01430851 -0.01430851 -0.01430851
-0.01429912 -0.01429912 -0.01429912
-0.01428973 -0.01428973 -0.01428973
-0.01428034 -0.01428034 -0.01428034
-0.01427093 -0.01427093 -0.01427093
-0.01426152 -0.01426152 -0.01426152
-0.01425211 -0.01425211 -0.01425211
-0.01424269 -0.01424269 -0.01424269
-0.01423326 -0.01423326 -0.01423326
-0.01422383 -0.01422383 -0.01422383
-0.01421439 -0.01421439 -0.01421439
-0.01420494 -0.01420494 -0.01420494
-0.01419549 -0.01419549 -0.01419549
-0.01418603 -0.01418603 -0.01418603
-0.01417657 -0.01417657 -0.01417657
-0.01416709 -0.01416709 -0.01416709
-0.01415762 -0.01415762 -0.01415762
-0.01414813 -0.01414813 -0.01414813
-0.01413865 -0.01413865 -0.01413865
-0.01412915 -0.01412915 -0.01412915
-0.01411965 -0.01411965 -0.01411965
-0.01411014 -0.01411014 -0.01411014
-0.01410063 -0.01410063 -0.01410063
-0.01409111 -0.01409111 -0.01409111
-0.01408158 -0.01408158 -0.01408158
-0.01407205 -0.01407205 -0.01407205
-0.01406251 -0.01406251 -0.01406251
-0.01405296 -0.01405296 -0.01405296
-0.01404341 -0.01404341 -0.01404341
-0.01403385 -0.01403385 -0.01403385
-0.01402429 -0.01402429 -0.01402429
-0.01401472 -0.01401472 -0.01401472
-0.01400514 -0.01400514 -0.01400514
-0.01399556 -0.01399556 -0.01399556
-0.01398597 -0.01398597 -0.01398597
-0.01397638 -0.01397638 -0.01397638
-0.01396677 -0.01396677 -0.01396677
-0.01395717 -0.01395717 -0.01395717
-0.01394755 -0.01394755 -0.01394755
-0.01393793 -0.01393793 -0.01393793
-0.01392831 -0.01392831 -0.01392831
-0.01391867 -0.01391867 -0.01391867
-0.01390903 -0.01390903 -0.01390903
-0.01389939 -0.01389939 -0.01389939
-0.01388974 -0.01388974 -0.01388974
-0.01388008 -0.01388008 -0.01388008
-0.01387041 -0.01387041 -0.01387041
-0.01386074 -0.01386074 -0.01386074
-0.01385107 -0.01385107 -0.01385107
-0.01384138 -0.01384138 -0.01384138
-0.01383169 -0.01383169 -0.01383169
-0.01382200 -0.01382200 -0.01382200
-0.01381230 -0.01381230 -0.01381230
-0.01380259 -0.01380259 -0.01380259
-0.01379287 -0.01379287 -0.01379287
-0.01378315 -0.01378315 -0.01378315
-0.01377342 -0.01377342 -0.01377342
-0.01376369 -0.01376369 -0.01376369
-0.01375395 -0.01375395 -0.01375395
-0.01374420 -0.01374420 -0.01374420
-0.01373445 -0.01373445 -0.01373445
-0.01372469 -0.01372469 -0.01372469
-0.01371492 -0.01371492 -0.01371492
-0.01370515 -0.01370515 -0.01370515
-0.01369537 -0.01369537 -0.01369537
-0.01368559 -0.01368559 -0.01368559
-0.01367580 -0.01367580 -0.01367580
-0.01366600 -0.01366600 -0.01366600
-0.01365619 -0.01365619 -0.01365619
-0.01364638 -0.01364638 -0.01364638
-0.01363657 -0.01363657 -0.01363657
-0.01362674 -0.01362674 -0.01362674
-0.01361691 -0.01361691 -0.01361691
-0.01360708 -0.01360708 -0.01360708
-0.01359723 -0.01359723 -0.01359723
-0.01358739 -0.01358739 -0.01358739
-0.01357753 -0.01357753 -0.01357753
-0.01356767 -0.01356767 -0.01356767
-0.01355780 -0.01355780 -0.01355780
-0.01354792 -0.01354792 -0.01354792
-0.01353804 -0.01353804 -0.01353804
-0.01352816 -0.01352816 -0.01352816
-0.01351826 -0.01351826 -0.01351826
-0.01350836 -0.01350836 -0.01350836
-0.01349845 -0.01349845 -0.01349845
-0.01348854 -0.01348854 -0.01348854
-0.01347862 -0.01347862 -0.01347862
-0.01346869 -0.01346869 -0.01346869
-0.01345876 -0.01345876 -0.01345876
-0.01344882 -0.01344882 -0.01344882
-0.01343887 -0.01343887 -0.01343887
-0.01342892 -0.01342892 -0.01342892
-0.01341896 -0.01341896 -0.01341896
-0.01340900 -0.01340900 -0.01340900
-0.01339902 -0.01339902 -0.01339902
-0.01338905 -0.01338905 -0.01338905
-0.01337906 -0.01337906 -0.01337906
-0.01336907 -0.01336907 -0.01336907
-0.01335907 -0.01335907 -0.01335907
-0.01334907 -0.01334907 -0.01334907
-0.01333906 -0.01333906 -0.01333906
-0.01332904 -0.01332904 -0.01332904
-0.01331901 -0.01331901 -0.01331901
-0.01330898 -0.01330898 -0.01330898
-0.01329895 -0.01329895 -0.01329895
-0.01328890 -0.01328890 -0.01328890
-0.01327885 -0.01327885 -0.01327885
-0.01326879 -0.01326879 -0.01326879
-0.01325873 -0.01325873 -0.01325873
-0.01324866 -0.01324866 -0.01324866
-0.01323858 -0.01323858 -0.01323858
-0.01322850 -0.01322850 -0.01322850
-0.01321841 -0.01321841 -0.01321841
-0.01320831 -0.01320831 -0.01320831
-0.01319821 -0.01319821 -0.01319821
-0.01318810 -0.01318810 -0.01318810
-0.01317798 -0.01317798 -0.01317798
-0.01316786 -0.01316786 -0.01316786
-0.01315773 -0.01315773 -0.01315773
-0.01314760 -0.01314760 -0.01314760
-0.01313745 -0.01313745 -0.01313745
-0.01312730 -0.01312730 -0.01312730
-0.01311715 -0.01311715 -0.01311715
-0.01310698 -0.01310698 -0.01310698
-0.01309681 -0.01309681 -0.01309681
-0.01308664 -0.01308664 -0.01308664
-0.01307646 -0.01307646 -0.01307646
-0.01306627 -0.01306627 -0.01306627
-0.01305607 -0.01305607 -0.01305607
-0.01304587 -0.01304587 -0.01304587
-0.01303566 -0.01303566 -0.01303566
-0.01302544 -0.01302544 -0.01302544
-0.01301522 -0.01301522 -0.01301522
-0.01300499 -0.01300499 -0.01300499
-0.01299476 -0.01299476 -0.01299476
-0.01298451 -0.01298451 -0.01298451
-0.01297426 -0.01297426 -0.01297426
-0.01296401 -0.01296401 -0.01296401
-0.01295374 -0.01295374 -0.01295374
-0.01294348 -0.01294348 -0.01294348
-0.01293320 -0.01293320 -0.01293320
-0.01292292 -0.01292292 -0.01292292
-0.01291263 -0.01291263 -0.01291263
-0.01290233 -0.01290233 -0.01290233
-0.01289203 -0.01289203 -0.01289203
-0.01288172 -0.01288172 -0.01288172
-0.01287140 -0.01287140 -0.01287140
-0.01286108 -0.01286108 -0.01286108
-0.01285075 -0.01285075 -0.01285075
-0.01284041 -0.01284041 -0.01284041
-0.01283007 -0.01283007 -0.01283007
-0.01281972 -0.01281972 -0.01281972
-0.01280936 -0.01280936 -0.01280936
-0.01279900 -0.01279900 -0.01279900
-0.01278863 -0.01278863 -0.01278863
-0.01277825 -0.01277825 -0.01277825
-0.01276787 -0.01276787 -0.01276787
-0.01275747 -0.01275747 -0.01275747
-0.01274708 -0.01274708 -0.01274708
-0.01273667 -0.01273667 -0.01273667
-0.01272626 -0.01272626 -0.01272626
-0.01271584 -0.01271584 -0.01271584
-0.01270542 -0.01270542 -0.01270542
-0.01269499 -0.01269499 -0.01269499
-0.01268455 -0.01268455 -0.01268455
-0.01267410 -0.01267410 -0.01267410
-0.01266365 -0.01266365 -0.01266365
-0.01265319 -0.01265319 -0.01265319
-0.01264273 -0.01264273 -0.01264273
-0.01263225 -0.01263225 -0.01263225
-0.01262177 -0.01262177 -0.01262177
-0.01261129 -0.01261129 -0.01261129
-0.01260079 -0.01260079 -0.01260079
-0.01259029 -0.01259029 -0.01259029
-0.01257979 -0.01257979 -0.01257979
-0.01256927 -0.01256927 -0.01256927
-0.01255875 -0.01255875 -0.01255875
-0.01254823 -0.01254823 -0.01254823
-0.01253769 -0.01253769 -0.01253769
-0.01252715 -0.01252715 -0.01252715
-0.01251660 -0.01251660 -0.01251660
-0.01250605 -0.01250605 -0.01250605
-0.01249549 -0.01249549 -0.01249549
-0.01248492 -0.01248492 -0.01248492
-0.01247434 -0.01247434 -0.01247434
-0.01246376 -0.01246376 -0.01246376
-0.01245317 -0.01245317 -0.01245317
-0.01244257 -0.01244257 -0.01244257
-0.01243197 -0.01243197 -0.01243197
-0.01242136 -0.01242136 -0.01242136
-0.01241074 -0.01241074 -0.01241074
-0.01240012 -0.01240012 -0.01240012
-0.01238949 -0.01238949 -0.01238949
-0.01237885 -0.01237885 -0.01237885
-0.01236820 -0.01236820 -0.01236820
-0.01235755 -0.01235755 -0.01235755
-0.01234689 -0.01234689 -0.01234689
-0.01233623 -0.01233623 -0.01233623
-0.01232556 -0.01232556 -0.01232556
-0.01231488 -0.01231488 -0.01231488
-0.01230419 -0.01230419 -0.01230419
-0.01229349 -0.01229349 -0.01229349
-0.01228279 -0.01228279 -0.01228279
